app/src/main/assets/luts/cool.cube
TITLE "Cool"
LUT_3D_SIZE 9
0.000000 0.000000 0.068000
0.082106 0.005606 0.073606
0.164212 0.011212 0.079213
0.246319 0.016819 0.084819
0.328425 0.022425 0.090425
0.410531 0.028031 0.096031
0.492638 0.033638 0.101637
0.574744 0.039244 0.107244
0.656850 0.044850 0.112850
0.011006 0.117256 0.079006
0.093113 0.122862 0.084612
0.175219 0.128469 0.090219
0.257325 0.134075 0.095825
0.339431 0.139681 0.101431
0.421537 0.145287 0.107037
0.503644 0.150894 0.112644
0.585750 0.156500 0.118250
0.667856 0.162106 0.123856
0.022012 0.234513 0.090012
0.104119 0.240119 0.095619
0.186225 0.245725 0.101225
0.268331 0.251331 0.106831
0.350438 0.256937 0.112437
0.432544 0.262544 0.118044
0.514650 0.268150 0.123650
0.596756 0.273756 0.129256
0.678862 0.279363 0.134862
0.033019 0.351769 0.101019
0.115125 0.357375 0.106625
0.197231 0.362981 0.112231
0.279338 0.368588 0.117837
0.361444 0.374194 0.123444
0.443550 0.379800 0.129050
0.525656 0.385406 0.134656
0.607762 0.391012 0.140263
0.689869 0.396619 0.145869
0.044025 0.469025 0.112025
0.126131 0.474631 0.117631
0.208237 0.480237 0.123237
0.290344 0.485844 0.128844
0.372450 0.491450 0.134450
0.454556 0.497056 0.140056
0.536663 0.502663 0.145662
0.618769 0.508269 0.151269
0.700875 0.513875 0.156875
0.055031 0.586281 0.123031
0.137137 0.591888 0.128637
0.219244 0.597494 0.134244
0.301350 0.603100 0.139850
0.383456 0.608706 0.145456
0.465562 0.614313 0.151062
0.547669 0.619919 0.156669
0.629775 0.625525 0.162275
0.711881 0.631131 0.167881
0.066037 0.703538 0.134038
0.148144 0.709144 0.139644
0.230250 0.714750 0.145250
0.312356 0.720356 0.150856
0.394462 0.725962 0.156463
0.476569 0.731569 0.162069
0.558675 0.737175 0.167675
0.640781 0.742781 0.173281
0.722888 0.748387 0.178888
0.077044 0.820794 0.145044
0.159150 0.826400 0.150650
0.241256 0.832006 0.156256
0.323362 0.837612 0.161863
0.405469 0.843219 0.167469
0.487575 0.848825 0.173075
0.569681 0.854431 0.178681
0.651787 0.860038 0.184287
0.733894 0.865644 0.189894
0.088050 0.938050 0.156050
0.170156 0.943656 0.161656
0.252263 0.949263 0.167262
0.334369 0.954869 0.172869
0.416475 0.960475 0.178475
0.498581 0.966081 0.184081
0.580688 0.971688 0.189688
0.662794 0.977294 0.195294
0.744900 0.982900 0.200900
0.002138 0.002138 0.195512
0.084244 0.007744 0.201119
0.166350 0.013350 0.206725
0.248456 0.018956 0.212331
0.330562 0.024563 0.217937
0.412669 0.030169 0.223544
0.494775 0.035775 0.229150
0.576881 0.041381 0.234756
0.658987 0.046987 0.240362
0.013144 0.119394 0.206519
0.095250 0.125000 0.212125
0.177356 0.130606 0.217731
0.259463 0.136213 0.223337
0.341569 0.141819 0.228944
0.423675 0.147425 0.234550
0.505781 0.153031 0.240156
0.587888 0.158637 0.245762
0.669994 0.164244 0.251369
0.024150 0.236650 0.217525
0.106256 0.242256 0.223131
0.188362 0.247862 0.228737
0.270469 0.253469 0.234344
0.352575 0.259075 0.239950
0.434681 0.264681 0.245556
0.516788 0.270288 0.251162
0.598894 0.275894 0.256769
0.681000 0.281500 0.262375
0.035156 0.353906 0.228531
0.117262 0.359513 0.234137
0.199369 0.365119 0.239744
0.281475 0.370725 0.245350
0.363581 0.376331 0.250956
0.445687 0.381937 0.256562
0.527794 0.387544 0.262169
0.609900 0.393150 0.267775
0.692006 0.398756 0.273381
0.046162 0.471162 0.239537
0.128269 0.476769 0.245144
0.210375 0.482375 0.250750
0.292481 0.487981 0.256356
0.374587 0.493588 0.261962
0.456694 0.499194 0.267569
0.538800 0.504800 0.273175
0.620906 0.510406 0.278781
0.703012 0.516012 0.284387
0.057169 0.588419 0.250544
0.139275 0.594025 0.256150
0.221381 0.599631 0.261756
0.303488 0.605237 0.267362
0.385594 0.610844 0.272969
0.467700 0.616450 0.278575
0.549806 0.622056 0.284181
0.631912 0.627663 0.289787
0.714019 0.633269 0.295394
0.068175 0.705675 0.261550
0.150281 0.711281 0.267156
0.232387 0.716888 0.272762
0.314494 0.722494 0.278369
0.396600 0.728100 0.283975
0.478706 0.733706 0.289581
0.560813 0.739313 0.295187
0.642919 0.744919 0.300794
0.725025 0.750525 0.306400
0.079181 0.822931 0.272556
0.161288 0.828538 0.278162
0.243394 0.834144 0.283769
0.325500 0.839750 0.289375
0.407606 0.845356 0.294981
0.489712 0.850962 0.300588
0.571819 0.856569 0.306194
0.653925 0.862175 0.311800
0.736031 0.867781 0.317406
0.090187 0.940187 0.283562
0.172294 0.945794 0.289169
0.254400 0.951400 0.294775
0.336506 0.957006 0.300381
0.418612 0.962612 0.305987
0.500719 0.968219 0.311594
0.582825 0.973825 0.317200
0.664931 0.979431 0.322806
0.747037 0.985038 0.328412
0.004275 0.004275 0.323025
0.086381 0.009881 0.328631
0.168487 0.015487 0.334238
0.250594 0.021094 0.339844
0.332700 0.026700 0.345450
0.414806 0.032306 0.351056
0.496913 0.037913 0.356662
0.579019 0.043519 0.362269
0.661125 0.049125 0.367875
0.015281 0.121531 0.334031
0.097387 0.127137 0.339637
0.179494 0.132744 0.345244
0.261600 0.138350 0.350850
0.343706 0.143956 0.356456
0.425812 0.149562 0.362063
0.507919 0.155169 0.367669
0.590025 0.160775 0.373275
0.672131 0.166381 0.378881
0.026287 0.238787 0.345037
0.108394 0.244394 0.350644
0.190500 0.250000 0.356250
0.272606 0.255606 0.361856
0.354712 0.261213 0.367463
0.436819 0.266819 0.373069
0.518925 0.272425 0.378675
0.601031 0.278031 0.384281
0.683137 0.283637 0.389887
0.037294 0.356044 0.356044
0.119400 0.361650 0.361650
0.201506 0.367256 0.367256
0.283613 0.372862 0.372862
0.365719 0.378469 0.378469
0.447825 0.384075 0.384075
0.529931 0.389681 0.389681
0.612038 0.395288 0.395288
0.694144 0.400894 0.400894
0.048300 0.473300 0.367050
0.130406 0.478906 0.372656
0.212512 0.484513 0.378263
0.294619 0.490119 0.383869
0.376725 0.495725 0.389475
0.458831 0.501331 0.395081
0.540938 0.506938 0.400687
0.623044 0.512544 0.406294
0.705150 0.518150 0.411900
0.059306 0.590556 0.378056
0.141412 0.596163 0.383663
0.223519 0.601769 0.389269
0.305625 0.607375 0.394875
0.387731 0.612981 0.400481
0.469837 0.618587 0.406087
0.551944 0.624194 0.411694
0.634050 0.629800 0.417300
0.716156 0.635406 0.422906
0.070312 0.707812 0.389062
0.152419 0.713419 0.394669
0.234525 0.719025 0.400275
0.316631 0.724631 0.405881
0.398737 0.730237 0.411488
0.480844 0.735844 0.417094
0.562950 0.741450 0.422700
0.645056 0.747056 0.428306
0.727162 0.752663 0.433912
0.081319 0.825069 0.400069
0.163425 0.830675 0.405675
0.245531 0.836281 0.411281
0.327638 0.841888 0.416888
0.409744 0.847494 0.422494
0.491850 0.853100 0.428100
0.573956 0.858706 0.433706
0.656062 0.864313 0.439312
0.738169 0.869919 0.444919
0.092325 0.942325 0.411075
0.174431 0.947931 0.416681
0.256537 0.953538 0.422287
0.338644 0.959144 0.427894
0.420750 0.964750 0.433500
0.502856 0.970356 0.439106
0.584963 0.975962 0.444713
0.667069 0.981569 0.450319
0.749175 0.987175 0.455925
0.006413 0.006413 0.450537
0.088519 0.012019 0.456144
0.170625 0.017625 0.461750
0.252731 0.023231 0.467356
0.334838 0.028837 0.472962
0.416944 0.034444 0.478569
0.499050 0.040050 0.484175
0.581156 0.045656 0.489781
0.663262 0.051262 0.495387
0.017419 0.123669 0.461544
0.099525 0.129275 0.467150
0.181631 0.134881 0.472756
0.263738 0.140487 0.478362
0.345844 0.146094 0.483969
0.427950 0.151700 0.489575
0.510056 0.157306 0.495181
0.592163 0.162912 0.500787
0.674269 0.168519 0.506394
0.028425 0.240925 0.472550
0.110531 0.246531 0.478156
0.192637 0.252138 0.483762
0.274744 0.257744 0.489369
0.356850 0.263350 0.494975
0.438956 0.268956 0.500581
0.521062 0.274562 0.506188
0.603169 0.280169 0.511794
0.685275 0.285775 0.517400
0.039431 0.358181 0.483556
0.121537 0.363787 0.489162
0.203644 0.369394 0.494769
0.285750 0.375000 0.500375
0.367856 0.380606 0.505981
0.449962 0.386213 0.511587
0.532069 0.391819 0.517194
0.614175 0.397425 0.522800
0.696281 0.403031 0.528406
0.050437 0.475438 0.494562
0.132544 0.481044 0.500169
0.214650 0.486650 0.505775
0.296756 0.492256 0.511381
0.378862 0.497862 0.516987
0.460969 0.503469 0.522594
0.543075 0.509075 0.528200
0.625181 0.514681 0.533806
0.707287 0.520288 0.539412
0.061444 0.592694 0.505569
0.143550 0.598300 0.511175
0.225656 0.603906 0.516781
0.307762 0.609513 0.522388
0.389869 0.615119 0.527994
0.471975 0.620725 0.533600
0.554081 0.626331 0.539206
0.636188 0.631938 0.544812
0.718294 0.637544 0.550419
0.072450 0.709950 0.516575
0.154556 0.715556 0.522181
0.236662 0.721163 0.527787
0.318769 0.726769 0.533394
0.400875 0.732375 0.539000
0.482981 0.737981 0.544606
0.565087 0.743587 0.550212
0.647194 0.749194 0.555819
0.729300 0.754800 0.561425
0.083456 0.827206 0.527581
0.165563 0.832812 0.533187
0.247669 0.838419 0.538794
0.329775 0.844025 0.544400
0.411881 0.849631 0.550006
0.493987 0.855237 0.555612
0.576094 0.860844 0.561219
0.658200 0.866450 0.566825
0.740306 0.872056 0.572431
0.094462 0.944462 0.538587
0.176569 0.950069 0.544194
0.258675 0.955675 0.549800
0.340781 0.961281 0.555406
0.422887 0.966888 0.561012
0.504994 0.972494 0.566619
0.587100 0.978100 0.572225
0.669206 0.983706 0.577831
0.751312 0.989312 0.583437
0.008550 0.008550 0.578050
0.090656 0.014156 0.583656
0.172762 0.019762 0.589262
0.254869 0.025369 0.594869
0.336975 0.030975 0.600475
0.419081 0.036581 0.606081
0.501188 0.042187 0.611687
0.583294 0.047794 0.617294
0.665400 0.053400 0.622900
0.019556 0.125806 0.589056
0.101662 0.131412 0.594662
0.183769 0.137019 0.600269
0.265875 0.142625 0.605875
0.347981 0.148231 0.611481
0.430087 0.153837 0.617087
0.512194 0.159444 0.622694
0.594300 0.165050 0.628300
0.676406 0.170656 0.633906
0.030562 0.243062 0.600062
0.112669 0.248669 0.605669
0.194775 0.254275 0.611275
0.276881 0.259881 0.616881
0.358988 0.265487 0.622487
0.441094 0.271094 0.628094
0.523200 0.276700 0.633700
0.605306 0.282306 0.639306
0.687412 0.287913 0.644912
0.041569 0.360319 0.611069
0.123675 0.365925 0.616675
0.205781 0.371531 0.622281
0.287888 0.377138 0.627887
0.369994 0.382744 0.633494
0.452100 0.388350 0.639100
0.534206 0.393956 0.644706
0.616313 0.399562 0.650312
0.698419 0.405169 0.655919
0.052575 0.477575 0.622075
0.134681 0.483181 0.627681
0.216787 0.488787 0.633287
0.298894 0.494394 0.638894
0.381000 0.500000 0.644500
0.463106 0.505606 0.650106
0.545212 0.511212 0.655712
0.627319 0.516819 0.661319
0.709425 0.522425 0.666925
0.063581 0.594831 0.633081
0.145687 0.600437 0.638687
0.227794 0.606044 0.644294
0.309900 0.611650 0.649900
0.392006 0.617256 0.655506
0.474112 0.622862 0.661112
0.556219 0.628469 0.666719
0.638325 0.634075 0.672325
0.720431 0.639681 0.677931
0.074587 0.712087 0.644087
0.156694 0.717694 0.649694
0.238800 0.723300 0.655300
0.320906 0.728906 0.660906
0.403012 0.734513 0.666512
0.485119 0.740119 0.672119
0.567225 0.745725 0.677725
0.649331 0.751331 0.683331
0.731437 0.756938 0.688937
0.085594 0.829344 0.655094
0.167700 0.834950 0.660700
0.249806 0.840556 0.666306
0.331913 0.846163 0.671912
0.414019 0.851769 0.677519
0.496125 0.857375 0.683125
0.578231 0.862981 0.688731
0.660338 0.868587 0.694337
0.742444 0.874194 0.699944
0.096600 0.946600 0.666100
0.178706 0.952206 0.671706
0.260813 0.957812 0.677312
0.342919 0.963419 0.682919
0.425025 0.969025 0.688525
0.507131 0.974631 0.694131
0.589238 0.980237 0.699737
0.671344 0.985844 0.705344
0.753450 0.991450 0.710950
0.010688 0.010688 0.705562
0.092794 0.016294 0.711169
0.174900 0.021900 0.716775
0.257006 0.027506 0.722381
0.339112 0.033112 0.727987
0.421219 0.038719 0.733594
0.503325 0.044325 0.739200
0.585431 0.049931 0.744806
0.667538 0.055537 0.750412
0.021694 0.127944 0.716569
0.103800 0.133550 0.722175
0.185906 0.139156 0.727781
0.268013 0.144763 0.733387
0.350119 0.150369 0.738994
0.432225 0.155975 0.744600
0.514331 0.161581 0.750206
0.596437 0.167187 0.755812
0.678544 0.172794 0.761419
0.032700 0.245200 0.727575
0.114806 0.250806 0.733181
0.196912 0.256412 0.738787
0.279019 0.262019 0.744394
0.361125 0.267625 0.750000
0.443231 0.273231 0.755606
0.525338 0.278838 0.761212
0.607444 0.284444 0.766819
0.689550 0.290050 0.772425
0.043706 0.362456 0.738581
0.125812 0.368063 0.744187
0.207919 0.373669 0.749794
0.290025 0.379275 0.755400
0.372131 0.384881 0.761006
0.454237 0.390487 0.766612
0.536344 0.396094 0.772219
0.618450 0.401700 0.777825
0.700556 0.407306 0.783431
0.054713 0.479712 0.749587
0.136819 0.485319 0.755194
0.218925 0.490925 0.760800
0.301031 0.496531 0.766406
0.383137 0.502138 0.772012
0.465244 0.507744 0.777619
0.547350 0.513350 0.783225
0.629456 0.518956 0.788831
0.711562 0.524563 0.794437
0.065719 0.596969 0.760594
0.147825 0.602575 0.766200
0.229931 0.608181 0.771806
0.312038 0.613788 0.777412
0.394144 0.619394 0.783019
0.476250 0.625000 0.788625
0.558356 0.630606 0.794231
0.640463 0.636212 0.799837
0.722569 0.641819 0.805444
0.076725 0.714225 0.771600
0.158831 0.719831 0.777206
0.240937 0.725437 0.782812
0.323044 0.731044 0.788419
0.405150 0.736650 0.794025
0.487256 0.742256 0.799631
0.569362 0.747862 0.805237
0.651469 0.753469 0.810844
0.733575 0.759075 0.816450
0.087731 0.831481 0.782606
0.169838 0.837087 0.788212
0.251944 0.842694 0.793819
0.334050 0.848300 0.799425
0.416156 0.853906 0.805031
0.498262 0.859513 0.810637
0.580369 0.865119 0.816244
0.662475 0.870725 0.821850
0.744581 0.876331 0.827456
0.098737 0.948738 0.793612
0.180844 0.954344 0.799219
0.262950 0.959950 0.804825
0.345056 0.965556 0.810431
0.427163 0.971163 0.816037
0.509269 0.976769 0.821644
0.591375 0.982375 0.827250
0.673481 0.987981 0.832856
0.755587 0.993587 0.838462
0.012825 0.012825 0.833075
0.094931 0.018431 0.838681
0.177037 0.024037 0.844287
0.259144 0.029644 0.849894
0.341250 0.035250 0.855500
0.423356 0.040856 0.861106
0.505463 0.046463 0.866712
0.587569 0.052069 0.872319
0.669675 0.057675 0.877925
0.023831 0.130081 0.844081
0.105937 0.135687 0.849687
0.188044 0.141294 0.855294
0.270150 0.146900 0.860900
0.352256 0.152506 0.866506
0.434362 0.158112 0.872112
0.516469 0.163719 0.877719
0.598575 0.169325 0.883325
0.680681 0.174931 0.888931
0.034838 0.247337 0.855088
0.116944 0.252944 0.860694
0.199050 0.258550 0.866300
0.281156 0.264156 0.871906
0.363262 0.269763 0.877513
0.445369 0.275369 0.883119
0.527475 0.280975 0.888725
0.609581 0.286581 0.894331
0.691688 0.292187 0.899937
0.045844 0.364594 0.866094
0.127950 0.370200 0.871700
0.210056 0.375806 0.877306
0.292162 0.381412 0.882912
0.374269 0.387019 0.888519
0.456375 0.392625 0.894125
0.538481 0.398231 0.899731
0.620587 0.403838 0.905338
0.702694 0.409444 0.910944
0.056850 0.481850 0.877100
0.138956 0.487456 0.882706
0.221062 0.493063 0.888312
0.303169 0.498669 0.893919
0.385275 0.504275 0.899525
0.467381 0.509881 0.905131
0.549488 0.515487 0.910737
0.631594 0.521094 0.916344
0.713700 0.526700 0.921950
0.067856 0.599106 0.888106
0.149962 0.604712 0.893712
0.232069 0.610319 0.899319
0.314175 0.615925 0.904925
0.396281 0.621531 0.910531
0.478387 0.627138 0.916137
0.560494 0.632744 0.921744
0.642600 0.638350 0.927350
0.724706 0.643956 0.932956
0.078862 0.716363 0.899112
0.160969 0.721969 0.904719
0.243075 0.727575 0.910325
0.325181 0.733181 0.915931
0.407287 0.738788 0.921538
0.489394 0.744394 0.927144
0.571500 0.750000 0.932750
0.653606 0.755606 0.938356
0.735712 0.761212 0.943962
0.089869 0.833619 0.910119
0.171975 0.839225 0.915725
0.254081 0.844831 0.921331
0.336188 0.850437 0.926937
0.418294 0.856044 0.932544
0.500400 0.861650 0.938150
0.582506 0.867256 0.943756
0.664613 0.872862 0.949362
0.746719 0.878469 0.954969
0.100875 0.950875 0.921125
0.182981 0.956481 0.926731
0.265087 0.962087 0.932337
0.347194 0.967694 0.937944
0.429300 0.973300 0.943550
0.511406 0.978906 0.949156
0.593512 0.984513 0.954762
0.675619 0.990119 0.960369
0.757725 0.995725 0.965975
0.014963 0.014963 0.864962
0.097069 0.020569 0.870569
0.179175 0.026175 0.876175
0.261281 0.031781 0.881781
0.343388 0.037387 0.887387
0.425494 0.042994 0.892994
0.507600 0.048600 0.898600
0.589706 0.054206 0.904206
0.671812 0.059812 0.909813
0.025969 0.132219 0.875969
0.108075 0.137825 0.881575
0.190181 0.143431 0.887181
0.272288 0.149037 0.892787
0.354394 0.154644 0.898394
0.436500 0.160250 0.904000
0.518606 0.165856 0.909606
0.600712 0.171462 0.915212
0.682819 0.177069 0.920819
0.036975 0.249475 0.886975
0.119081 0.255081 0.892581
0.201187 0.260688 0.898188
0.283294 0.266294 0.903794
0.365400 0.271900 0.909400
0.447506 0.277506 0.915006
0.529613 0.283112 0.920613
0.611719 0.288719 0.926219
0.693825 0.294325 0.931825
0.047981 0.366731 0.897981
0.130087 0.372337 0.903587
0.212194 0.377944 0.909194
0.294300 0.383550 0.914800
0.376406 0.389156 0.920406
0.458512 0.394763 0.926013
0.540619 0.400369 0.931619
0.622725 0.405975 0.937225
0.704831 0.411581 0.942831
0.058987 0.483988 0.908988
0.141094 0.489594 0.914594
0.223200 0.495200 0.920200
0.305306 0.500806 0.925806
0.387412 0.506413 0.931412
0.469519 0.512019 0.937019
0.551625 0.517625 0.942625
0.633731 0.523231 0.948231
0.715838 0.528837 0.953838
0.069994 0.601244 0.919994
0.152100 0.606850 0.925600
0.234206 0.612456 0.931206
0.316312 0.618062 0.936813
0.398419 0.623669 0.942419
0.480525 0.629275 0.948025
0.562631 0.634881 0.953631
0.644737 0.640487 0.959237
0.726844 0.646094 0.964844
0.081000 0.718500 0.931000
0.163106 0.724106 0.936606
0.245212 0.729712 0.942213
0.327319 0.735319 0.947819
0.409425 0.740925 0.953425
0.491531 0.746531 0.959031
0.573638 0.752138 0.964638
0.655744 0.757744 0.970244
0.737850 0.763350 0.975850
0.092006 0.835756 0.942006
0.174113 0.841363 0.947612
0.256219 0.846969 0.953219
0.338325 0.852575 0.958825
0.420431 0.858181 0.964431
0.502537 0.863788 0.970037
0.584644 0.869394 0.975644
0.666750 0.875000 0.981250
0.748856 0.880606 0.986856
0.103012 0.953013 0.953013
0.185119 0.958619 0.958619
0.267225 0.964225 0.964225
0.349331 0.969831 0.969831
0.431437 0.975437 0.975437
0.513544 0.981044 0.981044
0.595650 0.986650 0.986650
0.677756 0.992256 0.992256
0.759862 0.997862 0.997862
0.017100 0.017100 0.867100
0.099206 0.022706 0.872706
0.181312 0.028312 0.878313
0.263419 0.033919 0.883919
0.345525 0.039525 0.889525
0.427631 0.045131 0.895131
0.509738 0.050737 0.900737
0.591844 0.056344 0.906344
0.673950 0.061950 0.911950
0.028106 0.134356 0.878106
0.110212 0.139962 0.883713
0.192319 0.145569 0.889319
0.274425 0.151175 0.894925
0.356531 0.156781 0.900531
0.438637 0.162387 0.906138
0.520744 0.167994 0.911744
0.602850 0.173600 0.917350
0.684956 0.179206 0.922956
0.039112 0.251613 0.889112
0.121219 0.257219 0.894719
0.203325 0.262825 0.900325
0.285431 0.268431 0.905931
0.367537 0.274037 0.911538
0.449644 0.279644 0.917144
0.531750 0.285250 0.922750
0.613856 0.290856 0.928356
0.695962 0.296463 0.933963
0.050119 0.368869 0.900119
0.132225 0.374475 0.905725
0.214331 0.380081 0.911331
0.296438 0.385688 0.916937
0.378544 0.391294 0.922544
0.460650 0.396900 0.928150
0.542756 0.402506 0.933756
0.624862 0.408112 0.939362
0.706969 0.413719 0.944969
0.061125 0.486125 0.911125
0.143231 0.491731 0.916731
0.225337 0.497337 0.922338
0.307444 0.502944 0.927944
0.389550 0.508550 0.933550
0.471656 0.514156 0.939156
0.553763 0.519763 0.944762
0.635869 0.525369 0.950369
0.717975 0.530975 0.955975
0.072131 0.603381 0.922131
0.154237 0.608988 0.927737
0.236344 0.614594 0.933344
0.318450 0.620200 0.938950
0.400556 0.625806 0.944556
0.482662 0.631413 0.950163
0.564769 0.637019 0.955769
0.646875 0.642625 0.961375
0.728981 0.648231 0.966981
0.083138 0.720638 0.933137
0.165244 0.726244 0.938744
0.247350 0.731850 0.944350
0.329456 0.737456 0.949956
0.411562 0.743062 0.955562
0.493669 0.748669 0.961169
0.575775 0.754275 0.966775
0.657881 0.759881 0.972381
0.739988 0.765487 0.977988
0.094144 0.837894 0.944144
0.176250 0.843500 0.949750
0.258356 0.849106 0.955356
0.340463 0.854712 0.960963
0.422569 0.860319 0.966569
0.504675 0.865925 0.972175
0.586781 0.871531 0.977781
0.668887 0.877138 0.983387
0.750994 0.882744 0.988994
0.105150 0.955150 0.955150
0.187256 0.960756 0.960756
0.269363 0.966363 0.966363
0.351469 0.971969 0.971969
0.433575 0.977575 0.977575
0.515681 0.983181 0.983181
0.597788 0.988788 0.988788
0.679894 0.994394 0.994394
0.762000 1.000000 1.000000
