app/src/main/assets/luts/cool.cube
TITLE "Cool"
LUT_3D_SIZE 5
0.000000 0.000000 0.068000
0.164212 0.011212 0.079213
0.328425 0.022425 0.090425
0.492638 0.033638 0.101637
0.656850 0.044850 0.112850
0.022012 0.234513 0.090012
0.186225 0.245725 0.101225
0.350438 0.256937 0.112437
0.514650 0.268150 0.123650
0.678862 0.279363 0.134862
0.044025 0.469025 0.112025
0.208237 0.480237 0.123237
0.372450 0.491450 0.134450
0.536663 0.502663 0.145662
0.700875 0.513875 0.156875
0.066037 0.703538 0.134038
0.230250 0.714750 0.145250
0.394462 0.725962 0.156463
0.558675 0.737175 0.167675
0.722888 0.748387 0.178888
0.088050 0.938050 0.156050
0.252263 0.949263 0.167262
0.416475 0.960475 0.178475
0.580688 0.971688 0.189688
0.744900 0.982900 0.200900
0.004275 0.004275 0.323025
0.168487 0.015487 0.334238
0.332700 0.026700 0.345450
0.496913 0.037913 0.356662
0.661125 0.049125 0.367875
0.026287 0.238787 0.345037
0.190500 0.250000 0.356250
0.354712 0.261213 0.367463
0.518925 0.272425 0.378675
0.683137 0.283637 0.389887
0.048300 0.473300 0.367050
0.212512 0.484513 0.378263
0.376725 0.495725 0.389475
0.540938 0.506938 0.400687
0.705150 0.518150 0.411900
0.070312 0.707812 0.389062
0.234525 0.719025 0.400275
0.398737 0.730237 0.411488
0.562950 0.741450 0.422700
0.727162 0.752663 0.433912
0.092325 0.942325 0.411075
0.256537 0.953538 0.422287
0.420750 0.964750 0.433500
0.584963 0.975962 0.444713
0.749175 0.987175 0.455925
0.008550 0.008550 0.578050
0.172762 0.019762 0.589262
0.336975 0.030975 0.600475
0.501188 0.042187 0.611687
0.665400 0.053400 0.622900
0.030562 0.243062 0.600062
0.194775 0.254275 0.611275
0.358988 0.265487 0.622487
0.523200 0.276700 0.633700
0.687412 0.287913 0.644912
0.052575 0.477575 0.622075
0.216787 0.488787 0.633287
0.381000 0.500000 0.644500
0.545212 0.511212 0.655712
0.709425 0.522425 0.666925
0.074587 0.712087 0.644087
0.238800 0.723300 0.655300
0.403012 0.734513 0.666512
0.567225 0.745725 0.677725
0.731437 0.756938 0.688937
0.096600 0.946600 0.666100
0.260813 0.957812 0.677312
0.425025 0.969025 0.688525
0.589238 0.980237 0.699737
0.753450 0.991450 0.710950
0.012825 0.012825 0.833075
0.177037 0.024037 0.844287
0.341250 0.035250 0.855500
0.505463 0.046463 0.866712
0.669675 0.057675 0.877925
0.034838 0.247337 0.855088
0.199050 0.258550 0.866300
0.363262 0.269763 0.877513
0.527475 0.280975 0.888725
0.691688 0.292187 0.899937
0.056850 0.481850 0.877100
0.221062 0.493063 0.888312
0.385275 0.504275 0.899525
0.549488 0.515487 0.910737
0.713700 0.526700 0.921950
0.078862 0.716363 0.899112
0.243075 0.727575 0.910325
0.407287 0.738788 0.921538
0.571500 0.750000 0.932750
0.735712 0.761212 0.943962
0.100875 0.950875 0.921125
0.265087 0.962087 0.932337
0.429300 0.973300 0.943550
0.593512 0.984513 0.954762
0.757725 0.995725 0.965975
0.017100 0.017100 0.867100
0.181312 0.028312 0.878313
0.345525 0.039525 0.889525
0.509738 0.050737 0.900737
0.673950 0.061950 0.911950
0.039112 0.251613 0.889112
0.203325 0.262825 0.900325
0.367537 0.274037 0.911538
0.531750 0.285250 0.922750
0.695962 0.296463 0.933963
0.061125 0.486125 0.911125
0.225337 0.497337 0.922338
0.389550 0.508550 0.933550
0.553763 0.519763 0.944762
0.717975 0.530975 0.955975
0.083138 0.720638 0.933137
0.247350 0.731850 0.944350
0.411562 0.743062 0.955562
0.575775 0.754275 0.966775
0.739988 0.765487 0.977988
0.105150 0.955150 0.955150
0.269363 0.966363 0.966363
0.433575 0.977575 0.977575
0.597788 0.988788 0.988788
0.762000 1.000000 1.000000
