app/src/main/assets/luts/cool.cube
TITLE "Cool"
LUT_3D_SIZE 17
0.000000 0.000000 0.068000
0.041053 0.002803 0.070803
0.082106 0.005606 0.073606
0.123159 0.008409 0.076409
0.164212 0.011212 0.079213
0.205266 0.014016 0.082016
0.246319 0.016819 0.084819
0.287372 0.019622 0.087622
0.328425 0.022425 0.090425
0.369478 0.025228 0.093228
0.410531 0.028031 0.096031
0.451584 0.030834 0.098834
0.492638 0.033638 0.101637
0.533691 0.036441 0.104441
0.574744 0.039244 0.107244
0.615797 0.042047 0.110047
0.656850 0.044850 0.112850
0.005503 0.058628 0.073503
0.046556 0.061431 0.076306
0.087609 0.064234 0.079109
0.128663 0.067037 0.081912
0.169716 0.069841 0.084716
0.210769 0.072644 0.087519
0.251822 0.075447 0.090322
0.292875 0.078250 0.093125
0.333928 0.081053 0.095928
0.374981 0.083856 0.098731
0.416034 0.086659 0.101534
0.457087 0.089463 0.104337
0.498141 0.092266 0.107141
0.539194 0.095069 0.109944
0.580247 0.097872 0.112747
0.621300 0.100675 0.115550
0.662353 0.103478 0.118353
0.011006 0.117256 0.079006
0.052059 0.120059 0.081809
0.093113 0.122862 0.084612
0.134166 0.125666 0.087416
0.175219 0.128469 0.090219
0.216272 0.131272 0.093022
0.257325 0.134075 0.095825
0.298378 0.136878 0.098628
0.339431 0.139681 0.101431
0.380484 0.142484 0.104234
0.421537 0.145287 0.107037
0.462591 0.148091 0.109841
0.503644 0.150894 0.112644
0.544697 0.153697 0.115447
0.585750 0.156500 0.118250
0.626803 0.159303 0.121053
0.667856 0.162106 0.123856
0.016509 0.175884 0.084509
0.057563 0.178687 0.087313
0.098616 0.181491 0.090116
0.139669 0.184294 0.092919
0.180722 0.187097 0.095722
0.221775 0.189900 0.098525
0.262828 0.192703 0.101328
0.303881 0.195506 0.104131
0.344934 0.198309 0.106934
0.385987 0.201112 0.109738
0.427041 0.203916 0.112541
0.468094 0.206719 0.115344
0.509147 0.209522 0.118147
0.550200 0.212325 0.120950
0.591253 0.215128 0.123753
0.632306 0.217931 0.126556
0.673359 0.220734 0.129359
0.022012 0.234513 0.090012
0.063066 0.237316 0.092816
0.104119 0.240119 0.095619
0.145172 0.242922 0.098422
0.186225 0.245725 0.101225
0.227278 0.248528 0.104028
0.268331 0.251331 0.106831
0.309384 0.254134 0.109634
0.350438 0.256937 0.112437
0.391491 0.259741 0.115241
0.432544 0.262544 0.118044
0.473597 0.265347 0.120847
0.514650 0.268150 0.123650
0.555703 0.270953 0.126453
0.596756 0.273756 0.129256
0.637809 0.276559 0.132059
0.678862 0.279363 0.134862
0.027516 0.293141 0.095516
0.068569 0.295944 0.098319
0.109622 0.298747 0.101122
0.150675 0.301550 0.103925
0.191728 0.304353 0.106728
0.232781 0.307156 0.109531
0.273834 0.309959 0.112334
0.314887 0.312762 0.115138
0.355941 0.315566 0.117941
0.396994 0.318369 0.120744
0.438047 0.321172 0.123547
0.479100 0.323975 0.126350
0.520153 0.326778 0.129153
0.561206 0.329581 0.131956
0.602259 0.332384 0.134759
0.643312 0.335187 0.137562
0.684366 0.337991 0.140366
0.033019 0.351769 0.101019
0.074072 0.354572 0.103822
0.115125 0.357375 0.106625
0.156178 0.360178 0.109428
0.197231 0.362981 0.112231
0.238284 0.365784 0.115034
0.279338 0.368588 0.117837
0.320391 0.371391 0.120641
0.361444 0.374194 0.123444
0.402497 0.376997 0.126247
0.443550 0.379800 0.129050
0.484603 0.382603 0.131853
0.525656 0.385406 0.134656
0.566709 0.388209 0.137459
0.607762 0.391012 0.140263
0.648816 0.393816 0.143066
0.689869 0.396619 0.145869
0.038522 0.410397 0.106522
0.079575 0.413200 0.109325
0.120628 0.416003 0.112128
0.161681 0.418806 0.114931
0.202734 0.421609 0.117734
0.243787 0.424413 0.120537
0.284841 0.427216 0.123341
0.325894 0.430019 0.126144
0.366947 0.432822 0.128947
0.408000 0.435625 0.131750
0.449053 0.438428 0.134553
0.490106 0.441231 0.137356
0.531159 0.444034 0.140159
0.572213 0.446837 0.142962
0.613266 0.449641 0.145766
0.654319 0.452444 0.148569
0.695372 0.455247 0.151372
0.044025 0.469025 0.112025
0.085078 0.471828 0.114828
0.126131 0.474631 0.117631
0.167184 0.477434 0.120434
0.208237 0.480237 0.123237
0.249291 0.483041 0.126041
0.290344 0.485844 0.128844
0.331397 0.488647 0.131647
0.372450 0.491450 0.134450
0.413503 0.494253 0.137253
0.454556 0.497056 0.140056
0.495609 0.499859 0.142859
0.536663 0.502663 0.145662
0.577716 0.505466 0.148466
0.618769 0.508269 0.151269
0.659822 0.511072 0.154072
0.700875 0.513875 0.156875
0.049528 0.527653 0.117528
0.090581 0.530456 0.120331
0.131634 0.533259 0.123134
0.172687 0.536062 0.125937
0.213741 0.538866 0.128741
0.254794 0.541669 0.131544
0.295847 0.544472 0.134347
0.336900 0.547275 0.137150
0.377953 0.550078 0.139953
0.419006 0.552881 0.142756
0.460059 0.555684 0.145559
0.501112 0.558488 0.148363
0.542166 0.561291 0.151166
0.583219 0.564094 0.153969
0.624272 0.566897 0.156772
0.665325 0.569700 0.159575
0.706378 0.572503 0.162378
0.055031 0.586281 0.123031
0.096084 0.589084 0.125834
0.137137 0.591888 0.128637
0.178191 0.594691 0.131441
0.219244 0.597494 0.134244
0.260297 0.600297 0.137047
0.301350 0.603100 0.139850
0.342403 0.605903 0.142653
0.383456 0.608706 0.145456
0.424509 0.611509 0.148259
0.465562 0.614313 0.151062
0.506616 0.617116 0.153866
0.547669 0.619919 0.156669
0.588722 0.622722 0.159472
0.629775 0.625525 0.162275
0.670828 0.628328 0.165078
0.711881 0.631131 0.167881
0.060534 0.644909 0.128534
0.101587 0.647713 0.131337
0.142641 0.650516 0.134141
0.183694 0.653319 0.136944
0.224747 0.656122 0.139747
0.265800 0.658925 0.142550
0.306853 0.661728 0.145353
0.347906 0.664531 0.148156
0.388959 0.667334 0.150959
0.430012 0.670138 0.153762
0.471066 0.672941 0.156566
0.512119 0.675744 0.159369
0.553172 0.678547 0.162172
0.594225 0.681350 0.164975
0.635278 0.684153 0.167778
0.676331 0.686956 0.170581
0.717384 0.689759 0.173384
0.066037 0.703538 0.134038
0.107091 0.706341 0.136841
0.148144 0.709144 0.139644
0.189197 0.711947 0.142447
0.230250 0.714750 0.145250
0.271303 0.717553 0.148053
0.312356 0.720356 0.150856
0.353409 0.723159 0.153659
0.394462 0.725962 0.156463
0.435516 0.728766 0.159266
0.476569 0.731569 0.162069
0.517622 0.734372 0.164872
0.558675 0.737175 0.167675
0.599728 0.739978 0.170478
0.640781 0.742781 0.173281
0.681834 0.745584 0.176084
0.722888 0.748387 0.178888
0.071541 0.762166 0.139541
0.112594 0.764969 0.142344
0.153647 0.767772 0.145147
0.194700 0.770575 0.147950
0.235753 0.773378 0.150753
0.276806 0.776181 0.153556
0.317859 0.778984 0.156359
0.358913 0.781787 0.159163
0.399966 0.784591 0.161966
0.441019 0.787394 0.164769
0.482072 0.790197 0.167572
0.523125 0.793000 0.170375
0.564178 0.795803 0.173178
0.605231 0.798606 0.175981
0.646284 0.801409 0.178784
0.687337 0.804212 0.181588
0.728391 0.807016 0.184391
0.077044 0.820794 0.145044
0.118097 0.823597 0.147847
0.159150 0.826400 0.150650
0.200203 0.829203 0.153453
0.241256 0.832006 0.156256
0.282309 0.834809 0.159059
0.323362 0.837612 0.161863
0.364416 0.840416 0.164666
0.405469 0.843219 0.167469
0.446522 0.846022 0.170272
0.487575 0.848825 0.173075
0.528628 0.851628 0.175878
0.569681 0.854431 0.178681
0.610734 0.857234 0.181484
0.651787 0.860038 0.184287
0.692841 0.862841 0.187091
0.733894 0.865644 0.189894
0.082547 0.879422 0.150547
0.123600 0.882225 0.153350
0.164653 0.885028 0.156153
0.205706 0.887831 0.158956
0.246759 0.890634 0.161759
0.287812 0.893437 0.164563
0.328866 0.896241 0.167366
0.369919 0.899044 0.170169
0.410972 0.901847 0.172972
0.452025 0.904650 0.175775
0.493078 0.907453 0.178578
0.534131 0.910256 0.181381
0.575184 0.913059 0.184184
0.616237 0.915863 0.186988
0.657291 0.918666 0.189791
0.698344 0.921469 0.192594
0.739397 0.924272 0.195397
0.088050 0.938050 0.156050
0.129103 0.940853 0.158853
0.170156 0.943656 0.161656
0.211209 0.946459 0.164459
0.252263 0.949263 0.167262
0.293316 0.952066 0.170066
0.334369 0.954869 0.172869
0.375422 0.957672 0.175672
0.416475 0.960475 0.178475
0.457528 0.963278 0.181278
0.498581 0.966081 0.184081
0.539634 0.968884 0.186884
0.580688 0.971688 0.189688
0.621741 0.974491 0.192491
0.662794 0.977294 0.195294
0.703847 0.980097 0.198097
0.744900 0.982900 0.200900
0.001069 0.001069 0.131756
0.042122 0.003872 0.134559
0.083175 0.006675 0.137362
0.124228 0.009478 0.140166
0.165281 0.012281 0.142969
0.206334 0.015084 0.145772
0.247388 0.017888 0.148575
0.288441 0.020691 0.151378
0.329494 0.023494 0.154181
0.370547 0.026297 0.156984
0.411600 0.029100 0.159787
0.452653 0.031903 0.162591
0.493706 0.034706 0.165394
0.534759 0.037509 0.168197
0.575813 0.040312 0.171000
0.616866 0.043116 0.173803
0.657919 0.045919 0.176606
0.006572 0.059697 0.137259
0.047625 0.062500 0.140063
0.088678 0.065303 0.142866
0.129731 0.068106 0.145669
0.170784 0.070909 0.148472
0.211837 0.073713 0.151275
0.252891 0.076516 0.154078
0.293944 0.079319 0.156881
0.334997 0.082122 0.159684
0.376050 0.084925 0.162488
0.417103 0.087728 0.165291
0.458156 0.090531 0.168094
0.499209 0.093334 0.170897
0.540262 0.096138 0.173700
0.581316 0.098941 0.176503
0.622369 0.101744 0.179306
0.663422 0.104547 0.182109
0.012075 0.118325 0.142762
0.053128 0.121128 0.145566
0.094181 0.123931 0.148369
0.135234 0.126734 0.151172
0.176287 0.129537 0.153975
0.217341 0.132341 0.156778
0.258394 0.135144 0.159581
0.299447 0.137947 0.162384
0.340500 0.140750 0.165187
0.381553 0.143553 0.167991
0.422606 0.146356 0.170794
0.463659 0.149159 0.173597
0.504713 0.151963 0.176400
0.545766 0.154766 0.179203
0.586819 0.157569 0.182006
0.627872 0.160372 0.184809
0.668925 0.163175 0.187612
0.017578 0.176953 0.148266
0.058631 0.179756 0.151069
0.099684 0.182559 0.153872
0.140738 0.185362 0.156675
0.181791 0.188166 0.159478
0.222844 0.190969 0.162281
0.263897 0.193772 0.165084
0.304950 0.196575 0.167887
0.346003 0.199378 0.170691
0.387056 0.202181 0.173494
0.428109 0.204984 0.176297
0.469162 0.207787 0.179100
0.510216 0.210591 0.181903
0.551269 0.213394 0.184706
0.592322 0.216197 0.187509
0.633375 0.219000 0.190312
0.674428 0.221803 0.193116
0.023081 0.235581 0.153769
0.064134 0.238384 0.156572
0.105187 0.241187 0.159375
0.146241 0.243991 0.162178
0.187294 0.246794 0.164981
0.228347 0.249597 0.167784
0.269400 0.252400 0.170588
0.310453 0.255203 0.173391
0.351506 0.258006 0.176194
0.392559 0.260809 0.178997
0.433612 0.263612 0.181800
0.474666 0.266416 0.184603
0.515719 0.269219 0.187406
0.556772 0.272022 0.190209
0.597825 0.274825 0.193013
0.638878 0.277628 0.195816
0.679931 0.280431 0.198619
0.028584 0.294209 0.159272
0.069637 0.297013 0.162075
0.110691 0.299816 0.164878
0.151744 0.302619 0.167681
0.192797 0.305422 0.170484
0.233850 0.308225 0.173287
0.274903 0.311028 0.176091
0.315956 0.313831 0.178894
0.357009 0.316634 0.181697
0.398062 0.319437 0.184500
0.439116 0.322241 0.187303
0.480169 0.325044 0.190106
0.521222 0.327847 0.192909
0.562275 0.330650 0.195712
0.603328 0.333453 0.198516
0.644381 0.336256 0.201319
0.685434 0.339059 0.204122
0.034087 0.352838 0.164775
0.075141 0.355641 0.167578
0.116194 0.358444 0.170381
0.157247 0.361247 0.173184
0.198300 0.364050 0.175987
0.239353 0.366853 0.178791
0.280406 0.369656 0.181594
0.321459 0.372459 0.184397
0.362512 0.375262 0.187200
0.403566 0.378066 0.190003
0.444619 0.380869 0.192806
0.485672 0.383672 0.195609
0.526725 0.386475 0.198412
0.567778 0.389278 0.201216
0.608831 0.392081 0.204019
0.649884 0.394884 0.206822
0.690937 0.397687 0.209625
0.039591 0.411466 0.170278
0.080644 0.414269 0.173081
0.121697 0.417072 0.175884
0.162750 0.419875 0.178687
0.203803 0.422678 0.181491
0.244856 0.425481 0.184294
0.285909 0.428284 0.187097
0.326962 0.431088 0.189900
0.368016 0.433891 0.192703
0.409069 0.436694 0.195506
0.450122 0.439497 0.198309
0.491175 0.442300 0.201112
0.532228 0.445103 0.203916
0.573281 0.447906 0.206719
0.614334 0.450709 0.209522
0.655387 0.453512 0.212325
0.696441 0.456316 0.215128
0.045094 0.470094 0.175781
0.086147 0.472897 0.178584
0.127200 0.475700 0.181387
0.168253 0.478503 0.184191
0.209306 0.481306 0.186994
0.250359 0.484109 0.189797
0.291413 0.486913 0.192600
0.332466 0.489716 0.195403
0.373519 0.492519 0.198206
0.414572 0.495322 0.201009
0.455625 0.498125 0.203813
0.496678 0.500928 0.206616
0.537731 0.503731 0.209419
0.578784 0.506534 0.212222
0.619838 0.509337 0.215025
0.660891 0.512141 0.217828
0.701944 0.514944 0.220631
0.050597 0.528722 0.181284
0.091650 0.531525 0.184087
0.132703 0.534328 0.186891
0.173756 0.537131 0.189694
0.214809 0.539934 0.192497
0.255862 0.542737 0.195300
0.296916 0.545541 0.198103
0.337969 0.548344 0.200906
0.379022 0.551147 0.203709
0.420075 0.553950 0.206512
0.461128 0.556753 0.209316
0.502181 0.559556 0.212119
0.543234 0.562359 0.214922
0.584287 0.565163 0.217725
0.625341 0.567966 0.220528
0.666394 0.570769 0.223331
0.707447 0.573572 0.226134
0.056100 0.587350 0.186787
0.097153 0.590153 0.189591
0.138206 0.592956 0.192394
0.179259 0.595759 0.195197
0.220312 0.598562 0.198000
0.261366 0.601366 0.200803
0.302419 0.604169 0.203606
0.343472 0.606972 0.206409
0.384525 0.609775 0.209212
0.425578 0.612578 0.212016
0.466631 0.615381 0.214819
0.507684 0.618184 0.217622
0.548737 0.620988 0.220425
0.589791 0.623791 0.223228
0.630844 0.626594 0.226031
0.671897 0.629397 0.228834
0.712950 0.632200 0.231637
0.061603 0.645978 0.192291
0.102656 0.648781 0.195094
0.143709 0.651584 0.197897
0.184762 0.654388 0.200700
0.225816 0.657191 0.203503
0.266869 0.659994 0.206306
0.307922 0.662797 0.209109
0.348975 0.665600 0.211913
0.390028 0.668403 0.214716
0.431081 0.671206 0.217519
0.472134 0.674009 0.220322
0.513188 0.676813 0.223125
0.554241 0.679616 0.225928
0.595294 0.682419 0.228731
0.636347 0.685222 0.231534
0.677400 0.688025 0.234337
0.718453 0.690828 0.237141
0.067106 0.704606 0.197794
0.108159 0.707409 0.200597
0.149212 0.710213 0.203400
0.190266 0.713016 0.206203
0.231319 0.715819 0.209006
0.272372 0.718622 0.211809
0.313425 0.721425 0.214612
0.354478 0.724228 0.217416
0.395531 0.727031 0.220219
0.436584 0.729834 0.223022
0.477637 0.732638 0.225825
0.518691 0.735441 0.228628
0.559744 0.738244 0.231431
0.600797 0.741047 0.234234
0.641850 0.743850 0.237038
0.682903 0.746653 0.239841
0.723956 0.749456 0.242644
0.072609 0.763234 0.203297
0.113662 0.766038 0.206100
0.154716 0.768841 0.208903
0.195769 0.771644 0.211706
0.236822 0.774447 0.214509
0.277875 0.777250 0.217312
0.318928 0.780053 0.220116
0.359981 0.782856 0.222919
0.401034 0.785659 0.225722
0.442087 0.788462 0.228525
0.483141 0.791266 0.231328
0.524194 0.794069 0.234131
0.565247 0.796872 0.236934
0.606300 0.799675 0.239737
0.647353 0.802478 0.242541
0.688406 0.805281 0.245344
0.729459 0.808084 0.248147
0.078113 0.821863 0.208800
0.119166 0.824666 0.211603
0.160219 0.827469 0.214406
0.201272 0.830272 0.217209
0.242325 0.833075 0.220012
0.283378 0.835878 0.222816
0.324431 0.838681 0.225619
0.365484 0.841484 0.228422
0.406537 0.844287 0.231225
0.447591 0.847091 0.234028
0.488644 0.849894 0.236831
0.529697 0.852697 0.239634
0.570750 0.855500 0.242438
0.611803 0.858303 0.245241
0.652856 0.861106 0.248044
0.693909 0.863909 0.250847
0.734962 0.866712 0.253650
0.083616 0.880491 0.214303
0.124669 0.883294 0.217106
0.165722 0.886097 0.219909
0.206775 0.888900 0.222713
0.247828 0.891703 0.225516
0.288881 0.894506 0.228319
0.329934 0.897309 0.231122
0.370988 0.900112 0.233925
0.412041 0.902916 0.236728
0.453094 0.905719 0.239531
0.494147 0.908522 0.242334
0.535200 0.911325 0.245138
0.576253 0.914128 0.247941
0.617306 0.916931 0.250744
0.658359 0.919734 0.253547
0.699412 0.922538 0.256350
0.740466 0.925341 0.259153
0.089119 0.939119 0.219806
0.130172 0.941922 0.222609
0.171225 0.944725 0.225413
0.212278 0.947528 0.228216
0.253331 0.950331 0.231019
0.294384 0.953134 0.233822
0.335437 0.955937 0.236625
0.376491 0.958741 0.239428
0.417544 0.961544 0.242231
0.458597 0.964347 0.245034
0.499650 0.967150 0.247837
0.540703 0.969953 0.250641
0.581756 0.972756 0.253444
0.622809 0.975559 0.256247
0.663863 0.978363 0.259050
0.704916 0.981166 0.261853
0.745969 0.983969 0.264656
0.002138 0.002138 0.195512
0.043191 0.004941 0.198316
0.084244 0.007744 0.201119
0.125297 0.010547 0.203922
0.166350 0.013350 0.206725
0.207403 0.016153 0.209528
0.248456 0.018956 0.212331
0.289509 0.021759 0.215134
0.330562 0.024563 0.217937
0.371616 0.027366 0.220741
0.412669 0.030169 0.223544
0.453722 0.032972 0.226347
0.494775 0.035775 0.229150
0.535828 0.038578 0.231953
0.576881 0.041381 0.234756
0.617934 0.044184 0.237559
0.658987 0.046987 0.240362
0.007641 0.060766 0.201016
0.048694 0.063569 0.203819
0.089747 0.066372 0.206622
0.130800 0.069175 0.209425
0.171853 0.071978 0.212228
0.212906 0.074781 0.215031
0.253959 0.077584 0.217834
0.295013 0.080388 0.220637
0.336066 0.083191 0.223441
0.377119 0.085994 0.226244
0.418172 0.088797 0.229047
0.459225 0.091600 0.231850
0.500278 0.094403 0.234653
0.541331 0.097206 0.237456
0.582384 0.100009 0.240259
0.623437 0.102812 0.243062
0.664491 0.105616 0.245866
0.013144 0.119394 0.206519
0.054197 0.122197 0.209322
0.095250 0.125000 0.212125
0.136303 0.127803 0.214928
0.177356 0.130606 0.217731
0.218409 0.133409 0.220534
0.259463 0.136213 0.223337
0.300516 0.139016 0.226141
0.341569 0.141819 0.228944
0.382622 0.144622 0.231747
0.423675 0.147425 0.234550
0.464728 0.150228 0.237353
0.505781 0.153031 0.240156
0.546834 0.155834 0.242959
0.587888 0.158637 0.245762
0.628941 0.161441 0.248566
0.669994 0.164244 0.251369
0.018647 0.178022 0.212022
0.059700 0.180825 0.214825
0.100753 0.183628 0.217628
0.141806 0.186431 0.220431
0.182859 0.189234 0.223234
0.223912 0.192037 0.226037
0.264966 0.194841 0.228841
0.306019 0.197644 0.231644
0.347072 0.200447 0.234447
0.388125 0.203250 0.237250
0.429178 0.206053 0.240053
0.470231 0.208856 0.242856
0.511284 0.211659 0.245659
0.552337 0.214463 0.248462
0.593391 0.217266 0.251266
0.634444 0.220069 0.254069
0.675497 0.222872 0.256872
0.024150 0.236650 0.217525
0.065203 0.239453 0.220328
0.106256 0.242256 0.223131
0.147309 0.245059 0.225934
0.188362 0.247862 0.228737
0.229416 0.250666 0.231541
0.270469 0.253469 0.234344
0.311522 0.256272 0.237147
0.352575 0.259075 0.239950
0.393628 0.261878 0.242753
0.434681 0.264681 0.245556
0.475734 0.267484 0.248359
0.516788 0.270288 0.251162
0.557841 0.273091 0.253966
0.598894 0.275894 0.256769
0.639947 0.278697 0.259572
0.681000 0.281500 0.262375
0.029653 0.295278 0.223028
0.070706 0.298081 0.225831
0.111759 0.300884 0.228634
0.152813 0.303687 0.231437
0.193866 0.306491 0.234241
0.234919 0.309294 0.237044
0.275972 0.312097 0.239847
0.317025 0.314900 0.242650
0.358078 0.317703 0.245453
0.399131 0.320506 0.248256
0.440184 0.323309 0.251059
0.481237 0.326112 0.253862
0.522291 0.328916 0.256666
0.563344 0.331719 0.259469
0.604397 0.334522 0.262272
0.645450 0.337325 0.265075
0.686503 0.340128 0.267878
0.035156 0.353906 0.228531
0.076209 0.356709 0.231334
0.117262 0.359513 0.234137
0.158316 0.362316 0.236941
0.199369 0.365119 0.239744
0.240422 0.367922 0.242547
0.281475 0.370725 0.245350
0.322528 0.373528 0.248153
0.363581 0.376331 0.250956
0.404634 0.379134 0.253759
0.445687 0.381937 0.256562
0.486741 0.384741 0.259366
0.527794 0.387544 0.262169
0.568847 0.390347 0.264972
0.609900 0.393150 0.267775
0.650953 0.395953 0.270578
0.692006 0.398756 0.273381
0.040659 0.412534 0.234034
0.081712 0.415338 0.236837
0.122766 0.418141 0.239641
0.163819 0.420944 0.242444
0.204872 0.423747 0.245247
0.245925 0.426550 0.248050
0.286978 0.429353 0.250853
0.328031 0.432156 0.253656
0.369084 0.434959 0.256459
0.410137 0.437762 0.259262
0.451191 0.440566 0.262066
0.492244 0.443369 0.264869
0.533297 0.446172 0.267672
0.574350 0.448975 0.270475
0.615403 0.451778 0.273278
0.656456 0.454581 0.276081
0.697509 0.457384 0.278884
0.046162 0.471162 0.239537
0.087216 0.473966 0.242341
0.128269 0.476769 0.245144
0.169322 0.479572 0.247947
0.210375 0.482375 0.250750
0.251428 0.485178 0.253553
0.292481 0.487981 0.256356
0.333534 0.490784 0.259159
0.374587 0.493588 0.261962
0.415641 0.496391 0.264766
0.456694 0.499194 0.267569
0.497747 0.501997 0.270372
0.538800 0.504800 0.273175
0.579853 0.507603 0.275978
0.620906 0.510406 0.278781
0.661959 0.513209 0.281584
0.703012 0.516012 0.284387
0.051666 0.529791 0.245041
0.092719 0.532594 0.247844
0.133772 0.535397 0.250647
0.174825 0.538200 0.253450
0.215878 0.541003 0.256253
0.256931 0.543806 0.259056
0.297984 0.546609 0.261859
0.339037 0.549412 0.264662
0.380091 0.552216 0.267466
0.421144 0.555019 0.270269
0.462197 0.557822 0.273072
0.503250 0.560625 0.275875
0.544303 0.563428 0.278678
0.585356 0.566231 0.281481
0.626409 0.569034 0.284284
0.667462 0.571837 0.287087
0.708516 0.574641 0.289891
0.057169 0.588419 0.250544
0.098222 0.591222 0.253347
0.139275 0.594025 0.256150
0.180328 0.596828 0.258953
0.221381 0.599631 0.261756
0.262434 0.602434 0.264559
0.303488 0.605237 0.267362
0.344541 0.608041 0.270166
0.385594 0.610844 0.272969
0.426647 0.613647 0.275772
0.467700 0.616450 0.278575
0.508753 0.619253 0.281378
0.549806 0.622056 0.284181
0.590859 0.624859 0.286984
0.631912 0.627663 0.289787
0.672966 0.630466 0.292591
0.714019 0.633269 0.295394
0.062672 0.647047 0.256047
0.103725 0.649850 0.258850
0.144778 0.652653 0.261653
0.185831 0.655456 0.264456
0.226884 0.658259 0.267259
0.267937 0.661062 0.270062
0.308991 0.663866 0.272866
0.350044 0.666669 0.275669
0.391097 0.669472 0.278472
0.432150 0.672275 0.281275
0.473203 0.675078 0.284078
0.514256 0.677881 0.286881
0.555309 0.680684 0.289684
0.596362 0.683488 0.292487
0.637416 0.686291 0.295291
0.678469 0.689094 0.298094
0.719522 0.691897 0.300897
0.068175 0.705675 0.261550
0.109228 0.708478 0.264353
0.150281 0.711281 0.267156
0.191334 0.714084 0.269959
0.232387 0.716888 0.272762
0.273441 0.719691 0.275566
0.314494 0.722494 0.278369
0.355547 0.725297 0.281172
0.396600 0.728100 0.283975
0.437653 0.730903 0.286778
0.478706 0.733706 0.289581
0.519759 0.736509 0.292384
0.560813 0.739313 0.295187
0.601866 0.742116 0.297991
0.642919 0.744919 0.300794
0.683972 0.747722 0.303597
0.725025 0.750525 0.306400
0.073678 0.764303 0.267053
0.114731 0.767106 0.269856
0.155784 0.769909 0.272659
0.196837 0.772713 0.275462
0.237891 0.775516 0.278266
0.278944 0.778319 0.281069
0.319997 0.781122 0.283872
0.361050 0.783925 0.286675
0.402103 0.786728 0.289478
0.443156 0.789531 0.292281
0.484209 0.792334 0.295084
0.525262 0.795137 0.297887
0.566316 0.797941 0.300691
0.607369 0.800744 0.303494
0.648422 0.803547 0.306297
0.689475 0.806350 0.309100
0.730528 0.809153 0.311903
0.079181 0.822931 0.272556
0.120234 0.825734 0.275359
0.161288 0.828538 0.278162
0.202341 0.831341 0.280966
0.243394 0.834144 0.283769
0.284447 0.836947 0.286572
0.325500 0.839750 0.289375
0.366553 0.842553 0.292178
0.407606 0.845356 0.294981
0.448659 0.848159 0.297784
0.489712 0.850962 0.300588
0.530766 0.853766 0.303391
0.571819 0.856569 0.306194
0.612872 0.859372 0.308997
0.653925 0.862175 0.311800
0.694978 0.864978 0.314603
0.736031 0.867781 0.317406
0.084684 0.881559 0.278059
0.125737 0.884362 0.280862
0.166791 0.887166 0.283666
0.207844 0.889969 0.286469
0.248897 0.892772 0.289272
0.289950 0.895575 0.292075
0.331003 0.898378 0.294878
0.372056 0.901181 0.297681
0.413109 0.903984 0.300484
0.454162 0.906787 0.303287
0.495216 0.909591 0.306091
0.536269 0.912394 0.308894
0.577322 0.915197 0.311697
0.618375 0.918000 0.314500
0.659428 0.920803 0.317303
0.700481 0.923606 0.320106
0.741534 0.926409 0.322909
0.090187 0.940187 0.283562
0.131241 0.942991 0.286366
0.172294 0.945794 0.289169
0.213347 0.948597 0.291972
0.254400 0.951400 0.294775
0.295453 0.954203 0.297578
0.336506 0.957006 0.300381
0.377559 0.959809 0.303184
0.418612 0.962612 0.305987
0.459666 0.965416 0.308791
0.500719 0.968219 0.311594
0.541772 0.971022 0.314397
0.582825 0.973825 0.317200
0.623878 0.976628 0.320003
0.664931 0.979431 0.322806
0.705984 0.982234 0.325609
0.747037 0.985038 0.328412
0.003206 0.003206 0.259269
0.044259 0.006009 0.262072
0.085312 0.008812 0.264875
0.126366 0.011616 0.267678
0.167419 0.014419 0.270481
0.208472 0.017222 0.273284
0.249525 0.020025 0.276088
0.290578 0.022828 0.278891
0.331631 0.025631 0.281694
0.372684 0.028434 0.284497
0.413737 0.031237 0.287300
0.454791 0.034041 0.290103
0.495844 0.036844 0.292906
0.536897 0.039647 0.295709
0.577950 0.042450 0.298513
0.619003 0.045253 0.301316
0.660056 0.048056 0.304119
0.008709 0.061834 0.264772
0.049763 0.064638 0.267575
0.090816 0.067441 0.270378
