app/src/main/assets/luts/sepia.cube
TITLE "Sepia"
LUT_3D_SIZE 5
0.120000 0.020000 0.000000
0.202225 0.081295 0.041113
0.284450 0.142590 0.082225
0.366675 0.203885 0.123338
0.448900 0.265180 0.164450
0.281425 0.140335 0.080713
0.363650 0.201630 0.121825
0.445875 0.262925 0.162938
0.528100 0.324220 0.204050
0.610325 0.385515 0.245163
0.442850 0.260670 0.161425
0.525075 0.321965 0.202538
0.607300 0.383260 0.243650
0.689525 0.444555 0.284762
0.771750 0.505850 0.325875
0.604275 0.381005 0.242138
0.686500 0.442300 0.283250
0.768725 0.503595 0.324362
0.850950 0.564890 0.365475
0.933175 0.626185 0.406587
0.765700 0.501340 0.322850
0.847925 0.562635 0.363963
0.930150 0.623930 0.405075
1.000000 0.685225 0.446188
1.000000 0.746520 0.487300
0.151350 0.043370 0.015675
0.233575 0.104665 0.056788
0.315800 0.165960 0.097900
0.398025 0.227255 0.139013
0.480250 0.288550 0.180125
0.312775 0.163705 0.096388
0.395000 0.225000 0.137500
0.477225 0.286295 0.178613
0.559450 0.347590 0.219725
0.641675 0.408885 0.260837
0.474200 0.284040 0.177100
0.556425 0.345335 0.218213
0.638650 0.406630 0.259325
0.720875 0.467925 0.300437
0.803100 0.529220 0.341550
0.635625 0.404375 0.257812
0.717850 0.465670 0.298925
0.800075 0.526965 0.340037
0.882300 0.588260 0.381150
0.964525 0.649555 0.422262
0.797050 0.524710 0.338525
0.879275 0.586005 0.379637
0.961500 0.647300 0.420750
1.000000 0.708595 0.461863
1.000000 0.769890 0.502975
0.182700 0.066740 0.031350
0.264925 0.128035 0.072463
0.347150 0.189330 0.113575
0.429375 0.250625 0.154688
0.511600 0.311920 0.195800
0.344125 0.187075 0.112062
0.426350 0.248370 0.153175
0.508575 0.309665 0.194288
0.590800 0.370960 0.235400
0.673025 0.432255 0.276513
0.505550 0.307410 0.192775
0.587775 0.368705 0.233887
0.670000 0.430000 0.275000
0.752225 0.491295 0.316113
0.834450 0.552590 0.357225
0.666975 0.427745 0.273487
0.749200 0.489040 0.314600
0.831425 0.550335 0.355713
0.913650 0.611630 0.396825
0.995875 0.672925 0.437938
0.828400 0.548080 0.354200
0.910625 0.609375 0.395313
0.992850 0.670670 0.436425
1.000000 0.731965 0.477538
1.000000 0.793260 0.518650
0.214050 0.090110 0.047025
0.296275 0.151405 0.088138
0.378500 0.212700 0.129250
0.460725 0.273995 0.170363
0.542950 0.335290 0.211475
0.375475 0.210445 0.127738
0.457700 0.271740 0.168850
0.539925 0.333035 0.209963
0.622150 0.394330 0.251075
0.704375 0.455625 0.292188
0.536900 0.330780 0.208450
0.619125 0.392075 0.249563
0.701350 0.453370 0.290675
0.783575 0.514665 0.331788
0.865800 0.575960 0.372900
0.698325 0.451115 0.289162
0.780550 0.512410 0.330275
0.862775 0.573705 0.371388
0.945000 0.635000 0.412500
1.000000 0.696295 0.453613
0.859750 0.571450 0.369875
0.941975 0.632745 0.410988
1.000000 0.694040 0.452100
1.000000 0.755335 0.493213
1.000000 0.816630 0.534325
0.245400 0.113480 0.062700
0.327625 0.174775 0.103813
0.409850 0.236070 0.144925
0.492075 0.297365 0.186038
0.574300 0.358660 0.227150
0.406825 0.233815 0.143412
0.489050 0.295110 0.184525
0.571275 0.356405 0.225638
0.653500 0.417700 0.266750
0.735725 0.478995 0.307862
0.568250 0.354150 0.224125
0.650475 0.415445 0.265238
0.732700 0.476740 0.306350
0.814925 0.538035 0.347463
0.897150 0.599330 0.388575
0.729675 0.474485 0.304838
0.811900 0.535780 0.345950
0.894125 0.597075 0.387063
0.976350 0.658370 0.428175
1.000000 0.719665 0.469288
0.891100 0.594820 0.385550
0.973325 0.656115 0.426663
1.000000 0.717410 0.467775
1.000000 0.778705 0.508888
1.000000 0.840000 0.550000
