app/src/main/assets/luts/sepia.cube
TITLE "Sepia"
LUT_3D_SIZE 9
0.120000 0.020000 0.000000
0.161112 0.050647 0.020556
0.202225 0.081295 0.041113
0.243338 0.111943 0.061669
0.284450 0.142590 0.082225
0.325562 0.173237 0.102781
0.366675 0.203885 0.123338
0.407788 0.234532 0.143894
0.448900 0.265180 0.164450
0.200713 0.080167 0.040356
0.241825 0.110815 0.060913
0.282938 0.141462 0.081469
0.324050 0.172110 0.102025
0.365163 0.202757 0.122581
0.406275 0.233405 0.143138
0.447388 0.264053 0.163694
0.488500 0.294700 0.184250
0.529613 0.325348 0.204806
0.281425 0.140335 0.080713
0.322538 0.170982 0.101269
0.363650 0.201630 0.121825
0.404762 0.232277 0.142381
0.445875 0.262925 0.162938
0.486987 0.293572 0.183494
0.528100 0.324220 0.204050
0.569213 0.354868 0.224606
0.610325 0.385515 0.245163
0.362138 0.200502 0.121069
0.403250 0.231150 0.141625
0.444362 0.261797 0.162181
0.485475 0.292445 0.182737
0.526587 0.323093 0.203294
0.567700 0.353740 0.223850
0.608812 0.384387 0.244406
0.649925 0.415035 0.264963
0.691037 0.445682 0.285519
0.442850 0.260670 0.161425
0.483963 0.291318 0.181981
0.525075 0.321965 0.202538
0.566188 0.352612 0.223094
0.607300 0.383260 0.243650
0.648413 0.413907 0.264206
0.689525 0.444555 0.284762
0.730638 0.475202 0.305319
0.771750 0.505850 0.325875
0.523562 0.320837 0.201781
0.564675 0.351485 0.222337
0.605787 0.382132 0.242894
0.646900 0.412780 0.263450
0.688012 0.443427 0.284006
0.729125 0.474075 0.304563
0.770237 0.504722 0.325119
0.811350 0.535370 0.345675
0.852463 0.566017 0.366231
0.604275 0.381005 0.242138
0.645388 0.411652 0.262694
0.686500 0.442300 0.283250
0.727612 0.472947 0.303806
0.768725 0.503595 0.324362
0.809837 0.534242 0.344919
0.850950 0.564890 0.365475
0.892063 0.595538 0.386031
0.933175 0.626185 0.406587
0.684988 0.441172 0.282494
0.726100 0.471820 0.303050
0.767213 0.502467 0.323606
0.808325 0.533115 0.344163
0.849438 0.563762 0.364719
0.890550 0.594410 0.385275
0.931663 0.625058 0.405831
0.972775 0.655705 0.426388
1.000000 0.686352 0.446944
0.765700 0.501340 0.322850
0.806813 0.531987 0.343406
0.847925 0.562635 0.363963
0.889038 0.593282 0.384519
0.930150 0.623930 0.405075
0.971263 0.654577 0.425631
1.000000 0.685225 0.446188
1.000000 0.715872 0.466744
1.000000 0.746520 0.487300
0.135675 0.031685 0.007838
0.176787 0.062332 0.028394
0.217900 0.092980 0.048950
0.259013 0.123628 0.069506
0.300125 0.154275 0.090063
0.341237 0.184922 0.110619
0.382350 0.215570 0.131175
0.423463 0.246217 0.151731
0.464575 0.276865 0.172288
0.216388 0.091852 0.048194
0.257500 0.122500 0.068750
0.298613 0.153147 0.089306
0.339725 0.183795 0.109863
0.380837 0.214442 0.130419
0.421950 0.245090 0.150975
0.463063 0.275738 0.171531
0.504175 0.306385 0.192087
0.545288 0.337033 0.212644
0.297100 0.152020 0.088550
0.338213 0.182667 0.109106
0.379325 0.213315 0.129663
0.420437 0.243962 0.150219
0.461550 0.274610 0.170775
0.502663 0.305257 0.191331
0.543775 0.335905 0.211888
0.584888 0.366552 0.232444
0.626000 0.397200 0.253000
0.377812 0.212187 0.128906
0.418925 0.242835 0.149462
0.460037 0.273482 0.170019
0.501150 0.304130 0.190575
0.542262 0.334777 0.211131
0.583375 0.365425 0.231687
0.624487 0.396072 0.252244
0.665600 0.426720 0.272800
0.706712 0.457367 0.293356
0.458525 0.272355 0.169262
0.499637 0.303002 0.189819
0.540750 0.333650 0.210375
0.581862 0.364297 0.230931
0.622975 0.394945 0.251487
0.664088 0.425592 0.272044
0.705200 0.456240 0.292600
0.746313 0.486887 0.313156
0.787425 0.517535 0.333713
0.539238 0.332522 0.209619
0.580350 0.363170 0.230175
0.621462 0.393817 0.250731
0.662575 0.424465 0.271288
0.703687 0.455112 0.291844
0.744800 0.485760 0.312400
0.785912 0.516407 0.332956
0.827025 0.547055 0.353513
0.868138 0.577703 0.374069
0.619950 0.392690 0.249975
0.661062 0.423337 0.270531
0.702175 0.453985 0.291087
0.743287 0.484632 0.311644
0.784400 0.515280 0.332200
0.825512 0.545927 0.352756
0.866625 0.576575 0.373312
0.907738 0.607222 0.393869
0.948850 0.637870 0.414425
0.700663 0.452857 0.290331
0.741775 0.483505 0.310888
0.782887 0.514152 0.331444
0.824000 0.544800 0.352000
0.865112 0.575447 0.372556
0.906225 0.606095 0.393113
0.947338 0.636742 0.413669
0.988450 0.667390 0.434225
1.000000 0.698037 0.454781
0.781375 0.513025 0.330688
0.822488 0.543673 0.351244
0.863600 0.574320 0.371800
0.904713 0.604967 0.392356
0.945825 0.635615 0.412913
0.986938 0.666262 0.433469
1.000000 0.696910 0.454025
1.000000 0.727557 0.474581
1.000000 0.758205 0.495137
0.151350 0.043370 0.015675
0.192463 0.074017 0.036231
0.233575 0.104665 0.056788
0.274687 0.135313 0.077344
0.315800 0.165960 0.097900
0.356912 0.196607 0.118456
0.398025 0.227255 0.139013
0.439138 0.257903 0.159569
0.480250 0.288550 0.180125
0.232063 0.103537 0.056031
0.273175 0.134185 0.076588
0.314288 0.164832 0.097144
0.355400 0.195480 0.117700
0.396513 0.226127 0.138256
0.437625 0.256775 0.158813
0.478738 0.287423 0.179369
0.519850 0.318070 0.199925
0.560963 0.348718 0.220481
0.312775 0.163705 0.096388
0.353888 0.194352 0.116944
0.395000 0.225000 0.137500
0.436113 0.255647 0.158056
0.477225 0.286295 0.178613
0.518338 0.316942 0.199169
0.559450 0.347590 0.219725
0.600563 0.378238 0.240281
0.641675 0.408885 0.260837
0.393487 0.223872 0.136744
0.434600 0.254520 0.157300
0.475713 0.285168 0.177856
0.516825 0.315815 0.198413
0.557937 0.346463 0.218969
0.599050 0.377110 0.239525
0.640163 0.407757 0.260081
0.681275 0.438405 0.280638
0.722387 0.469052 0.301194
0.474200 0.284040 0.177100
0.515313 0.314688 0.197656
0.556425 0.345335 0.218213
0.597538 0.375983 0.238769
0.638650 0.406630 0.259325
0.679763 0.437277 0.279881
0.720875 0.467925 0.300437
0.761988 0.498572 0.320994
0.803100 0.529220 0.341550
0.554913 0.344207 0.217456
0.596025 0.374855 0.238012
0.637138 0.405502 0.258569
0.678250 0.436150 0.279125
0.719362 0.466797 0.299681
0.760475 0.497445 0.320238
0.801587 0.528092 0.340794
0.842700 0.558740 0.361350
0.883813 0.589387 0.381906
0.635625 0.404375 0.257812
0.676737 0.435022 0.278369
0.717850 0.465670 0.298925
0.758962 0.496317 0.319481
0.800075 0.526965 0.340037
0.841187 0.557612 0.360594
0.882300 0.588260 0.381150
0.923413 0.618907 0.401706
0.964525 0.649555 0.422262
0.716337 0.464542 0.298169
0.757450 0.495190 0.318725
0.798562 0.525837 0.339281
0.839675 0.556485 0.359838
0.880787 0.587132 0.380394
0.921900 0.617780 0.400950
0.963013 0.648428 0.421506
1.000000 0.679075 0.442063
1.000000 0.709722 0.462619
0.797050 0.524710 0.338525
0.838163 0.555357 0.359081
0.879275 0.586005 0.379637
0.920388 0.616652 0.400194
0.961500 0.647300 0.420750
1.000000 0.677947 0.441306
1.000000 0.708595 0.461863
1.000000 0.739242 0.482419
1.000000 0.769890 0.502975
0.167025 0.055055 0.023513
0.208138 0.085703 0.044069
0.249250 0.116350 0.064625
0.290363 0.146998 0.085181
0.331475 0.177645 0.105738
0.372588 0.208292 0.126294
0.413700 0.238940 0.146850
0.454813 0.269587 0.167406
0.495925 0.300235 0.187963
0.247737 0.115223 0.063869
0.288850 0.145870 0.084425
0.329963 0.176517 0.104981
0.371075 0.207165 0.125538
0.412188 0.237812 0.146094
0.453300 0.268460 0.166650
0.494413 0.299108 0.187206
0.535525 0.329755 0.207763
0.576638 0.360403 0.228319
0.328450 0.175390 0.104225
0.369563 0.206037 0.124781
0.410675 0.236685 0.145338
0.451788 0.267332 0.165894
0.492900 0.297980 0.186450
0.534013 0.328627 0.207006
0.575125 0.359275 0.227563
0.616237 0.389923 0.248119
0.657350 0.420570 0.268675
0.409162 0.235557 0.144581
0.450275 0.266205 0.165138
0.491388 0.296853 0.185694
0.532500 0.327500 0.206250
0.573613 0.358148 0.226806
0.614725 0.388795 0.247363
0.655837 0.419442 0.267919
0.696950 0.450090 0.288475
0.738062 0.480737 0.309031
0.489875 0.295725 0.184938
0.530987 0.326373 0.205494
0.572100 0.357020 0.226050
0.613213 0.387667 0.246606
0.654325 0.418315 0.267163
0.695438 0.448962 0.287719
0.736550 0.479610 0.308275
0.777662 0.510257 0.328831
0.818775 0.540905 0.349388
0.570588 0.355892 0.225294
0.611700 0.386540 0.245850
0.652813 0.417187 0.266406
0.693925 0.447835 0.286963
0.735037 0.478482 0.307519
0.776150 0.509130 0.328075
0.817262 0.539777 0.348631
0.858375 0.570425 0.369188
0.899487 0.601072 0.389744
0.651300 0.416060 0.265650
0.692412 0.446707 0.286206
0.733525 0.477355 0.306762
0.774637 0.508002 0.327319
0.815750 0.538650 0.347875
0.856862 0.569297 0.368431
0.897975 0.599945 0.388987
0.939088 0.630593 0.409544
0.980200 0.661240 0.430100
0.732012 0.476227 0.306006
0.773125 0.506875 0.326563
0.814237 0.537522 0.347119
0.855350 0.568170 0.367675
0.896462 0.598817 0.388231
0.937575 0.629465 0.408788
0.978688 0.660112 0.429344
1.000000 0.690760 0.449900
1.000000 0.721407 0.470456
0.812725 0.536395 0.346362
0.853838 0.567043 0.366919
0.894950 0.597690 0.387475
0.936063 0.628337 0.408031
0.977175 0.658985 0.428587
1.000000 0.689632 0.449144
1.000000 0.720280 0.469700
1.000000 0.750927 0.490256
1.000000 0.781575 0.510813
0.182700 0.066740 0.031350
0.223813 0.097388 0.051906
0.264925 0.128035 0.072463
0.306038 0.158682 0.093019
0.347150 0.189330 0.113575
0.388263 0.219977 0.134131
0.429375 0.250625 0.154688
0.470488 0.281272 0.175244
0.511600 0.311920 0.195800
0.263412 0.126907 0.071706
0.304525 0.157555 0.092262
0.345638 0.188202 0.112819
0.386750 0.218850 0.133375
0.427862 0.249497 0.153931
0.468975 0.280145 0.174487
0.510088 0.310793 0.195044
0.551200 0.341440 0.215600
0.592313 0.372088 0.236156
0.344125 0.187075 0.112062
0.385238 0.217722 0.132619
0.426350 0.248370 0.153175
0.467463 0.279017 0.173731
0.508575 0.309665 0.194288
0.549687 0.340312 0.214844
0.590800 0.370960 0.235400
0.631912 0.401608 0.255956
0.673025 0.432255 0.276513
0.424838 0.247242 0.152419
0.465950 0.277890 0.172975
0.507062 0.308538 0.193531
0.548175 0.339185 0.214088
0.589287 0.369832 0.234644
0.630400 0.400480 0.255200
0.671513 0.431127 0.275756
0.712625 0.461775 0.296313
0.753738 0.492422 0.316869
0.505550 0.307410 0.192775
0.546663 0.338057 0.213331
0.587775 0.368705 0.233887
0.628888 0.399352 0.254444
0.670000 0.430000 0.275000
0.711113 0.460648 0.295556
0.752225 0.491295 0.316113
0.793338 0.521942 0.336669
0.834450 0.552590 0.357225
0.586262 0.367577 0.233131
0.627375 0.398225 0.253688
0.668488 0.428872 0.274244
0.709600 0.459520 0.294800
0.750713 0.490167 0.315356
0.791825 0.520815 0.335913
0.832937 0.551462 0.356469
0.874050 0.582110 0.377025
0.915163 0.612758 0.397581
0.666975 0.427745 0.273487
0.708088 0.458392 0.294044
0.749200 0.489040 0.314600
0.790313 0.519687 0.335156
0.831425 0.550335 0.355713
0.872538 0.580982 0.376269
0.913650 0.611630 0.396825
0.954763 0.642278 0.417381
0.995875 0.672925 0.437938
0.747688 0.487913 0.313844
0.788800 0.518560 0.334400
0.829913 0.549207 0.354956
0.871025 0.579855 0.375513
0.912138 0.610502 0.396069
0.953250 0.641150 0.416625
0.994363 0.671798 0.437181
1.000000 0.702445 0.457738
1.000000 0.733092 0.478294
0.828400 0.548080 0.354200
0.869513 0.578728 0.374756
0.910625 0.609375 0.395313
0.951738 0.640023 0.415869
0.992850 0.670670 0.436425
1.000000 0.701318 0.456981
1.000000 0.731965 0.477538
1.000000 0.762613 0.498094
1.000000 0.793260 0.518650
0.198375 0.078425 0.039188
0.239488 0.109073 0.059744
0.280600 0.139720 0.080300
0.321713 0.170367 0.100856
0.362825 0.201015 0.121413
0.403938 0.231662 0.141969
0.445050 0.262310 0.162525
0.486163 0.292958 0.183081
0.527275 0.323605 0.203637
0.279088 0.138592 0.079544
0.320200 0.169240 0.100100
0.361313 0.199887 0.120656
0.402425 0.230535 0.141213
0.443537 0.261182 0.161769
0.484650 0.291830 0.182325
0.525763 0.322478 0.202881
0.566875 0.353125 0.223438
0.607988 0.383773 0.243994
0.359800 0.198760 0.119900
0.400913 0.229407 0.140456
0.442025 0.260055 0.161012
0.483138 0.290703 0.181569
0.524250 0.321350 0.202125
0.565362 0.351997 0.222681
0.606475 0.382645 0.243238
0.647587 0.413292 0.263794
0.688700 0.443940 0.284350
0.440513 0.258927 0.160256
0.481625 0.289575 0.180813
0.522738 0.320223 0.201369
0.563850 0.350870 0.221925
0.604963 0.381518 0.242481
0.646075 0.412165 0.263037
0.687188 0.442812 0.283594
0.728300 0.473460 0.304150
0.769413 0.504107 0.324706
0.521225 0.319095 0.200613
0.562337 0.349742 0.221169
0.603450 0.380390 0.241725
0.644563 0.411038 0.262281
0.685675 0.441685 0.282838
0.726788 0.472333 0.303394
0.767900 0.502980 0.323950
0.809013 0.533628 0.344506
0.850125 0.564275 0.365063
0.601938 0.379263 0.240969
0.643050 0.409910 0.261525
0.684163 0.440557 0.282081
0.725275 0.471205 0.302638
0.766387 0.501852 0.323194
0.807500 0.532500 0.343750
0.848612 0.563147 0.364306
0.889725 0.593795 0.384862
0.930838 0.624443 0.405419
0.682650 0.439430 0.281325
0.723763 0.470077 0.301881
0.764875 0.500725 0.322438
0.805988 0.531373 0.342994
0.847100 0.562020 0.363550
0.888213 0.592667 0.384106
0.929325 0.623315 0.404663
0.970438 0.653963 0.425219
1.000000 0.684610 0.445775
0.763363 0.499598 0.321681
0.804475 0.530245 0.342238
0.845588 0.560893 0.362794
0.886700 0.591540 0.383350
0.927813 0.622188 0.403906
0.968925 0.652835 0.424463
1.000000 0.683483 0.445019
1.000000 0.714130 0.465575
1.000000 0.744777 0.486131
0.844075 0.559765 0.362038
0.885188 0.590413 0.382594
0.926300 0.621060 0.403150
0.967413 0.651707 0.423706
1.000000 0.682355 0.444263
1.000000 0.713002 0.464819
1.000000 0.743650 0.485375
1.000000 0.774297 0.505931
1.000000 0.804945 0.526487
0.214050 0.090110 0.047025
0.255163 0.120758 0.067581
0.296275 0.151405 0.088138
0.337388 0.182052 0.108694
0.378500 0.212700 0.129250
0.419612 0.243347 0.149806
0.460725 0.273995 0.170363
0.501838 0.304643 0.190919
0.542950 0.335290 0.211475
0.294763 0.150277 0.087381
0.335875 0.180925 0.107937
0.376988 0.211572 0.128494
0.418100 0.242220 0.149050
0.459213 0.272867 0.169606
0.500325 0.303515 0.190163
0.541438 0.334163 0.210719
0.582550 0.364810 0.231275
0.623663 0.395458 0.251831
0.375475 0.210445 0.127738
0.416587 0.241092 0.148294
0.457700 0.271740 0.168850
0.498812 0.302387 0.189406
0.539925 0.333035 0.209963
0.581037 0.363682 0.230519
0.622150 0.394330 0.251075
0.663263 0.424978 0.271631
0.704375 0.455625 0.292188
0.456188 0.270612 0.168094
0.497300 0.301260 0.188650
0.538413 0.331908 0.209206
0.579525 0.362555 0.229763
0.620638 0.393203 0.250319
0.661750 0.423850 0.270875
0.702863 0.454497 0.291431
0.743975 0.485145 0.311988
0.785088 0.515792 0.332544
0.536900 0.330780 0.208450
0.578013 0.361428 0.229006
0.619125 0.392075 0.249563
0.660238 0.422723 0.270119
0.701350 0.453370 0.290675
0.742463 0.484017 0.311231
0.783575 0.514665 0.331788
0.824688 0.545312 0.352344
0.865800 0.575960 0.372900
0.617613 0.390947 0.248806
0.658725 0.421595 0.269363
0.699838 0.452242 0.289919
0.740950 0.482890 0.310475
0.782062 0.513537 0.331031
0.823175 0.544185 0.351587
0.864287 0.574832 0.372144
0.905400 0.605480 0.392700
0.946513 0.636127 0.413256
0.698325 0.451115 0.289162
0.739438 0.481762 0.309719
0.780550 0.512410 0.330275
0.821663 0.543057 0.350831
0.862775 0.573705 0.371388
0.903887 0.604352 0.391944
0.945000 0.635000 0.412500
0.986113 0.665648 0.433056
1.000000 0.696295 0.453613
0.779038 0.511282 0.329519
0.820150 0.541930 0.350075
0.861263 0.572577 0.370631
0.902375 0.603225 0.391188
0.943488 0.633872 0.411744
0.984600 0.664520 0.432300
1.000000 0.695168 0.452856
1.000000 0.725815 0.473413
1.000000 0.756462 0.493969
0.859750 0.571450 0.369875
0.900863 0.602098 0.390431
0.941975 0.632745 0.410988
0.983088 0.663392 0.431544
1.000000 0.694040 0.452100
1.000000 0.724687 0.472656
1.000000 0.755335 0.493213
1.000000 0.785982 0.513769
1.000000 0.816630 0.534325
0.229725 0.101795 0.054863
0.270838 0.132442 0.075419
0.311950 0.163090 0.095975
0.353063 0.193737 0.116531
0.394175 0.224385 0.137088
0.435288 0.255032 0.157644
0.476400 0.285680 0.178200
0.517513 0.316327 0.198756
0.558625 0.346975 0.219313
0.310438 0.161962 0.095219
0.351550 0.192610 0.115775
0.392663 0.223257 0.136331
0.433775 0.253905 0.156888
0.474888 0.284552 0.177444
0.516000 0.315200 0.198000
0.557113 0.345848 0.218556
0.598225 0.376495 0.239113
0.639338 0.407143 0.259669
0.391150 0.222130 0.135575
0.432262 0.252777 0.156131
0.473375 0.283425 0.176687
0.514487 0.314072 0.197244
0.555600 0.344720 0.217800
0.596712 0.375367 0.238356
0.637825 0.406015 0.258913
0.678937 0.436662 0.279469
0.720050 0.467310 0.300025
0.471863 0.282298 0.175931
0.512975 0.312945 0.196488
0.554088 0.343593 0.217044
0.595200 0.374240 0.237600
0.636313 0.404888 0.258156
0.677425 0.435535 0.278713
0.718538 0.466182 0.299269
0.759650 0.496830 0.319825
0.800763 0.527477 0.340381
0.552575 0.342465 0.216288
0.593688 0.373112 0.236844
0.634800 0.403760 0.257400
0.675913 0.434408 0.277956
0.717025 0.465055 0.298513
0.758138 0.495702 0.319069
0.799250 0.526350 0.339625
0.840363 0.556997 0.360181
0.881475 0.587645 0.380738
0.633288 0.402632 0.256644
0.674400 0.433280 0.277200
0.715512 0.463927 0.297756
0.756625 0.494575 0.318312
0.797737 0.525222 0.338869
0.838850 0.555870 0.359425
0.879962 0.586517 0.379981
0.921075 0.617165 0.400537
0.962188 0.647813 0.421094
0.714000 0.462800 0.297000
0.755112 0.493447 0.317556
0.796225 0.524095 0.338113
0.837337 0.554742 0.358669
0.878450 0.585390 0.379225
0.919562 0.616037 0.399781
0.960675 0.646685 0.420338
1.000000 0.677333 0.440894
1.000000 0.707980 0.461450
0.794713 0.522968 0.337356
0.835825 0.553615 0.357913
0.876938 0.584263 0.378469
0.918050 0.614910 0.399025
0.959163 0.645558 0.419581
1.000000 0.676205 0.440138
1.000000 0.706852 0.460694
1.000000 0.737500 0.481250
1.000000 0.768147 0.501806
0.875425 0.583135 0.377713
0.916538 0.613783 0.398269
0.957650 0.644430 0.418825
0.998763 0.675077 0.439381
1.000000 0.705725 0.459937
1.000000 0.736372 0.480494
1.000000 0.767020 0.501050
1.000000 0.797667 0.521606
1.000000 0.828315 0.542162
0.245400 0.113480 0.062700
0.286513 0.144127 0.083256
0.327625 0.174775 0.103813
0.368738 0.205423 0.124369
0.409850 0.236070 0.144925
0.450963 0.266717 0.165481
0.492075 0.297365 0.186038
0.533188 0.328012 0.206594
0.574300 0.358660 0.227150
0.326113 0.173647 0.103056
0.367225 0.204295 0.123613
0.408338 0.234942 0.144169
0.449450 0.265590 0.164725
0.490563 0.296237 0.185281
0.531675 0.326885 0.205838
0.572788 0.357533 0.226394
0.613900 0.388180 0.246950
0.655012 0.418828 0.267506
0.406825 0.233815 0.143412
0.447937 0.264462 0.163969
0.489050 0.295110 0.184525
0.530162 0.325757 0.205081
0.571275 0.356405 0.225638
0.612387 0.387052 0.246194
0.653500 0.417700 0.266750
0.694613 0.448348 0.287306
0.735725 0.478995 0.307862
0.487538 0.293982 0.183769
0.528650 0.324630 0.204325
0.569762 0.355277 0.224881
0.610875 0.385925 0.245438
0.651988 0.416572 0.265994
0.693100 0.447220 0.286550
0.734213 0.477867 0.307106
0.775325 0.508515 0.327663
0.816438 0.539162 0.348219
0.568250 0.354150 0.224125
0.609363 0.384797 0.244681
0.650475 0.415445 0.265238
0.691588 0.446093 0.285794
0.732700 0.476740 0.306350
0.773813 0.507387 0.326906
0.814925 0.538035 0.347463
0.856038 0.568682 0.368019
0.897150 0.599330 0.388575
0.648962 0.414317 0.264481
0.690075 0.444965 0.285037
0.731187 0.475612 0.305594
0.772300 0.506260 0.326150
0.813412 0.536907 0.346706
0.854525 0.567555 0.367262
0.895637 0.598202 0.387819
0.936750 0.628850 0.408375
0.977863 0.659497 0.428931
0.729675 0.474485 0.304838
0.770787 0.505132 0.325394
0.811900 0.535780 0.345950
0.853012 0.566427 0.366506
0.894125 0.597075 0.387063
0.935237 0.627722 0.407619
0.976350 0.658370 0.428175
1.000000 0.689017 0.448731
1.000000 0.719665 0.469288
0.810388 0.534652 0.345194
0.851500 0.565300 0.365750
0.892613 0.595947 0.386306
0.933725 0.626595 0.406863
0.974838 0.657242 0.427419
1.000000 0.687890 0.447975
1.000000 0.718538 0.468531
1.000000 0.749185 0.489088
1.000000 0.779832 0.509644
0.891100 0.594820 0.385550
0.932213 0.625467 0.406106
0.973325 0.656115 0.426663
1.000000 0.686762 0.447219
1.000000 0.717410 0.467775
1.000000 0.748057 0.488331
1.000000 0.778705 0.508888
1.000000 0.809352 0.529444
1.000000 0.840000 0.550000
