app/src/main/assets/luts/sepia.cube
TITLE "Sepia"
LUT_3D_SIZE 17
0.120000 0.020000 0.000000
0.140556 0.035324 0.010278
0.161112 0.050647 0.020556
0.181669 0.065971 0.030834
0.202225 0.081295 0.041113
0.222781 0.096619 0.051391
0.243338 0.111943 0.061669
0.263894 0.127266 0.071947
0.284450 0.142590 0.082225
0.305006 0.157914 0.092503
0.325562 0.173237 0.102781
0.346119 0.188561 0.113059
0.366675 0.203885 0.123338
0.387231 0.219209 0.133616
0.407788 0.234532 0.143894
0.428344 0.249856 0.154172
0.448900 0.265180 0.164450
0.160356 0.050084 0.020178
0.180913 0.065407 0.030456
0.201469 0.080731 0.040734
0.222025 0.096055 0.051013
0.242581 0.111379 0.061291
0.263138 0.126702 0.071569
0.283694 0.142026 0.081847
0.304250 0.157350 0.092125
0.324806 0.172674 0.102403
0.345363 0.187997 0.112681
0.365919 0.203321 0.122959
0.386475 0.218645 0.133237
0.407031 0.233969 0.143516
0.427588 0.249293 0.153794
0.448144 0.264616 0.164072
0.468700 0.279940 0.174350
0.489256 0.295264 0.184628
0.200713 0.080167 0.040356
0.221269 0.095491 0.050634
0.241825 0.110815 0.060913
0.262381 0.126139 0.071191
0.282938 0.141462 0.081469
0.303494 0.156786 0.091747
0.324050 0.172110 0.102025
0.344606 0.187434 0.112303
0.365163 0.202757 0.122581
0.385719 0.218081 0.132859
0.406275 0.233405 0.143138
0.426831 0.248729 0.153416
0.447388 0.264053 0.163694
0.467944 0.279376 0.173972
0.488500 0.294700 0.184250
0.509056 0.310024 0.194528
0.529613 0.325348 0.204806
0.241069 0.110251 0.060534
0.261625 0.125575 0.070813
0.282181 0.140899 0.081091
0.302737 0.156222 0.091369
0.323294 0.171546 0.101647
0.343850 0.186870 0.111925
0.364406 0.202194 0.122203
0.384963 0.217517 0.132481
0.405519 0.232841 0.142759
0.426075 0.248165 0.153038
0.446631 0.263489 0.163316
0.467188 0.278813 0.173594
0.487744 0.294136 0.183872
0.508300 0.309460 0.194150
0.528856 0.324784 0.204428
0.549413 0.340107 0.214706
0.569969 0.355431 0.224984
0.281425 0.140335 0.080713
0.301981 0.155659 0.090991
0.322538 0.170982 0.101269
0.343094 0.186306 0.111547
0.363650 0.201630 0.121825
0.384206 0.216954 0.132103
0.404762 0.232277 0.142381
0.425319 0.247601 0.152659
0.445875 0.262925 0.162938
0.466431 0.278249 0.173216
0.486987 0.293572 0.183494
0.507544 0.308896 0.193772
0.528100 0.324220 0.204050
0.548656 0.339544 0.214328
0.569213 0.354868 0.224606
0.589769 0.370191 0.234884
0.610325 0.385515 0.245163
0.321781 0.170419 0.100891
0.342337 0.185742 0.111169
0.362894 0.201066 0.121447
0.383450 0.216390 0.131725
0.404006 0.231714 0.142003
0.424563 0.247037 0.152281
0.445119 0.262361 0.162559
0.465675 0.277685 0.172838
0.486231 0.293009 0.183116
0.506787 0.308332 0.193394
0.527344 0.323656 0.203672
0.547900 0.338980 0.213950
0.568456 0.354304 0.224228
0.589012 0.369627 0.234506
0.609569 0.384951 0.244784
0.630125 0.400275 0.255062
0.650681 0.415599 0.265341
0.362138 0.200502 0.121069
0.382694 0.215826 0.131347
0.403250 0.231150 0.141625
0.423806 0.246474 0.151903
0.444362 0.261797 0.162181
0.464919 0.277121 0.172459
0.485475 0.292445 0.182737
0.506031 0.307769 0.193016
0.526587 0.323093 0.203294
0.547144 0.338416 0.213572
0.567700 0.353740 0.223850
0.588256 0.369064 0.234128
0.608812 0.384387 0.244406
0.629369 0.399711 0.254684
0.649925 0.415035 0.264963
0.670481 0.430359 0.275241
0.691037 0.445682 0.285519
0.402494 0.230586 0.141247
0.423050 0.245910 0.151525
0.443606 0.261234 0.161803
0.464163 0.276558 0.172081
0.484719 0.291881 0.182359
0.505275 0.307205 0.192638
0.525831 0.322529 0.202916
0.546388 0.337853 0.213194
0.566944 0.353176 0.223472
0.587500 0.368500 0.233750
0.608056 0.383824 0.244028
0.628613 0.399147 0.254306
0.649169 0.414471 0.264584
0.669725 0.429795 0.274863
0.690281 0.445119 0.285141
0.710838 0.460442 0.295419
0.731394 0.475766 0.305697
0.442850 0.260670 0.161425
0.463406 0.275994 0.171703
0.483963 0.291318 0.181981
0.504519 0.306641 0.192259
0.525075 0.321965 0.202538
0.545631 0.337289 0.212816
0.566188 0.352612 0.223094
0.586744 0.367936 0.233372
0.607300 0.383260 0.243650
0.627856 0.398584 0.253928
0.648413 0.413907 0.264206
0.668969 0.429231 0.274484
0.689525 0.444555 0.284762
0.710081 0.459879 0.295041
0.730638 0.475202 0.305319
0.751194 0.490526 0.315597
0.771750 0.505850 0.325875
0.483206 0.290754 0.181603
0.503763 0.306078 0.191881
0.524319 0.321401 0.202159
0.544875 0.336725 0.212438
0.565431 0.352049 0.222716
0.585987 0.367372 0.232994
0.606544 0.382696 0.243272
0.627100 0.398020 0.253550
0.647656 0.413344 0.263828
0.668212 0.428667 0.274106
0.688769 0.443991 0.284384
0.709325 0.459315 0.294662
0.729881 0.474639 0.304941
0.750438 0.489962 0.315219
0.770994 0.505286 0.325497
0.791550 0.520610 0.335775
0.812106 0.535934 0.346053
0.523562 0.320837 0.201781
0.544119 0.336161 0.212059
0.564675 0.351485 0.222337
0.585231 0.366809 0.232616
0.605787 0.382132 0.242894
0.626344 0.397456 0.253172
0.646900 0.412780 0.263450
0.667456 0.428104 0.273728
0.688012 0.443427 0.284006
0.708569 0.458751 0.294284
0.729125 0.474075 0.304563
0.749681 0.489399 0.314841
0.770237 0.504722 0.325119
0.790794 0.520046 0.335397
0.811350 0.535370 0.345675
0.831906 0.550694 0.355953
0.852463 0.566017 0.366231
0.563919 0.350921 0.221959
0.584475 0.366245 0.232238
0.605031 0.381569 0.242516
0.625588 0.396892 0.252794
0.646144 0.412216 0.263072
0.666700 0.427540 0.273350
0.687256 0.442864 0.283628
0.707813 0.458188 0.293906
0.728369 0.473511 0.304184
0.748925 0.488835 0.314463
0.769481 0.504159 0.324741
0.790037 0.519482 0.335019
0.810594 0.534806 0.345297
0.831150 0.550130 0.355575
0.851706 0.565454 0.365853
0.872263 0.580777 0.376131
0.892819 0.596101 0.386409
0.604275 0.381005 0.242138
0.624831 0.396329 0.252416
0.645388 0.411652 0.262694
0.665944 0.426976 0.272972
0.686500 0.442300 0.283250
0.707056 0.457624 0.293528
0.727612 0.472947 0.303806
0.748169 0.488271 0.314084
0.768725 0.503595 0.324362
0.789281 0.518919 0.334641
0.809837 0.534242 0.344919
0.830394 0.549566 0.355197
0.850950 0.564890 0.365475
0.871506 0.580214 0.375753
0.892063 0.595538 0.386031
0.912619 0.610861 0.396309
0.933175 0.626185 0.406587
0.644631 0.411089 0.262316
0.665188 0.426412 0.272594
0.685744 0.441736 0.282872
0.706300 0.457060 0.293150
0.726856 0.472384 0.303428
0.747413 0.487707 0.313706
0.767969 0.503031 0.323984
0.788525 0.518355 0.334263
0.809081 0.533679 0.344541
0.829638 0.549002 0.354819
0.850194 0.564326 0.365097
0.870750 0.579650 0.375375
0.891306 0.594974 0.385653
0.911863 0.610297 0.395931
0.932419 0.625621 0.406209
0.952975 0.640945 0.416488
0.973531 0.656269 0.426766
0.684988 0.441172 0.282494
0.705544 0.456496 0.292772
0.726100 0.471820 0.303050
0.746656 0.487144 0.313328
0.767213 0.502467 0.323606
0.787769 0.517791 0.333884
0.808325 0.533115 0.344163
0.828881 0.548439 0.354441
0.849438 0.563762 0.364719
0.869994 0.579086 0.374997
0.890550 0.594410 0.385275
0.911106 0.609734 0.395553
0.931663 0.625058 0.405831
0.952219 0.640381 0.416109
0.972775 0.655705 0.426388
0.993331 0.671029 0.436666
1.000000 0.686352 0.446944
0.725344 0.471256 0.302672
0.745900 0.486580 0.312950
0.766456 0.501904 0.323228
0.787013 0.517227 0.333506
0.807569 0.532551 0.343784
0.828125 0.547875 0.354063
0.848681 0.563199 0.364341
0.869237 0.578522 0.374619
0.889794 0.593846 0.384897
0.910350 0.609170 0.395175
0.930906 0.624494 0.405453
0.951462 0.639817 0.415731
0.972019 0.655141 0.426009
0.992575 0.670465 0.436288
1.000000 0.685789 0.446566
1.000000 0.701112 0.456844
1.000000 0.716436 0.467122
0.765700 0.501340 0.322850
0.786256 0.516664 0.333128
0.806813 0.531987 0.343406
0.827369 0.547311 0.353684
0.847925 0.562635 0.363963
0.868481 0.577959 0.374241
0.889038 0.593282 0.384519
0.909594 0.608606 0.394797
0.930150 0.623930 0.405075
0.950706 0.639254 0.415353
0.971263 0.654577 0.425631
0.991819 0.669901 0.435909
1.000000 0.685225 0.446188
1.000000 0.700549 0.456466
1.000000 0.715872 0.466744
1.000000 0.731196 0.477022
1.000000 0.746520 0.487300
0.127837 0.025843 0.003919
0.148394 0.041166 0.014197
0.168950 0.056490 0.024475
0.189506 0.071814 0.034753
0.210063 0.087138 0.045031
0.230619 0.102461 0.055309
0.251175 0.117785 0.065588
0.271731 0.133109 0.075866
0.292288 0.148432 0.086144
0.312844 0.163756 0.096422
0.333400 0.179080 0.106700
0.353956 0.194404 0.116978
0.374513 0.209727 0.127256
0.395069 0.225051 0.137534
0.415625 0.240375 0.147813
0.436181 0.255699 0.158091
0.456738 0.271022 0.168369
0.168194 0.055926 0.024097
0.188750 0.071250 0.034375
0.209306 0.086574 0.044653
0.229863 0.101898 0.054931
0.250419 0.117221 0.065209
0.270975 0.132545 0.075487
0.291531 0.147869 0.085766
0.312087 0.163192 0.096044
0.332644 0.178516 0.106322
0.353200 0.193840 0.116600
0.373756 0.209164 0.126878
0.394312 0.224487 0.137156
0.414869 0.239811 0.147434
0.435425 0.255135 0.157713
0.455981 0.270459 0.167991
0.476537 0.285782 0.178269
0.497094 0.301106 0.188547
0.208550 0.086010 0.044275
0.229106 0.101334 0.054553
0.249663 0.116657 0.064831
0.270219 0.131981 0.075109
0.290775 0.147305 0.085388
0.311331 0.162629 0.095666
0.331888 0.177952 0.105944
0.352444 0.193276 0.116222
0.373000 0.208600 0.126500
0.393556 0.223924 0.136778
0.414112 0.239247 0.147056
0.434669 0.254571 0.157334
0.455225 0.269895 0.167613
0.475781 0.285219 0.177891
0.496337 0.300542 0.188169
0.516894 0.315866 0.198447
0.537450 0.331190 0.208725
0.248906 0.116094 0.064453
0.269462 0.131417 0.074731
0.290019 0.146741 0.085009
0.310575 0.162065 0.095287
0.331131 0.177389 0.105566
0.351687 0.192712 0.115844
0.372244 0.208036 0.126122
0.392800 0.223360 0.136400
0.413356 0.238684 0.146678
0.433913 0.254007 0.156956
0.454469 0.269331 0.167234
0.475025 0.284655 0.177513
0.495581 0.299979 0.187791
0.516137 0.315302 0.198069
0.536694 0.330626 0.208347
0.557250 0.345950 0.218625
0.577806 0.361274 0.228903
0.289262 0.146177 0.084631
0.309819 0.161501 0.094909
0.330375 0.176825 0.105187
0.350931 0.192149 0.115466
0.371487 0.207472 0.125744
0.392044 0.222796 0.136022
0.412600 0.238120 0.146300
0.433156 0.253444 0.156578
0.453713 0.268767 0.166856
0.474269 0.284091 0.177134
0.494825 0.299415 0.187412
0.515381 0.314739 0.197691
0.535937 0.330062 0.207969
0.556494 0.345386 0.218247
0.577050 0.360710 0.228525
0.597606 0.376034 0.238803
0.618162 0.391357 0.249081
0.329619 0.176261 0.104809
0.350175 0.191585 0.115087
0.370731 0.206909 0.125366
0.391288 0.222232 0.135644
0.411844 0.237556 0.145922
0.432400 0.252880 0.156200
0.452956 0.268204 0.166478
0.473513 0.283527 0.176756
0.494069 0.298851 0.187034
0.514625 0.314175 0.197313
0.535181 0.329499 0.207591
0.555737 0.344822 0.217869
0.576294 0.360146 0.228147
0.596850 0.375470 0.238425
0.617406 0.390794 0.248703
0.637962 0.406117 0.258981
0.658519 0.421441 0.269259
0.369975 0.206345 0.124988
0.390531 0.221669 0.135266
0.411087 0.236992 0.145544
0.431644 0.252316 0.155822
0.452200 0.267640 0.166100
0.472756 0.282964 0.176378
0.493312 0.298287 0.186656
0.513869 0.313611 0.196934
0.534425 0.328935 0.207212
0.554981 0.344259 0.217491
0.575538 0.359582 0.227769
0.596094 0.374906 0.238047
0.616650 0.390230 0.248325
0.637206 0.405554 0.258603
0.657763 0.420878 0.268881
0.678319 0.436201 0.279159
0.698875 0.451525 0.289438
0.410331 0.236429 0.145166
0.430888 0.251752 0.155444
0.451444 0.267076 0.165722
0.472000 0.282400 0.176000
0.492556 0.297724 0.186278
0.513113 0.313047 0.196556
0.533669 0.328371 0.206834
0.554225 0.343695 0.217113
0.574781 0.359019 0.227391
0.595338 0.374342 0.237669
0.615894 0.389666 0.247947
0.636450 0.404990 0.258225
0.657006 0.420314 0.268503
0.677563 0.435638 0.278781
0.698119 0.450961 0.289059
0.718675 0.466285 0.299338
0.739231 0.481609 0.309616
0.450688 0.266512 0.165344
0.471244 0.281836 0.175622
0.491800 0.297160 0.185900
0.512356 0.312484 0.196178
0.532913 0.327807 0.206456
0.553469 0.343131 0.216734
0.574025 0.358455 0.227013
0.594581 0.373779 0.237291
0.615137 0.389102 0.247569
0.635694 0.404426 0.257847
0.656250 0.419750 0.268125
0.676806 0.435074 0.278403
0.697362 0.450397 0.288681
0.717919 0.465721 0.298959
0.738475 0.481045 0.309238
0.759031 0.496369 0.319516
0.779588 0.511692 0.329794
0.491044 0.296596 0.185522
0.511600 0.311920 0.195800
0.532156 0.327244 0.206078
0.552712 0.342567 0.216356
0.573269 0.357891 0.226634
0.593825 0.373215 0.236912
0.614381 0.388539 0.247191
0.634938 0.403862 0.257469
0.655494 0.419186 0.267747
0.676050 0.434510 0.278025
0.696606 0.449834 0.288303
0.717163 0.465158 0.298581
0.737719 0.480481 0.308859
0.758275 0.495805 0.319138
0.778831 0.511129 0.329416
0.799388 0.526452 0.339694
0.819944 0.541776 0.349972
0.531400 0.326680 0.205700
0.551956 0.342004 0.215978
0.572512 0.357327 0.226256
0.593069 0.372651 0.236534
0.613625 0.387975 0.246812
0.634181 0.403299 0.257091
0.654737 0.418622 0.267369
0.675294 0.433946 0.277647
0.695850 0.449270 0.287925
0.716406 0.464594 0.298203
0.736963 0.479917 0.308481
0.757519 0.495241 0.318759
0.778075 0.510565 0.329037
0.798631 0.525889 0.339316
0.819188 0.541212 0.349594
0.839744 0.556536 0.359872
0.860300 0.571860 0.370150
0.571756 0.356764 0.225878
0.592313 0.372088 0.236156
0.612869 0.387411 0.246434
0.633425 0.402735 0.256713
0.653981 0.418059 0.266991
0.674538 0.433383 0.277269
0.695094 0.448706 0.287547
0.715650 0.464030 0.297825
0.736206 0.479354 0.308103
0.756763 0.494677 0.318381
0.777319 0.510001 0.328659
0.797875 0.525325 0.338938
0.818431 0.540649 0.349216
0.838988 0.555972 0.359494
0.859544 0.571296 0.369772
0.880100 0.586620 0.380050
0.900656 0.601944 0.390328
0.612113 0.386847 0.246056
0.632669 0.402171 0.256334
0.653225 0.417495 0.266612
0.673781 0.432819 0.276891
0.694338 0.448143 0.287169
0.714894 0.463466 0.297447
0.735450 0.478790 0.307725
0.756006 0.494114 0.318003
0.776563 0.509437 0.328281
0.797119 0.524761 0.338559
0.817675 0.540085 0.348838
0.838231 0.555409 0.359116
0.858788 0.570732 0.369394
0.879344 0.586056 0.379672
0.899900 0.601380 0.389950
0.920456 0.616704 0.400228
0.941013 0.632027 0.410506
0.652469 0.416931 0.266234
0.673025 0.432255 0.276513
0.693581 0.447579 0.286791
0.714137 0.462902 0.297069
0.734694 0.478226 0.307347
0.755250 0.493550 0.317625
0.775806 0.508874 0.327903
0.796363 0.524197 0.338181
0.816919 0.539521 0.348459
0.837475 0.554845 0.358738
0.858031 0.570169 0.369016
0.878587 0.585492 0.379294
0.899144 0.600816 0.389572
0.919700 0.616140 0.399850
0.940256 0.631464 0.410128
0.960813 0.646787 0.420406
0.981369 0.662111 0.430684
0.692825 0.447015 0.286413
0.713381 0.462339 0.296691
0.733938 0.477663 0.306969
0.754494 0.492986 0.317247
0.775050 0.508310 0.327525
0.795606 0.523634 0.337803
0.816163 0.538958 0.348081
0.836719 0.554281 0.358359
0.857275 0.569605 0.368638
0.877831 0.584929 0.378916
0.898388 0.600253 0.389194
0.918944 0.615576 0.399472
0.939500 0.630900 0.409750
0.960056 0.646224 0.420028
0.980613 0.661548 0.430306
1.000000 0.676871 0.440584
1.000000 0.692195 0.450862
0.733181 0.477099 0.306591
0.753738 0.492422 0.316869
0.774294 0.507746 0.327147
0.794850 0.523070 0.337425
0.815406 0.538394 0.347703
0.835963 0.553717 0.357981
0.856519 0.569041 0.368259
0.877075 0.584365 0.378538
0.897631 0.599689 0.388816
0.918188 0.615012 0.399094
0.938744 0.630336 0.409372
0.959300 0.645660 0.419650
0.979856 0.660984 0.429928
1.000000 0.676308 0.440206
1.000000 0.691631 0.450484
1.000000 0.706955 0.460763
1.000000 0.722279 0.471041
0.773538 0.507182 0.326769
0.794094 0.522506 0.337047
0.814650 0.537830 0.347325
0.835206 0.553154 0.357603
0.855763 0.568477 0.367881
0.876319 0.583801 0.378159
0.896875 0.599125 0.388438
0.917431 0.614449 0.398716
0.937988 0.629772 0.408994
0.958544 0.645096 0.419272
0.979100 0.660420 0.429550
0.999656 0.675744 0.439828
1.000000 0.691068 0.450106
1.000000 0.706391 0.460384
1.000000 0.721715 0.470663
1.000000 0.737039 0.480941
1.000000 0.752362 0.491219
0.135675 0.031685 0.007838
0.156231 0.047009 0.018116
0.176787 0.062332 0.028394
0.197344 0.077656 0.038672
0.217900 0.092980 0.048950
0.238456 0.108304 0.059228
0.259013 0.123628 0.069506
0.279569 0.138951 0.079784
0.300125 0.154275 0.090063
0.320681 0.169599 0.100341
0.341237 0.184922 0.110619
0.361794 0.200246 0.120897
0.382350 0.215570 0.131175
0.402906 0.230894 0.141453
0.423463 0.246217 0.151731
0.444019 0.261541 0.162009
0.464575 0.276865 0.172288
0.176031 0.061769 0.028016
0.196587 0.077092 0.038294
0.217144 0.092416 0.048572
0.237700 0.107740 0.058850
0.258256 0.123064 0.069128
0.278813 0.138387 0.079406
0.299369 0.153711 0.089684
0.319925 0.169035 0.099963
0.340481 0.184359 0.110241
0.361038 0.199682 0.120519
0.381594 0.215006 0.130797
0.402150 0.230330 0.141075
0.422706 0.245654 0.151353
0.443263 0.260977 0.161631
0.463819 0.276301 0.171909
0.484375 0.291625 0.182187
0.504931 0.306949 0.192466
0.216388 0.091852 0.048194
0.236944 0.107176 0.058472
0.257500 0.122500 0.068750
0.278056 0.137824 0.079028
0.298613 0.153147 0.089306
0.319169 0.168471 0.099584
0.339725 0.183795 0.109863
0.360281 0.199119 0.120141
0.380837 0.214442 0.130419
0.401394 0.229766 0.140697
0.421950 0.245090 0.150975
0.442506 0.260414 0.161253
0.463063 0.275738 0.171531
0.483619 0.291061 0.181809
0.504175 0.306385 0.192087
0.524731 0.321709 0.202366
0.545288 0.337033 0.212644
0.256744 0.121936 0.068372
0.277300 0.137260 0.078650
0.297856 0.152584 0.088928
0.318412 0.167907 0.099206
0.338969 0.183231 0.109484
0.359525 0.198555 0.119763
0.380081 0.213879 0.130041
0.400638 0.229202 0.140319
0.421194 0.244526 0.150597
0.441750 0.259850 0.160875
0.462306 0.275174 0.171153
0.482862 0.290497 0.181431
0.503419 0.305821 0.191709
0.523975 0.321145 0.201987
0.544531 0.336469 0.212266
0.565087 0.351792 0.222544
0.585644 0.367116 0.232822
0.297100 0.152020 0.088550
0.317656 0.167344 0.098828
0.338213 0.182667 0.109106
0.358769 0.197991 0.119384
0.379325 0.213315 0.129663
0.399881 0.228639 0.139941
0.420437 0.243962 0.150219
0.440994 0.259286 0.160497
0.461550 0.274610 0.170775
0.482106 0.289934 0.181053
0.502663 0.305257 0.191331
0.523219 0.320581 0.201609
0.543775 0.335905 0.211888
0.564331 0.351229 0.222166
0.584888 0.366552 0.232444
0.605444 0.381876 0.242722
0.626000 0.397200 0.253000
0.337456 0.182104 0.108728
0.358012 0.197427 0.119006
0.378569 0.212751 0.129284
0.399125 0.228075 0.139563
0.419681 0.243399 0.149841
0.440238 0.258722 0.160119
0.460794 0.274046 0.170397
0.481350 0.289370 0.180675
0.501906 0.304694 0.190953
0.522463 0.320017 0.201231
0.543019 0.335341 0.211509
0.563575 0.350665 0.221787
0.584131 0.365989 0.232066
0.604688 0.381312 0.242344
0.625244 0.396636 0.252622
0.645800 0.411960 0.262900
0.666356 0.427284 0.273178
0.377812 0.212187 0.128906
0.398369 0.227511 0.139184
0.418925 0.242835 0.149462
0.439481 0.258159 0.159741
0.460037 0.273482 0.170019
0.480594 0.288806 0.180297
0.501150 0.304130 0.190575
0.521706 0.319454 0.200853
0.542262 0.334777 0.211131
0.562819 0.350101 0.221409
0.583375 0.365425 0.231687
0.603931 0.380749 0.241966
0.624487 0.396072 0.252244
0.645044 0.411396 0.262522
0.665600 0.426720 0.272800
0.686156 0.442044 0.283078
0.706712 0.457367 0.293356
0.418169 0.242271 0.149084
0.438725 0.257595 0.159363
0.459281 0.272919 0.169641
0.479838 0.288243 0.179919
0.500394 0.303566 0.190197
0.520950 0.318890 0.200475
0.541506 0.334214 0.210753
0.562063 0.349538 0.221031
0.582619 0.364861 0.231309
0.603175 0.380185 0.241588
0.623731 0.395509 0.251866
0.644288 0.410832 0.262144
0.664844 0.426156 0.272422
0.685400 0.441480 0.282700
0.705956 0.456804 0.292978
0.726513 0.472127 0.303256
0.747069 0.487451 0.313534
0.458525 0.272355 0.169262
0.479081 0.287679 0.179541
0.499637 0.303002 0.189819
0.520194 0.318326 0.200097
0.540750 0.333650 0.210375
0.561306 0.348974 0.220653
0.581862 0.364297 0.230931
0.602419 0.379621 0.241209
0.622975 0.394945 0.251487
0.643531 0.410269 0.261766
0.664088 0.425592 0.272044
0.684644 0.440916 0.282322
0.705200 0.456240 0.292600
0.725756 0.471564 0.302878
0.746313 0.486887 0.313156
0.766869 0.502211 0.323434
0.787425 0.517535 0.333713
0.498881 0.302439 0.189441
0.519437 0.317763 0.199719
0.539994 0.333086 0.209997
0.560550 0.348410 0.220275
0.581106 0.363734 0.230553
0.601662 0.379057 0.240831
0.622219 0.394381 0.251109
0.642775 0.409705 0.261387
0.663331 0.425029 0.271666
0.683888 0.440352 0.281944
0.704444 0.455676 0.292222
0.725000 0.471000 0.302500
0.745556 0.486324 0.312778
0.766112 0.501647 0.323056
0.786669 0.516971 0.333334
0.807225 0.532295 0.343612
0.827781 0.547619 0.353891
0.539238 0.332522 0.209619
0.559794 0.347846 0.219897
0.580350 0.363170 0.230175
0.600906 0.378494 0.240453
0.621462 0.393817 0.250731
0.642019 0.409141 0.261009
0.662575 0.424465 0.271288
0.683131 0.439789 0.281566
0.703687 0.455112 0.291844
0.724244 0.470436 0.302122
0.744800 0.485760 0.312400
0.765356 0.501084 0.322678
0.785912 0.516407 0.332956
0.806469 0.531731 0.343234
0.827025 0.547055 0.353513
0.847581 0.562379 0.363791
0.868138 0.577703 0.374069
0.579594 0.362606 0.229797
0.600150 0.377930 0.240075
0.620706 0.393254 0.250353
0.641263 0.408577 0.260631
0.661819 0.423901 0.270909
0.682375 0.439225 0.281188
0.702931 0.454549 0.291466
0.723488 0.469873 0.301744
0.744044 0.485196 0.312022
0.764600 0.500520 0.322300
0.785156 0.515844 0.332578
0.805712 0.531167 0.342856
0.826269 0.546491 0.353134
0.846825 0.561815 0.363413
0.867381 0.577139 0.373691
0.887938 0.592463 0.383969
0.908494 0.607786 0.394247
0.619950 0.392690 0.249975
0.640506 0.408014 0.260253
0.661062 0.423337 0.270531
0.681619 0.438661 0.280809
0.702175 0.453985 0.291087
0.722731 0.469309 0.301366
0.743287 0.484632 0.311644
0.763844 0.499956 0.321922
0.784400 0.515280 0.332200
0.804956 0.530604 0.342478
0.825512 0.545927 0.352756
0.846069 0.561251 0.363034
0.866625 0.576575 0.373312
0.887181 0.591899 0.383591
0.907738 0.607222 0.393869
0.928294 0.622546 0.404147
0.948850 0.637870 0.414425
0.660306 0.422774 0.270153
0.680863 0.438097 0.280431
0.701419 0.453421 0.290709
0.721975 0.468745 0.300987
0.742531 0.484069 0.311266
0.763088 0.499392 0.321544
0.783644 0.514716 0.331822
0.804200 0.530040 0.342100
0.824756 0.545364 0.352378
0.845313 0.560687 0.362656
0.865869 0.576011 0.372934
0.886425 0.591335 0.383212
0.906981 0.606659 0.393491
0.927538 0.621982 0.403769
0.948094 0.637306 0.414047
0.968650 0.652630 0.424325
0.989206 0.667954 0.434603
0.700663 0.452857 0.290331
0.721219 0.468181 0.300609
0.741775 0.483505 0.310888
0.762331 0.498829 0.321166
0.782887 0.514152 0.331444
0.803444 0.529476 0.341722
0.824000 0.544800 0.352000
0.844556 0.560124 0.362278
0.865112 0.575447 0.372556
0.885669 0.590771 0.382834
0.906225 0.606095 0.393113
0.926781 0.621419 0.403391
0.947338 0.636742 0.413669
0.967894 0.652066 0.423947
0.988450 0.667390 0.434225
1.000000 0.682714 0.444503
1.000000 0.698037 0.454781
0.741019 0.482941 0.310509
0.761575 0.498265 0.320788
0.782131 0.513589 0.331066
0.802687 0.528913 0.341344
0.823244 0.544236 0.351622
0.843800 0.559560 0.361900
0.864356 0.574884 0.372178
0.884912 0.590207 0.382456
0.905469 0.605531 0.392734
0.926025 0.620855 0.403012
0.946581 0.636179 0.413291
0.967137 0.651502 0.423569
0.987694 0.666826 0.433847
1.000000 0.682150 0.444125
1.000000 0.697474 0.454403
1.000000 0.712797 0.464681
1.000000 0.728121 0.474959
0.781375 0.513025 0.330688
0.801931 0.528349 0.340966
0.822488 0.543673 0.351244
0.843044 0.558996 0.361522
0.863600 0.574320 0.371800
0.884156 0.589644 0.382078
0.904713 0.604967 0.392356
0.925269 0.620291 0.402634
0.945825 0.635615 0.412913
0.966381 0.650939 0.423191
0.986938 0.666262 0.433469
1.000000 0.681586 0.443747
1.000000 0.696910 0.454025
1.000000 0.712234 0.464303
1.000000 0.727557 0.474581
1.000000 0.742881 0.484859
1.000000 0.758205 0.495137
0.143512 0.037528 0.011756
0.164069 0.052851 0.022034
0.184625 0.068175 0.032313
0.205181 0.083499 0.042591
0.225738 0.098823 0.052869
0.246294 0.114146 0.063147
0.266850 0.129470 0.073425
0.287406 0.144794 0.083703
0.307963 0.160117 0.093981
0.328519 0.175441 0.104259
0.349075 0.190765 0.114538
0.369631 0.206089 0.124816
0.390188 0.221412 0.135094
0.410744 0.236736 0.145372
0.431300 0.252060 0.155650
0.451856 0.267384 0.165928
0.472413 0.282708 0.176206
0.183869 0.067611 0.031934
0.204425 0.082935 0.042213
0.224981 0.098259 0.052491
