app/src/main/assets/luts/teal_orange.cube
TITLE "Teal Orange"
LUT_3D_SIZE 17
0.000000 0.247500 0.302500
0.034806 0.247192 0.296847
0.069612 0.246883 0.291194
0.104417 0.246575 0.285541
0.139223 0.246267 0.279888
0.174029 0.245958 0.274235
0.208835 0.245650 0.268582
0.243640 0.245342 0.262929
0.278446 0.245033 0.257276
0.313252 0.244725 0.251623
0.348058 0.244417 0.245970
0.382864 0.244108 0.240317
0.417669 0.243800 0.234664
0.452475 0.243492 0.229011
0.487281 0.243183 0.223358
0.522087 0.242875 0.217705
0.556893 0.242567 0.212053
0.013116 0.275020 0.291402
0.047922 0.274711 0.285749
0.082727 0.274403 0.280096
0.117533 0.274095 0.274443
0.152339 0.273786 0.268790
0.187145 0.273478 0.263137
0.221950 0.273170 0.257484
0.256756 0.272861 0.251831
0.291562 0.272553 0.246178
0.326368 0.272245 0.240525
0.361174 0.271936 0.234872
0.395979 0.271628 0.229219
0.430785 0.271320 0.223566
0.465591 0.271011 0.217913
0.500397 0.270703 0.212260
0.535203 0.270394 0.206608
0.570008 0.270086 0.200955
0.026232 0.302539 0.280304
0.061037 0.302231 0.274651
0.095843 0.301923 0.268998
0.130649 0.301614 0.263345
0.165455 0.301306 0.257692
0.200260 0.300998 0.252039
0.235066 0.300689 0.246386
0.269872 0.300381 0.240733
0.304678 0.300073 0.235080
0.339484 0.299764 0.229427
0.374289 0.299456 0.223774
0.409095 0.299148 0.218121
0.443901 0.298839 0.212468
0.478707 0.298531 0.206815
0.513513 0.298223 0.201163
0.548318 0.297914 0.195510
0.583124 0.297606 0.189857
0.039347 0.330059 0.269206
0.074153 0.329751 0.263553
0.108959 0.329442 0.257900
0.143765 0.329134 0.252247
0.178570 0.328826 0.246594
0.213376 0.328517 0.240941
0.248182 0.328209 0.235288
0.282988 0.327901 0.229635
0.317794 0.327592 0.223982
0.352599 0.327284 0.218329
0.387405 0.326976 0.212676
0.422211 0.326667 0.207023
0.457017 0.326359 0.201370
0.491822 0.326051 0.195718
0.526628 0.325742 0.190065
0.561434 0.325434 0.184412
0.596240 0.325125 0.178759
0.052463 0.357579 0.258108
0.087269 0.357270 0.252455
0.122075 0.356962 0.246802
0.156880 0.356654 0.241149
0.191686 0.356345 0.235496
0.226492 0.356037 0.229843
0.261298 0.355729 0.224190
0.296104 0.355420 0.218537
0.330909 0.355112 0.212884
0.365715 0.354804 0.207231
0.400521 0.354495 0.201578
0.435327 0.354187 0.195925
0.470132 0.353878 0.190273
0.504938 0.353570 0.184620
0.539744 0.353262 0.178967
0.574550 0.352953 0.173314
0.609356 0.352645 0.167661
0.065579 0.385098 0.247010
0.100385 0.384790 0.241357
0.135190 0.384482 0.235704
0.169996 0.384173 0.230051
0.204802 0.383865 0.224398
0.239608 0.383557 0.218745
0.274414 0.383248 0.213092
0.309219 0.382940 0.207439
0.344025 0.382632 0.201786
0.378831 0.382323 0.196133
0.413637 0.382015 0.190480
0.448442 0.381707 0.184828
0.483248 0.381398 0.179175
0.518054 0.381090 0.173522
0.552860 0.380781 0.167869
0.587666 0.380473 0.162216
0.622471 0.380165 0.156563
0.078695 0.412618 0.235912
0.113500 0.412310 0.230259
0.148306 0.412001 0.224606
0.183112 0.411693 0.218953
0.217918 0.411385 0.213300
0.252724 0.411076 0.207647
0.287529 0.410768 0.201994
0.322335 0.410460 0.196341
0.357141 0.410151 0.190688
0.391947 0.409843 0.185035
0.426752 0.409535 0.179383
0.461558 0.409226 0.173730
0.496364 0.408918 0.168077
0.531170 0.408609 0.162424
0.565976 0.408301 0.156771
0.600781 0.407993 0.151118
0.635587 0.407684 0.145465
0.091810 0.440138 0.224814
0.126616 0.439829 0.219161
0.161422 0.439521 0.213508
0.196228 0.439213 0.207855
0.231034 0.438904 0.202202
0.265839 0.438596 0.196549
0.300645 0.438288 0.190896
0.335451 0.437979 0.185243
0.370257 0.437671 0.179590
0.405062 0.437362 0.173938
0.439868 0.437054 0.168285
0.474674 0.436746 0.162632
0.509480 0.436437 0.156979
0.544286 0.436129 0.151326
0.579091 0.435821 0.145673
0.613897 0.435512 0.140020
0.648703 0.435204 0.134367
0.104926 0.467657 0.213716
0.139732 0.467349 0.208063
0.174538 0.467041 0.202410
0.209344 0.466732 0.196757
0.244149 0.466424 0.191104
0.278955 0.466116 0.185451
0.313761 0.465807 0.179798
0.348567 0.465499 0.174145
0.383373 0.465191 0.168493
0.418178 0.464882 0.162840
0.452984 0.464574 0.157187
0.487790 0.464265 0.151534
0.522596 0.463957 0.145881
0.557401 0.463649 0.140228
0.592207 0.463340 0.134575
0.627013 0.463032 0.128922
0.661819 0.462724 0.123269
0.118042 0.495177 0.202618
0.152848 0.494869 0.196965
0.187654 0.494560 0.191312
0.222459 0.494252 0.185659
0.257265 0.493944 0.180006
0.292071 0.493635 0.174353
0.326877 0.493327 0.168700
0.361682 0.493019 0.163048
0.396488 0.492710 0.157395
0.431294 0.492402 0.151742
0.466100 0.492093 0.146089
0.500906 0.491785 0.140436
0.535711 0.491477 0.134783
0.570517 0.491168 0.129130
0.605323 0.490860 0.123477
0.640129 0.490552 0.117824
0.674935 0.490243 0.112171
0.131158 0.522697 0.191520
0.165964 0.522388 0.185867
0.200769 0.522080 0.180214
0.235575 0.521772 0.174561
0.270381 0.521463 0.168908
0.305187 0.521155 0.163255
0.339993 0.520846 0.157603
0.374798 0.520538 0.151950
0.409604 0.520230 0.146297
0.444410 0.519921 0.140644
0.479216 0.519613 0.134991
0.514021 0.519305 0.129338
0.548827 0.518996 0.123685
0.583633 0.518688 0.118032
0.618439 0.518380 0.112379
0.653245 0.518071 0.106726
0.688050 0.517763 0.101073
0.144274 0.550216 0.180422
0.179079 0.549908 0.174769
0.213885 0.549600 0.169116
0.248691 0.549291 0.163463
0.283497 0.548983 0.157810
0.318302 0.548674 0.152158
0.353108 0.548366 0.146505
0.387914 0.548058 0.140852
0.422720 0.547749 0.135199
0.457526 0.547441 0.129546
0.492331 0.547133 0.123893
0.527137 0.546824 0.118240
0.561943 0.546516 0.112587
0.596749 0.546208 0.106934
0.631555 0.545899 0.101281
0.666360 0.545591 0.095628
0.701166 0.545283 0.089975
0.157389 0.577736 0.169324
0.192195 0.577428 0.163671
0.227001 0.577119 0.158018
0.261807 0.576811 0.152365
0.296613 0.576502 0.146712
0.331418 0.576194 0.141060
0.366224 0.575886 0.135407
0.401030 0.575577 0.129754
0.435836 0.575269 0.124101
0.470641 0.574961 0.118448
0.505447 0.574652 0.112795
0.540253 0.574344 0.107142
0.575059 0.574036 0.101489
0.609865 0.573727 0.095836
0.644670 0.573419 0.090183
0.679476 0.573111 0.084530
0.714282 0.572802 0.078877
0.170505 0.605256 0.158226
0.205311 0.604947 0.152573
0.240117 0.604639 0.146920
0.274923 0.604330 0.141268
0.309728 0.604022 0.135615
0.344534 0.603714 0.129962
0.379340 0.603405 0.124309
0.414146 0.603097 0.118656
0.448951 0.602789 0.113003
0.483757 0.602480 0.107350
0.518563 0.602172 0.101697
0.553369 0.601864 0.096044
0.588175 0.601555 0.090391
0.622980 0.601247 0.084738
0.657786 0.600939 0.079085
0.692592 0.600630 0.073432
0.727398 0.600322 0.067779
0.183621 0.632775 0.147128
0.218427 0.632467 0.141475
0.253233 0.632158 0.135823
0.288038 0.631850 0.130170
0.322844 0.631542 0.124517
0.357650 0.631233 0.118864
0.392456 0.630925 0.113211
0.427261 0.630617 0.107558
0.462067 0.630308 0.101905
0.496873 0.630000 0.096252
0.531679 0.629692 0.090599
0.566485 0.629383 0.084946
0.601290 0.629075 0.079293
0.636096 0.628767 0.073640
0.670902 0.628458 0.067987
0.705708 0.628150 0.062334
0.740513 0.627842 0.056681
0.196737 0.660295 0.136030
0.231542 0.659987 0.130378
0.266348 0.659678 0.124725
0.301154 0.659370 0.119072
0.335960 0.659061 0.113419
0.370766 0.658753 0.107766
0.405571 0.658445 0.102113
0.440377 0.658136 0.096460
0.475183 0.657828 0.090807
0.509989 0.657520 0.085154
0.544795 0.657211 0.079501
0.579600 0.656903 0.073848
0.614406 0.656595 0.068195
0.649212 0.656286 0.062542
0.684018 0.655978 0.056889
0.718823 0.655670 0.051236
0.753629 0.655361 0.045583
0.209853 0.687814 0.124933
0.244658 0.687506 0.119280
0.279464 0.687198 0.113627
0.314270 0.686889 0.107974
0.349076 0.686581 0.102321
0.383881 0.686273 0.096668
0.418687 0.685964 0.091015
0.453493 0.685656 0.085362
0.488299 0.685348 0.079709
0.523105 0.685039 0.074056
0.557910 0.684731 0.068403
0.592716 0.684423 0.062750
0.627522 0.684114 0.057097
0.662328 0.683806 0.051444
0.697133 0.683498 0.045791
0.731939 0.683189 0.040138
0.766745 0.682881 0.034485
0.002547 0.247382 0.328470
0.037353 0.247074 0.322817
0.072159 0.246766 0.317164
0.106965 0.246457 0.311511
0.141770 0.246149 0.305858
0.176576 0.245841 0.300205
0.211382 0.245532 0.294552
0.246188 0.245224 0.288899
0.280993 0.244916 0.283246
0.315799 0.244607 0.277593
0.350605 0.244299 0.271940
0.385411 0.243991 0.266287
0.420217 0.243682 0.260634
0.455022 0.243374 0.254981
0.489828 0.243066 0.249328
0.524634 0.242757 0.243675
0.559440 0.242449 0.238022
0.015663 0.274902 0.317372
0.050469 0.274594 0.311719
0.085275 0.274285 0.306066
0.120080 0.273977 0.300413
0.154886 0.273669 0.294760
0.189692 0.273360 0.289107
0.224498 0.273052 0.283454
0.259303 0.272744 0.277801
0.294109 0.272435 0.272148
0.328915 0.272127 0.266495
0.363721 0.271819 0.260842
0.398527 0.271510 0.255189
0.433332 0.271202 0.249536
0.468138 0.270894 0.243883
0.502944 0.270585 0.238230
0.537750 0.270277 0.232577
0.572555 0.269969 0.226924
0.028779 0.302422 0.306274
0.063585 0.302113 0.300621
0.098390 0.301805 0.294968
0.133196 0.301497 0.289315
0.168002 0.301188 0.283662
0.202808 0.300880 0.278009
0.237613 0.300572 0.272356
0.272419 0.300263 0.266703
0.307225 0.299955 0.261050
0.342031 0.299647 0.255397
0.376837 0.299338 0.249744
0.411642 0.299030 0.244091
0.446448 0.298722 0.238438
0.481254 0.298413 0.232785
0.516060 0.298105 0.227132
0.550865 0.297797 0.221479
0.585671 0.297488 0.215826
0.041895 0.329941 0.295176
0.076700 0.329633 0.289523
0.111506 0.329325 0.283870
0.146312 0.329016 0.278217
0.181118 0.328708 0.272564
0.215923 0.328400 0.266911
0.250729 0.328091 0.261258
0.285535 0.327783 0.255605
0.320341 0.327475 0.249952
0.355147 0.327166 0.244299
0.389952 0.326858 0.238646
0.424758 0.326550 0.232993
0.459564 0.326241 0.227340
0.494370 0.325933 0.221687
0.529175 0.325625 0.216034
0.563981 0.325316 0.210381
0.598787 0.325008 0.204728
0.055010 0.357461 0.284078
0.089816 0.357153 0.278425
0.124622 0.356844 0.272772
0.159428 0.356536 0.267119
0.194233 0.356228 0.261466
0.229039 0.355919 0.255813
0.263845 0.355611 0.250160
0.298651 0.355303 0.244507
0.333457 0.354994 0.238854
0.368262 0.354686 0.233201
0.403068 0.354378 0.227548
0.437874 0.354069 0.221895
0.472680 0.353761 0.216242
0.507485 0.353453 0.210589
0.542291 0.353144 0.204936
0.577097 0.352836 0.199283
0.611903 0.352528 0.193630
0.068126 0.384981 0.272980
0.102932 0.384672 0.267327
0.137738 0.384364 0.261674
0.172543 0.384056 0.256021
0.207349 0.383747 0.250368
0.242155 0.383439 0.244715
0.276961 0.383131 0.239062
0.311767 0.382822 0.233409
0.346572 0.382514 0.227756
0.381378 0.382206 0.222103
0.416184 0.381897 0.216450
0.450990 0.381589 0.210797
0.485795 0.381281 0.205144
0.520601 0.380972 0.199491
0.555407 0.380664 0.193838
0.590213 0.380356 0.188185
0.625019 0.380047 0.182532
0.081242 0.412500 0.261882
0.116048 0.412192 0.256229
0.150853 0.411884 0.250576
0.185659 0.411575 0.244923
0.220465 0.411267 0.239270
0.255271 0.410959 0.233617
0.290077 0.410650 0.227964
0.324882 0.410342 0.222311
0.359688 0.410034 0.216658
0.394494 0.409725 0.211005
0.429300 0.409417 0.205352
0.464105 0.409109 0.199699
0.498911 0.408800 0.194046
0.533717 0.408492 0.188393
0.568523 0.408184 0.182740
0.603329 0.407875 0.177087
0.638134 0.407567 0.171434
0.094358 0.440020 0.250784
0.129163 0.439712 0.245131
0.163969 0.439403 0.239478
0.198775 0.439095 0.233825
0.233581 0.438787 0.228172
0.268387 0.438478 0.222519
0.303192 0.438170 0.216866
0.337998 0.437862 0.211213
0.372804 0.437553 0.205560
0.407610 0.437245 0.199907
0.442415 0.436937 0.194254
0.477221 0.436628 0.188601
0.512027 0.436320 0.182948
0.546833 0.436012 0.177295
0.581639 0.435703 0.171642
0.616444 0.435395 0.165989
0.651250 0.435087 0.160336
0.107473 0.467540 0.239686
0.142279 0.467231 0.234033
0.177085 0.466923 0.228380
0.211891 0.466615 0.222727
0.246697 0.466306 0.217074
0.281502 0.465998 0.211421
0.316308 0.465690 0.205768
0.351114 0.465381 0.200115
0.385920 0.465073 0.194462
0.420725 0.464765 0.188809
0.455531 0.464456 0.183156
0.490337 0.464148 0.177503
0.525143 0.463840 0.171850
0.559949 0.463531 0.166197
0.594754 0.463223 0.160544
0.629560 0.462915 0.154891
0.664366 0.462606 0.149238
0.120589 0.495059 0.228588
0.155395 0.494751 0.222935
0.190201 0.494443 0.217282
0.225007 0.494134 0.211629
0.259812 0.493826 0.205976
0.294618 0.493518 0.200323
0.329424 0.493209 0.194670
0.364230 0.492901 0.189017
0.399035 0.492593 0.183364
0.433841 0.492284 0.177711
0.468647 0.491976 0.172058
0.503453 0.491668 0.166405
0.538259 0.491359 0.160752
0.573064 0.491051 0.155099
0.607870 0.490743 0.149446
0.642676 0.490434 0.143793
0.677482 0.490126 0.138140
0.133705 0.522579 0.217490
0.168511 0.522271 0.211837
0.203317 0.521962 0.206184
0.238122 0.521654 0.200531
0.272928 0.521346 0.194878
0.307734 0.521037 0.189225
0.342540 0.520729 0.183572
0.377345 0.520421 0.177919
0.412151 0.520112 0.172266
0.446957 0.519804 0.166613
0.481763 0.519496 0.160960
0.516569 0.519187 0.155307
0.551374 0.518879 0.149654
0.586180 0.518571 0.144001
0.620986 0.518262 0.138348
0.655792 0.517954 0.132695
0.690597 0.517645 0.127043
0.146821 0.550099 0.206392
0.181627 0.549790 0.200739
0.216432 0.549482 0.195086
0.251238 0.549174 0.189433
0.286044 0.548865 0.183780
0.320850 0.548557 0.178127
0.355655 0.548249 0.172474
0.390461 0.547940 0.166821
0.425267 0.547632 0.161168
0.460073 0.547324 0.155515
0.494879 0.547015 0.149862
0.529684 0.546707 0.144209
0.564490 0.546399 0.138556
0.599296 0.546090 0.132903
0.634102 0.545782 0.127250
0.668907 0.545473 0.121597
0.703713 0.545165 0.115945
0.159937 0.577618 0.195294
0.194742 0.577310 0.189641
0.229548 0.577002 0.183988
0.264354 0.576693 0.178335
0.299160 0.576385 0.172682
0.333965 0.576077 0.167029
0.368771 0.575768 0.161376
0.403577 0.575460 0.155723
0.438383 0.575152 0.150070
0.473189 0.574843 0.144417
0.507994 0.574535 0.138764
0.542800 0.574227 0.133111
0.577606 0.573918 0.127458
0.612412 0.573610 0.121805
0.647218 0.573302 0.116152
0.682023 0.572993 0.110500
0.716829 0.572685 0.104847
0.173052 0.605138 0.184196
0.207858 0.604830 0.178543
0.242664 0.604521 0.172890
0.277470 0.604213 0.167237
0.312275 0.603905 0.161584
0.347081 0.603596 0.155931
0.381887 0.603288 0.150278
0.416693 0.602980 0.144625
0.451499 0.602671 0.138972
0.486304 0.602363 0.133319
0.521110 0.602055 0.127666
0.555916 0.601746 0.122013
0.590722 0.601438 0.116360
0.625528 0.601129 0.110708
0.660333 0.600821 0.105055
0.695139 0.600513 0.099402
0.729945 0.600204 0.093749
0.186168 0.632658 0.173098
0.220974 0.632349 0.167445
0.255780 0.632041 0.161792
0.290585 0.631733 0.156139
0.325391 0.631424 0.150486
0.360197 0.631116 0.144833
0.395003 0.630808 0.139180
0.429809 0.630499 0.133527
0.464614 0.630191 0.127874
0.499420 0.629883 0.122221
0.534226 0.629574 0.116568
0.569032 0.629266 0.110915
0.603838 0.628957 0.105262
0.638643 0.628649 0.099610
0.673449 0.628341 0.093957
0.708255 0.628032 0.088304
0.743061 0.627724 0.082651
0.199284 0.660177 0.162000
0.234090 0.659869 0.156347
0.268895 0.659561 0.150694
0.303701 0.659252 0.145041
0.338507 0.658944 0.139388
0.373313 0.658636 0.133735
0.408119 0.658327 0.128082
0.442924 0.658019 0.122429
0.477730 0.657711 0.116776
0.512536 0.657402 0.111123
0.547342 0.657094 0.105470
0.582148 0.656786 0.099818
0.616953 0.656477 0.094165
0.651759 0.656169 0.088512
0.686565 0.655860 0.082859
0.721371 0.655552 0.077206
0.756176 0.655244 0.071553
0.212400 0.687697 0.150902
0.247205 0.687389 0.145249
0.282011 0.687080 0.139596
0.316817 0.686772 0.133943
0.351623 0.686464 0.128290
0.386429 0.686155 0.122637
0.421234 0.685847 0.116984
0.456040 0.685539 0.111331
0.490846 0.685230 0.105678
0.525652 0.684922 0.100025
0.560458 0.684613 0.094372
0.595263 0.684305 0.088720
0.630069 0.683997 0.083067
0.664875 0.683688 0.077414
0.699681 0.683380 0.071761
0.734486 0.683072 0.066108
0.769292 0.682763 0.060455
0.005094 0.247265 0.354439
0.039900 0.246957 0.348786
0.074706 0.246648 0.343133
0.109512 0.246340 0.337480
0.144317 0.246032 0.331828
0.179123 0.245723 0.326175
0.213929 0.245415 0.320522
0.248735 0.245106 0.314869
0.283541 0.244798 0.309216
0.318346 0.244490 0.303563
0.353152 0.244181 0.297910
0.387958 0.243873 0.292257
0.422764 0.243565 0.286604
0.457570 0.243256 0.280951
0.492375 0.242948 0.275298
0.527181 0.242640 0.269645
0.561987 0.242331 0.263992
0.018210 0.274785 0.343341
0.053016 0.274476 0.337688
0.087822 0.274168 0.332035
0.122628 0.273860 0.326383
0.157433 0.273551 0.320730
0.192239 0.273243 0.315077
0.227045 0.272934 0.309424
0.261851 0.272626 0.303771
0.296656 0.272318 0.298118
0.331462 0.272009 0.292465
0.366268 0.271701 0.286812
0.401074 0.271393 0.281159
0.435880 0.271084 0.275506
0.470685 0.270776 0.269853
0.505491 0.270468 0.264200
0.540297 0.270159 0.258547
0.575103 0.269851 0.252894
0.031326 0.302304 0.332243
0.066132 0.301996 0.326590
0.100937 0.301687 0.320938
0.135743 0.301379 0.315285
0.170549 0.301071 0.309632
0.205355 0.300762 0.303979
0.240161 0.300454 0.298326
0.274966 0.300146 0.292673
0.309772 0.299837 0.287020
0.344578 0.299529 0.281367
0.379384 0.299221 0.275714
0.414190 0.298912 0.270061
0.448995 0.298604 0.264408
0.483801 0.298296 0.258755
0.518607 0.297987 0.253102
0.553413 0.297679 0.247449
0.588218 0.297371 0.241796
0.044442 0.329824 0.321145
0.079248 0.329516 0.315493
0.114053 0.329207 0.309840
0.148859 0.328899 0.304187
0.183665 0.328590 0.298534
0.218471 0.328282 0.292881
0.253276 0.327974 0.287228
0.288082 0.327665 0.281575
0.322888 0.327357 0.275922
0.357694 0.327049 0.270269
0.392500 0.326740 0.264616
0.427305 0.326432 0.258963
0.462111 0.326124 0.253310
0.496917 0.325815 0.247657
0.531723 0.325507 0.242004
0.566528 0.325199 0.236351
0.601334 0.324890 0.230698
0.057558 0.357344 0.310048
0.092363 0.357035 0.304395
0.127169 0.356727 0.298742
0.161975 0.356418 0.293089
0.196781 0.356110 0.287436
0.231586 0.355802 0.281783
0.266392 0.355493 0.276130
0.301198 0.355185 0.270477
0.336004 0.354877 0.264824
0.370810 0.354568 0.259171
0.405615 0.354260 0.253518
0.440421 0.353952 0.247865
0.475227 0.353643 0.242212
0.510033 0.353335 0.236559
0.544838 0.353027 0.230906
0.579644 0.352718 0.225253
0.614450 0.352410 0.219600
0.070673 0.384863 0.298950
0.105479 0.384555 0.293297
0.140285 0.384246 0.287644
0.175091 0.383938 0.281991
0.209896 0.383630 0.276338
0.244702 0.383321 0.270685
0.279508 0.383013 0.265032
0.314314 0.382705 0.259379
0.349120 0.382396 0.253726
0.383925 0.382088 0.248073
0.418731 0.381780 0.242420
0.453537 0.381471 0.236767
0.488343 0.381163 0.231114
0.523148 0.380855 0.225461
0.557954 0.380546 0.219808
0.592760 0.380238 0.214155
0.627566 0.379930 0.208502
0.083789 0.412383 0.287852
0.118595 0.412074 0.282199
0.153401 0.411766 0.276546
0.188206 0.411458 0.270893
0.223012 0.411149 0.265240
0.257818 0.410841 0.259587
0.292624 0.410533 0.253934
0.327430 0.410224 0.248281
0.362235 0.409916 0.242628
0.397041 0.409608 0.236975
0.431847 0.409299 0.231322
0.466653 0.408991 0.225669
0.501458 0.408683 0.220016
0.536264 0.408374 0.214363
0.571070 0.408066 0.208710
0.605876 0.407758 0.203057
0.640682 0.407449 0.197404
0.096905 0.439902 0.276754
0.131711 0.439594 0.271101
0.166516 0.439286 0.265448
0.201322 0.438977 0.259795
0.236128 0.438669 0.254142
0.270934 0.438361 0.248489
0.305740 0.438052 0.242836
0.340545 0.437744 0.237183
0.375351 0.437436 0.231530
0.410157 0.437127 0.225877
0.444963 0.436819 0.220224
0.479768 0.436511 0.214571
0.514574 0.436202 0.208918
0.549380 0.435894 0.203265
0.584186 0.435586 0.197612
0.618992 0.435277 0.191959
0.653797 0.434969 0.186306
0.110021 0.467422 0.265656
0.144826 0.467114 0.260003
0.179632 0.466805 0.254350
0.214438 0.466497 0.248697
0.249244 0.466189 0.243044
0.284050 0.465880 0.237391
0.318855 0.465572 0.231738
0.353661 0.465264 0.226085
0.388467 0.464955 0.220432
0.423273 0.464647 0.214779
0.458078 0.464339 0.209126
0.492884 0.464030 0.203473
0.527690 0.463722 0.197820
0.562496 0.463414 0.192167
0.597302 0.463105 0.186514
0.632107 0.462797 0.180861
0.666913 0.462489 0.175208
0.123136 0.494942 0.254558
0.157942 0.494633 0.248905
0.192748 0.494325 0.243252
0.227554 0.494017 0.237599
0.262360 0.493708 0.231946
0.297165 0.493400 0.226293
0.331971 0.493092 0.220640
0.366777 0.492783 0.214987
0.401583 0.492475 0.209334
0.436388 0.492167 0.203681
0.471194 0.491858 0.198028
0.506000 0.491550 0.192375
0.540806 0.491242 0.186722
0.575612 0.490933 0.181069
0.610417 0.490625 0.175416
0.645223 0.490317 0.169763
0.680029 0.490008 0.164110
0.136252 0.522461 0.243460
0.171058 0.522153 0.237807
0.205864 0.521845 0.232154
0.240670 0.521536 0.226501
0.275475 0.521228 0.220848
0.310281 0.520920 0.215195
0.345087 0.520611 0.209542
0.379893 0.520303 0.203889
0.414698 0.519995 0.198236
0.449504 0.519686 0.192583
0.484310 0.519378 0.186930
0.519116 0.519070 0.181277
0.553922 0.518761 0.175624
0.588727 0.518453 0.169971
0.623533 0.518145 0.164318
0.658339 0.517836 0.158665
0.693145 0.517528 0.153012
0.149368 0.549981 0.232362
0.184174 0.549673 0.226709
0.218980 0.549364 0.221056
0.253785 0.549056 0.215403
0.288591 0.548748 0.209750
0.323397 0.548439 0.204097
0.358203 0.548131 0.198444
0.393008 0.547823 0.192791
0.427814 0.547514 0.187138
0.462620 0.547206 0.181485
0.497426 0.546898 0.175832
0.532232 0.546589 0.170179
0.567037 0.546281 0.164526
0.601843 0.545973 0.158873
0.636649 0.545664 0.153220
0.671455 0.545356 0.147567
0.706260 0.545048 0.141914
0.162484 0.577501 0.221264
0.197290 0.577192 0.215611
0.232095 0.576884 0.209958
0.266901 0.576576 0.204305
0.301707 0.576267 0.198652
0.336513 0.575959 0.192999
0.371318 0.575651 0.187346
0.406124 0.575342 0.181693
0.440930 0.575034 0.176040
0.475736 0.574726 0.170387
0.510542 0.574417 0.164734
0.545347 0.574109 0.159081
0.580153 0.573801 0.153428
0.614959 0.573492 0.147775
0.649765 0.573184 0.142122
0.684570 0.572876 0.136469
0.719376 0.572567 0.130816
0.175600 0.605020 0.210166
0.210405 0.604712 0.204513
0.245211 0.604404 0.198860
0.280017 0.604095 0.193207
0.314823 0.603787 0.187554
0.349628 0.603479 0.181901
0.384434 0.603170 0.176248
0.419240 0.602862 0.170595
0.454046 0.602554 0.164942
0.488852 0.602245 0.159289
0.523657 0.601937 0.153636
0.558463 0.601629 0.147983
0.593269 0.601320 0.142330
0.628075 0.601012 0.136677
0.662880 0.600704 0.131024
0.697686 0.600395 0.125371
0.732492 0.600087 0.119718
0.188715 0.632540 0.199068
0.223521 0.632232 0.193415
0.258327 0.631923 0.187762
0.293133 0.631615 0.182109
0.327938 0.631307 0.176456
0.362744 0.630998 0.170803
0.397550 0.630690 0.165150
0.432356 0.630382 0.159497
0.467162 0.630073 0.153844
0.501967 0.629765 0.148191
0.536773 0.629457 0.142538
0.571579 0.629148 0.136885
0.606385 0.628840 0.131232
0.641190 0.628532 0.125579
0.675996 0.628223 0.119926
0.710802 0.627915 0.114273
0.745608 0.627607 0.108620
0.201831 0.660060 0.187970
0.236637 0.659751 0.182317
0.271443 0.659443 0.176664
0.306248 0.659135 0.171011
0.341054 0.658826 0.165358
0.375860 0.658518 0.159705
0.410666 0.658210 0.154052
0.445472 0.657901 0.148399
0.480277 0.657593 0.142746
0.515083 0.657285 0.137093
0.549889 0.656976 0.131440
0.584695 0.656668 0.125787
0.619500 0.656360 0.120134
0.654306 0.656051 0.114481
0.689112 0.655743 0.108828
0.723918 0.655435 0.103175
0.758724 0.655126 0.097522
0.214947 0.687579 0.176872
0.249753 0.687271 0.171219
0.284558 0.686963 0.165566
0.319364 0.686654 0.159913
0.354170 0.686346 0.154260
0.388976 0.686038 0.148607
0.423782 0.685729 0.142954
0.458587 0.685421 0.137301
0.493393 0.685113 0.131648
0.528199 0.684804 0.125995
0.563005 0.684496 0.120342
0.597810 0.684188 0.114689
0.632616 0.683879 0.109036
0.667422 0.683571 0.103383
0.702228 0.683263 0.097730
0.737034 0.682954 0.092077
0.771839 0.682646 0.086424
0.007642 0.247147 0.380409
0.042447 0.246839 0.374756
0.077253 0.246531 0.369103
0.112059 0.246222 0.363450
0.146865 0.245914 0.357797
0.181670 0.245606 0.352144
0.216476 0.245297 0.346491
0.251282 0.244989 0.340838
0.286088 0.244681 0.335185
0.320894 0.244372 0.329532
0.355699 0.244064 0.323879
0.390505 0.243756 0.318226
0.425311 0.243447 0.312573
0.460117 0.243139 0.306920
0.494922 0.242831 0.301268
0.529728 0.242522 0.295615
0.564534 0.242214 0.289962
0.020757 0.274667 0.369311
0.055563 0.274359 0.363658
0.090369 0.274050 0.358005
