app/src/main/assets/luts/teal_orange.cube
TITLE "Teal Orange"
LUT_3D_SIZE 5
0.000000 0.247500 0.302500
0.139223 0.246267 0.279888
0.278446 0.245033 0.257276
0.417669 0.243800 0.234664
0.556893 0.242567 0.212053
0.052463 0.357579 0.258108
0.191686 0.356345 0.235496
0.330909 0.355112 0.212884
0.470132 0.353878 0.190273
0.609356 0.352645 0.167661
0.104926 0.467657 0.213716
0.244149 0.466424 0.191104
0.383373 0.465191 0.168493
0.522596 0.463957 0.145881
0.661819 0.462724 0.123269
0.157389 0.577736 0.169324
0.296613 0.576502 0.146712
0.435836 0.575269 0.124101
0.575059 0.574036 0.101489
0.714282 0.572802 0.078877
0.209853 0.687814 0.124933
0.349076 0.686581 0.102321
0.488299 0.685348 0.079709
0.627522 0.684114 0.057097
0.766745 0.682881 0.034485
0.010189 0.247030 0.406379
0.149412 0.245796 0.383767
0.288635 0.244563 0.361155
0.427858 0.243330 0.338543
0.567081 0.242096 0.315931
0.062652 0.357108 0.361987
0.201875 0.355875 0.339375
0.341098 0.354642 0.316763
0.480321 0.353408 0.294151
0.619544 0.352175 0.271539
0.115115 0.467187 0.317595
0.254338 0.465954 0.294983
0.393561 0.464720 0.272371
0.532784 0.463487 0.249759
0.672008 0.462253 0.227148
0.167578 0.577266 0.273203
0.306801 0.576032 0.250591
0.446024 0.574799 0.227979
0.585247 0.573565 0.205368
0.724471 0.572332 0.182756
0.220041 0.687344 0.228811
0.359264 0.686111 0.206199
0.498487 0.684877 0.183588
0.637711 0.683644 0.160976
0.776934 0.682411 0.138364
0.020377 0.246560 0.510258
0.159601 0.245326 0.487646
0.298824 0.244093 0.465034
0.438047 0.242859 0.442422
0.577270 0.241626 0.419810
0.072841 0.356638 0.465866
0.212064 0.355405 0.443254
0.351287 0.354171 0.420642
0.490510 0.352938 0.398030
0.629733 0.351705 0.375418
0.125304 0.466717 0.421474
0.264527 0.465483 0.398862
0.403750 0.464250 0.376250
0.542973 0.463017 0.353638
0.682196 0.461783 0.331026
0.177767 0.576795 0.377082
0.316990 0.575562 0.354470
0.456213 0.574329 0.331858
0.595436 0.573095 0.309246
0.734659 0.571862 0.286634
0.230230 0.686874 0.332690
0.369453 0.685641 0.310078
0.508676 0.684407 0.287466
0.647899 0.683174 0.264854
0.787122 0.681941 0.242242
0.030566 0.246089 0.614136
0.169789 0.244856 0.591524
0.309013 0.243623 0.568913
0.448236 0.242389 0.546301
0.587459 0.241156 0.523689
0.083029 0.356168 0.569744
0.222252 0.354935 0.547133
0.361476 0.353701 0.524521
0.500699 0.352468 0.501909
0.639922 0.351234 0.479297
0.135493 0.466247 0.525353
0.274716 0.465013 0.502741
0.413939 0.463780 0.480129
0.553162 0.462546 0.457517
0.692385 0.461313 0.434905
0.187956 0.576325 0.480961
0.327179 0.575092 0.458349
0.466402 0.573858 0.435737
0.605625 0.572625 0.413125
0.744848 0.571392 0.390513
0.240419 0.686404 0.436569
0.379642 0.685170 0.413957
0.518865 0.683937 0.391345
0.658088 0.682704 0.368733
0.797311 0.681470 0.346121
0.040755 0.245619 0.718015
0.179978 0.244386 0.695403
0.319201 0.243152 0.672791
0.458424 0.241919 0.650179
0.597647 0.240686 0.627568
0.093218 0.355698 0.673623
0.232441 0.354464 0.651011
0.371664 0.353231 0.628399
0.510887 0.351998 0.605787
0.650111 0.350764 0.583176
0.145681 0.465776 0.629231
0.284904 0.464543 0.606619
0.424127 0.463309 0.584008
0.563351 0.462076 0.561396
0.702574 0.460843 0.538784
0.198144 0.575855 0.584839
0.337367 0.574622 0.562227
0.476591 0.573388 0.539616
0.615814 0.572155 0.517004
0.755037 0.570921 0.494392
0.250608 0.685933 0.540447
0.389831 0.684700 0.517836
0.529054 0.683467 0.495224
0.668277 0.682233 0.472612
0.807500 0.681000 0.450000
