app/src/main/assets/luts/teal_orange.cube
TITLE "Teal Orange"
LUT_3D_SIZE 9
0.000000 0.247500 0.302500
0.069612 0.246883 0.291194
0.139223 0.246267 0.279888
0.208835 0.245650 0.268582
0.278446 0.245033 0.257276
0.348058 0.244417 0.245970
0.417669 0.243800 0.234664
0.487281 0.243183 0.223358
0.556893 0.242567 0.212053
0.026232 0.302539 0.280304
0.095843 0.301923 0.268998
0.165455 0.301306 0.257692
0.235066 0.300689 0.246386
0.304678 0.300073 0.235080
0.374289 0.299456 0.223774
0.443901 0.298839 0.212468
0.513513 0.298223 0.201163
0.583124 0.297606 0.189857
0.052463 0.357579 0.258108
0.122075 0.356962 0.246802
0.191686 0.356345 0.235496
0.261298 0.355729 0.224190
0.330909 0.355112 0.212884
0.400521 0.354495 0.201578
0.470132 0.353878 0.190273
0.539744 0.353262 0.178967
0.609356 0.352645 0.167661
0.078695 0.412618 0.235912
0.148306 0.412001 0.224606
0.217918 0.411385 0.213300
0.287529 0.410768 0.201994
0.357141 0.410151 0.190688
0.426752 0.409535 0.179383
0.496364 0.408918 0.168077
0.565976 0.408301 0.156771
0.635587 0.407684 0.145465
0.104926 0.467657 0.213716
0.174538 0.467041 0.202410
0.244149 0.466424 0.191104
0.313761 0.465807 0.179798
0.383373 0.465191 0.168493
0.452984 0.464574 0.157187
0.522596 0.463957 0.145881
0.592207 0.463340 0.134575
0.661819 0.462724 0.123269
0.131158 0.522697 0.191520
0.200769 0.522080 0.180214
0.270381 0.521463 0.168908
0.339993 0.520846 0.157603
0.409604 0.520230 0.146297
0.479216 0.519613 0.134991
0.548827 0.518996 0.123685
0.618439 0.518380 0.112379
0.688050 0.517763 0.101073
0.157389 0.577736 0.169324
0.227001 0.577119 0.158018
0.296613 0.576502 0.146712
0.366224 0.575886 0.135407
0.435836 0.575269 0.124101
0.505447 0.574652 0.112795
0.575059 0.574036 0.101489
0.644670 0.573419 0.090183
0.714282 0.572802 0.078877
0.183621 0.632775 0.147128
0.253233 0.632158 0.135823
0.322844 0.631542 0.124517
0.392456 0.630925 0.113211
0.462067 0.630308 0.101905
0.531679 0.629692 0.090599
0.601290 0.629075 0.079293
0.670902 0.628458 0.067987
0.740513 0.627842 0.056681
0.209853 0.687814 0.124933
0.279464 0.687198 0.113627
0.349076 0.686581 0.102321
0.418687 0.685964 0.091015
0.488299 0.685348 0.079709
0.557910 0.684731 0.068403
0.627522 0.684114 0.057097
0.697133 0.683498 0.045791
0.766745 0.682881 0.034485
0.005094 0.247265 0.354439
0.074706 0.246648 0.343133
0.144317 0.246032 0.331828
0.213929 0.245415 0.320522
0.283541 0.244798 0.309216
0.353152 0.244181 0.297910
0.422764 0.243565 0.286604
0.492375 0.242948 0.275298
0.561987 0.242331 0.263992
0.031326 0.302304 0.332243
0.100937 0.301687 0.320938
0.170549 0.301071 0.309632
0.240161 0.300454 0.298326
0.309772 0.299837 0.287020
0.379384 0.299221 0.275714
0.448995 0.298604 0.264408
0.518607 0.297987 0.253102
0.588218 0.297371 0.241796
0.057558 0.357344 0.310048
0.127169 0.356727 0.298742
0.196781 0.356110 0.287436
0.266392 0.355493 0.276130
0.336004 0.354877 0.264824
0.405615 0.354260 0.253518
0.475227 0.353643 0.242212
0.544838 0.353027 0.230906
0.614450 0.352410 0.219600
0.083789 0.412383 0.287852
0.153401 0.411766 0.276546
0.223012 0.411149 0.265240
0.292624 0.410533 0.253934
0.362235 0.409916 0.242628
0.431847 0.409299 0.231322
0.501458 0.408683 0.220016
0.571070 0.408066 0.208710
0.640682 0.407449 0.197404
0.110021 0.467422 0.265656
0.179632 0.466805 0.254350
0.249244 0.466189 0.243044
0.318855 0.465572 0.231738
0.388467 0.464955 0.220432
0.458078 0.464339 0.209126
0.527690 0.463722 0.197820
0.597302 0.463105 0.186514
0.666913 0.462489 0.175208
0.136252 0.522461 0.243460
0.205864 0.521845 0.232154
0.275475 0.521228 0.220848
0.345087 0.520611 0.209542
0.414698 0.519995 0.198236
0.484310 0.519378 0.186930
0.553922 0.518761 0.175624
0.623533 0.518145 0.164318
0.693145 0.517528 0.153012
0.162484 0.577501 0.221264
0.232095 0.576884 0.209958
0.301707 0.576267 0.198652
0.371318 0.575651 0.187346
0.440930 0.575034 0.176040
0.510542 0.574417 0.164734
0.580153 0.573801 0.153428
0.649765 0.573184 0.142122
0.719376 0.572567 0.130816
0.188715 0.632540 0.199068
0.258327 0.631923 0.187762
0.327938 0.631307 0.176456
0.397550 0.630690 0.165150
0.467162 0.630073 0.153844
0.536773 0.629457 0.142538
0.606385 0.628840 0.131232
0.675996 0.628223 0.119926
0.745608 0.627607 0.108620
0.214947 0.687579 0.176872
0.284558 0.686963 0.165566
0.354170 0.686346 0.154260
0.423782 0.685729 0.142954
0.493393 0.685113 0.131648
0.563005 0.684496 0.120342
0.632616 0.683879 0.109036
0.702228 0.683263 0.097730
0.771839 0.682646 0.086424
0.010189 0.247030 0.406379
0.079800 0.246413 0.395073
0.149412 0.245796 0.383767
0.219023 0.245180 0.372461
0.288635 0.244563 0.361155
0.358247 0.243946 0.349849
0.427858 0.243330 0.338543
0.497470 0.242713 0.327237
0.567081 0.242096 0.315931
0.036420 0.302069 0.384183
0.106032 0.301452 0.372877
0.175643 0.300836 0.361571
0.245255 0.300219 0.350265
0.314867 0.299602 0.338959
0.384478 0.298986 0.327653
0.454090 0.298369 0.316347
0.523701 0.297752 0.305041
0.593313 0.297136 0.293735
0.062652 0.357108 0.361987
0.132263 0.356492 0.350681
0.201875 0.355875 0.339375
0.271487 0.355258 0.328069
0.341098 0.354642 0.316763
0.410710 0.354025 0.305457
0.480321 0.353408 0.294151
0.549933 0.352792 0.282845
0.619544 0.352175 0.271539
0.088883 0.412148 0.339791
0.158495 0.411531 0.328485
0.228107 0.410914 0.317179
0.297718 0.410298 0.305873
0.367330 0.409681 0.294567
0.436941 0.409064 0.283261
0.506553 0.408448 0.271955
0.576164 0.407831 0.260649
0.645776 0.407214 0.249343
0.115115 0.467187 0.317595
0.184727 0.466570 0.306289
0.254338 0.465954 0.294983
0.323950 0.465337 0.283677
0.393561 0.464720 0.272371
0.463173 0.464104 0.261065
0.532784 0.463487 0.249759
0.602396 0.462870 0.238453
0.672008 0.462253 0.227148
0.141347 0.522226 0.295399
0.210958 0.521610 0.284093
0.280570 0.520993 0.272787
0.350181 0.520376 0.261481
0.419793 0.519760 0.250175
0.489404 0.519143 0.238869
0.559016 0.518526 0.227563
0.628628 0.517910 0.216258
0.698239 0.517293 0.204952
0.167578 0.577266 0.273203
0.237190 0.576649 0.261897
0.306801 0.576032 0.250591
0.376413 0.575416 0.239285
0.446024 0.574799 0.227979
0.515636 0.574182 0.216673
0.585247 0.573565 0.205368
0.654859 0.572949 0.194062
0.724471 0.572332 0.182756
0.193810 0.632305 0.251007
0.263421 0.631688 0.239701
0.333033 0.631072 0.228395
0.402644 0.630455 0.217089
0.472256 0.629838 0.205783
0.541867 0.629221 0.194477
0.611479 0.628605 0.183172
0.681091 0.627988 0.171866
0.750702 0.627371 0.160560
0.220041 0.687344 0.228811
0.289653 0.686728 0.217505
0.359264 0.686111 0.206199
0.428876 0.685494 0.194893
0.498487 0.684877 0.183588
0.568099 0.684261 0.172282
0.637711 0.683644 0.160976
0.707322 0.683027 0.149670
0.776934 0.682411 0.138364
0.015283 0.246795 0.458318
0.084895 0.246178 0.447012
0.154506 0.245561 0.435706
0.224118 0.244945 0.424400
0.293729 0.244328 0.413094
0.363341 0.243711 0.401788
0.432952 0.243095 0.390483
0.502564 0.242478 0.379177
0.572176 0.241861 0.367871
0.041515 0.301834 0.436122
0.111126 0.301217 0.424816
0.180738 0.300601 0.413510
0.250349 0.299984 0.402204
0.319961 0.299367 0.390898
0.389572 0.298751 0.379592
0.459184 0.298134 0.368287
0.528796 0.297517 0.356981
0.598407 0.296900 0.345675
0.067746 0.356873 0.413926
0.137358 0.356257 0.402620
0.206969 0.355640 0.391314
0.276581 0.355023 0.380008
0.346193 0.354407 0.368703
0.415804 0.353790 0.357397
0.485416 0.353173 0.346091
0.555027 0.352556 0.334785
0.624639 0.351940 0.323479
0.093978 0.411913 0.391730
0.163589 0.411296 0.380424
0.233201 0.410679 0.369118
0.302813 0.410062 0.357812
0.372424 0.409446 0.346507
0.442036 0.408829 0.335201
0.511647 0.408212 0.323895
0.581259 0.407596 0.312589
0.650870 0.406979 0.301283
0.120209 0.466952 0.369534
0.189821 0.466335 0.358228
0.259433 0.465718 0.346923
0.329044 0.465102 0.335617
0.398656 0.464485 0.324311
0.468267 0.463868 0.313005
0.537879 0.463252 0.301699
0.607490 0.462635 0.290393
0.677102 0.462018 0.279087
0.146441 0.521991 0.347338
0.216052 0.521374 0.336033
0.285664 0.520758 0.324727
0.355276 0.520141 0.313421
0.424887 0.519524 0.302115
0.494499 0.518908 0.290809
0.564110 0.518291 0.279503
0.633722 0.517674 0.268197
0.703333 0.517058 0.256891
0.172673 0.577031 0.325143
0.242284 0.576414 0.313837
0.311896 0.575797 0.302531
0.381507 0.575180 0.291225
0.451119 0.574564 0.279919
0.520730 0.573947 0.268613
0.590342 0.573330 0.257307
0.659953 0.572714 0.246001
0.729565 0.572097 0.234695
0.198904 0.632070 0.302947
0.268516 0.631453 0.291641
0.338127 0.630836 0.280335
0.407739 0.630220 0.269029
0.477350 0.629603 0.257723
0.546962 0.628986 0.246417
0.616573 0.628370 0.235111
0.686185 0.627753 0.223805
0.755797 0.627136 0.212499
0.225136 0.687109 0.280751
0.294747 0.686492 0.269445
0.364359 0.685876 0.258139
0.433970 0.685259 0.246833
0.503582 0.684642 0.235527
0.573193 0.684026 0.224221
0.642805 0.683409 0.212915
0.712417 0.682792 0.201609
0.782028 0.682176 0.190303
0.020377 0.246560 0.510258
0.089989 0.245943 0.498952
0.159601 0.245326 0.487646
0.229212 0.244709 0.476340
0.298824 0.244093 0.465034
0.368435 0.243476 0.453728
0.438047 0.242859 0.442422
0.507658 0.242243 0.431116
0.577270 0.241626 0.419810
0.046609 0.301599 0.488062
0.116221 0.300982 0.476756
0.185832 0.300365 0.465450
0.255444 0.299749 0.454144
0.325055 0.299132 0.442838
0.394667 0.298515 0.431532
0.464278 0.297899 0.420226
0.533890 0.297282 0.408920
0.603502 0.296665 0.397614
0.072841 0.356638 0.465866
0.142452 0.356021 0.454560
0.212064 0.355405 0.443254
0.281675 0.354788 0.431948
0.351287 0.354171 0.420642
0.420898 0.353555 0.409336
0.490510 0.352938 0.398030
0.560122 0.352321 0.386724
0.629733 0.351705 0.375418
0.099072 0.411677 0.443670
0.168684 0.411061 0.432364
0.238295 0.410444 0.421058
0.307907 0.409827 0.409752
0.377518 0.409211 0.398446
0.447130 0.408594 0.387140
0.516742 0.407977 0.375834
0.586353 0.407361 0.364528
0.655965 0.406744 0.353222
0.125304 0.466717 0.421474
0.194915 0.466100 0.410168
0.264527 0.465483 0.398862
0.334138 0.464867 0.387556
0.403750 0.464250 0.376250
0.473362 0.463633 0.364944
0.542973 0.463017 0.353638
0.612585 0.462400 0.342332
0.682196 0.461783 0.331026
0.151535 0.521756 0.399278
0.221147 0.521139 0.387972
0.290758 0.520523 0.376666
0.360370 0.519906 0.365360
0.429982 0.519289 0.354054
0.499593 0.518673 0.342748
0.569205 0.518056 0.331442
0.638816 0.517439 0.320136
0.708428 0.516823 0.308830
0.177767 0.576795 0.377082
0.247378 0.576179 0.365776
0.316990 0.575562 0.354470
0.386602 0.574945 0.343164
0.456213 0.574329 0.331858
0.525825 0.573712 0.320552
0.595436 0.573095 0.309246
0.665048 0.572479 0.297940
0.734659 0.571862 0.286634
0.203998 0.631835 0.354886
0.273610 0.631218 0.343580
0.343222 0.630601 0.332274
0.412833 0.629985 0.320968
0.482445 0.629368 0.309662
0.552056 0.628751 0.298356
0.621668 0.628135 0.287050
0.691279 0.627518 0.275744
0.760891 0.626901 0.264438
0.230230 0.686874 0.332690
0.299842 0.686257 0.321384
0.369453 0.685641 0.310078
0.439065 0.685024 0.298772
0.508676 0.684407 0.287466
0.578288 0.683791 0.276160
0.647899 0.683174 0.264854
0.717511 0.682557 0.253548
0.787122 0.681941 0.242242
0.025472 0.246324 0.562197
0.095083 0.245708 0.550891
0.164695 0.245091 0.539585
0.234307 0.244474 0.528279
0.303918 0.243858 0.516973
0.373530 0.243241 0.505667
0.443141 0.242624 0.494361
0.512753 0.242008 0.483055
0.582364 0.241391 0.471749
0.051703 0.301364 0.540001
0.121315 0.300747 0.528695
0.190927 0.300130 0.517389
0.260538 0.299514 0.506083
0.330150 0.298897 0.494777
0.399761 0.298280 0.483471
0.469373 0.297664 0.472165
0.538984 0.297047 0.460859
0.608596 0.296430 0.449553
0.077935 0.356403 0.517805
0.147547 0.355786 0.506499
0.217158 0.355170 0.495193
0.286770 0.354553 0.483887
0.356381 0.353936 0.472581
0.425993 0.353320 0.461275
0.495604 0.352703 0.449969
0.565216 0.352086 0.438663
0.634827 0.351469 0.427357
0.104167 0.411442 0.495609
0.173778 0.410826 0.484303
0.243390 0.410209 0.472997
0.313001 0.409592 0.461691
0.382613 0.408976 0.450385
0.452224 0.408359 0.439079
0.521836 0.407742 0.427773
0.591448 0.407126 0.416467
0.661059 0.406509 0.405162
0.130398 0.466482 0.473413
0.200010 0.465865 0.462107
0.269621 0.465248 0.450801
0.339233 0.464632 0.439495
0.408844 0.464015 0.428189
0.478456 0.463398 0.416883
0.548067 0.462782 0.405578
0.617679 0.462165 0.394272
0.687291 0.461548 0.382966
0.156630 0.521521 0.451217
0.226241 0.520904 0.439911
0.295853 0.520288 0.428605
0.365464 0.519671 0.417299
0.435076 0.519054 0.405993
0.504687 0.518437 0.394687
0.574299 0.517821 0.383382
0.643911 0.517204 0.372076
0.713522 0.516587 0.360770
0.182861 0.576560 0.429021
0.252473 0.575944 0.417715
0.322084 0.575327 0.406409
0.391696 0.574710 0.395103
0.461308 0.574094 0.383798
0.530919 0.573477 0.372492
0.600531 0.572860 0.361186
0.670142 0.572243 0.349880
0.739754 0.571627 0.338574
0.209093 0.631600 0.406825
0.278704 0.630983 0.395519
0.348316 0.630366 0.384213
0.417928 0.629749 0.372907
0.487539 0.629133 0.361602
0.557151 0.628516 0.350296
0.626762 0.627899 0.338990
0.696374 0.627283 0.327684
0.765985 0.626666 0.316378
0.235324 0.686639 0.384629
0.304936 0.686022 0.373323
0.374548 0.685406 0.362017
0.444159 0.684789 0.350712
0.513771 0.684172 0.339406
0.583382 0.683555 0.328100
0.652994 0.682939 0.316794
0.722605 0.682322 0.305488
0.792217 0.681705 0.294182
0.030566 0.246089 0.614136
0.100178 0.245473 0.602830
0.169789 0.244856 0.591524
0.239401 0.244239 0.580218
0.309013 0.243623 0.568913
0.378624 0.243006 0.557607
0.448236 0.242389 0.546301
0.517847 0.241772 0.534995
0.587459 0.241156 0.523689
0.056798 0.301129 0.591940
0.126409 0.300512 0.580634
0.196021 0.299895 0.569328
0.265632 0.299279 0.558022
0.335244 0.298662 0.546717
0.404856 0.298045 0.535411
0.474467 0.297428 0.524105
0.544079 0.296812 0.512799
0.613690 0.296195 0.501493
0.083029 0.356168 0.569744
0.152641 0.355551 0.558438
0.222252 0.354935 0.547133
0.291864 0.354318 0.535827
0.361476 0.353701 0.524521
0.431087 0.353084 0.513215
0.500699 0.352468 0.501909
0.570310 0.351851 0.490603
0.639922 0.351234 0.479297
0.109261 0.411207 0.547548
0.178873 0.410590 0.536242
0.248484 0.409974 0.524937
0.318096 0.409357 0.513631
0.387707 0.408740 0.502325
0.457319 0.408124 0.491019
0.526930 0.407507 0.479713
0.596542 0.406890 0.468407
0.666153 0.406274 0.457101
0.135493 0.466247 0.525353
0.205104 0.465630 0.514047
0.274716 0.465013 0.502741
0.344327 0.464396 0.491435
0.413939 0.463780 0.480129
0.483550 0.463163 0.468823
0.553162 0.462546 0.457517
0.622773 0.461930 0.446211
0.692385 0.461313 0.434905
0.161724 0.521286 0.503157
0.231336 0.520669 0.491851
0.300947 0.520052 0.480545
0.370559 0.519436 0.469239
0.440170 0.518819 0.457933
0.509782 0.518202 0.446627
0.579393 0.517586 0.435321
0.649005 0.516969 0.424015
0.718617 0.516352 0.412709
0.187956 0.576325 0.480961
0.257567 0.575708 0.469655
0.327179 0.575092 0.458349
0.396790 0.574475 0.447043
0.466402 0.573858 0.435737
0.536013 0.573242 0.424431
0.605625 0.572625 0.413125
0.675237 0.572008 0.401819
0.744848 0.571392 0.390513
0.214187 0.631364 0.458765
0.283799 0.630748 0.447459
0.353410 0.630131 0.436153
0.423022 0.629514 0.424847
0.492633 0.628898 0.413541
0.562245 0.628281 0.402235
0.631857 0.627664 0.390929
0.701468 0.627048 0.379623
0.771080 0.626431 0.368317
0.240419 0.686404 0.436569
0.310030 0.685787 0.425263
0.379642 0.685170 0.413957
0.449253 0.684554 0.402651
0.518865 0.683937 0.391345
0.588477 0.683320 0.380039
0.658088 0.682704 0.368733
0.727700 0.682087 0.357427
0.797311 0.681470 0.346121
0.035661 0.245854 0.666076
0.105272 0.245237 0.654770
0.174884 0.244621 0.643464
0.244495 0.244004 0.632158
0.314107 0.243387 0.620852
0.383718 0.242771 0.609546
0.453330 0.242154 0.598240
0.522942 0.241537 0.586934
0.592553 0.240921 0.575628
0.061892 0.300893 0.643880
0.131504 0.300277 0.632574
0.201115 0.299660 0.621268
0.270727 0.299043 0.609962
0.340338 0.298427 0.598656
0.409950 0.297810 0.587350
0.479562 0.297193 0.576044
0.549173 0.296577 0.564738
0.618785 0.295960 0.553432
0.088124 0.355933 0.621684
0.157735 0.355316 0.610378
0.227347 0.354699 0.599072
0.296958 0.354083 0.587766
0.366570 0.353466 0.576460
0.436182 0.352849 0.565154
0.505793 0.352233 0.553848
0.575405 0.351616 0.542542
0.645016 0.350999 0.531236
0.114355 0.410972 0.599488
0.183967 0.410355 0.588182
0.253578 0.409739 0.576876
0.323190 0.409122 0.565570
0.392802 0.408505 0.554264
0.462413 0.407889 0.542958
0.532025 0.407272 0.531652
0.601636 0.406655 0.520346
0.671248 0.406039 0.509040
0.140587 0.466011 0.577292
0.210198 0.465395 0.565986
0.279810 0.464778 0.554680
0.349422 0.464161 0.543374
0.419033 0.463545 0.532068
0.488645 0.462928 0.520762
0.558256 0.462311 0.509456
0.627868 0.461695 0.498150
0.697479 0.461078 0.486844
0.166818 0.521051 0.555096
0.236430 0.520434 0.543790
0.306042 0.519817 0.532484
0.375653 0.519201 0.521178
0.445265 0.518584 0.509872
0.514876 0.517967 0.498566
0.584488 0.517351 0.487260
0.654099 0.516734 0.475954
0.723711 0.516117 0.464648
0.193050 0.576090 0.532900
0.262662 0.575473 0.521594
0.332273 0.574857 0.510288
0.401885 0.574240 0.498982
0.471496 0.573623 0.487676
0.541108 0.573007 0.476370
0.610719 0.572390 0.465064
0.680331 0.571773 0.453758
0.749942 0.571156 0.442452
0.219282 0.631129 0.510704
0.288893 0.630513 0.499398
0.358505 0.629896 0.488092
0.428116 0.629279 0.476786
0.497728 0.628663 0.465480
0.567339 0.628046 0.454174
0.636951 0.627429 0.442868
0.706562 0.626812 0.431562
0.776174 0.626196 0.420257
0.245513 0.686169 0.488508
0.315125 0.685552 0.477202
0.384736 0.684935 0.465896
0.454348 0.684319 0.454590
0.523959 0.683702 0.443284
0.593571 0.683085 0.431978
0.663183 0.682468 0.420672
0.732794 0.681852 0.409367
0.802406 0.681235 0.398061
0.040755 0.245619 0.718015
0.110367 0.245002 0.706709
0.179978 0.244386 0.695403
0.249590 0.243769 0.684097
0.319201 0.243152 0.672791
0.388813 0.242536 0.661485
0.458424 0.241919 0.650179
0.528036 0.241302 0.638873
0.597647 0.240686 0.627568
0.066987 0.300658 0.695819
0.136598 0.300042 0.684513
0.206210 0.299425 0.673207
0.275821 0.298808 0.661901
0.345433 0.298192 0.650595
0.415044 0.297575 0.639289
0.484656 0.296958 0.627983
0.554267 0.296342 0.616677
0.623879 0.295725 0.605372
0.093218 0.355698 0.673623
0.162830 0.355081 0.662317
0.232441 0.354464 0.651011
0.302053 0.353848 0.639705
0.371664 0.353231 0.628399
0.441276 0.352614 0.617093
0.510887 0.351998 0.605787
0.580499 0.351381 0.594482
0.650111 0.350764 0.583176
0.119450 0.410737 0.651427
0.189061 0.410120 0.640121
0.258673 0.409504 0.628815
0.328284 0.408887 0.617509
0.397896 0.408270 0.606203
0.467507 0.407654 0.594897
0.537119 0.407037 0.583592
0.606731 0.406420 0.572286
0.676342 0.405803 0.560980
0.145681 0.465776 0.629231
0.215293 0.465160 0.617925
0.284904 0.464543 0.606619
0.354516 0.463926 0.595313
0.424127 0.463309 0.584008
0.493739 0.462693 0.572702
0.563351 0.462076 0.561396
0.632962 0.461459 0.550090
0.702574 0.460843 0.538784
0.171913 0.520816 0.607035
0.241524 0.520199 0.595729
0.311136 0.519582 0.584423
0.380748 0.518965 0.573117
0.450359 0.518349 0.561812
0.519971 0.517732 0.550506
0.589582 0.517115 0.539200
0.659194 0.516499 0.527894
0.728805 0.515882 0.516588
0.198144 0.575855 0.584839
0.267756 0.575238 0.573533
0.337367 0.574622 0.562227
0.406979 0.574005 0.550922
0.476591 0.573388 0.539616
0.546202 0.572771 0.528310
0.615814 0.572155 0.517004
0.685425 0.571538 0.505698
0.755037 0.570921 0.494392
0.224376 0.630894 0.562643
0.293988 0.630277 0.551338
0.363599 0.629661 0.540032
0.433211 0.629044 0.528726
0.502822 0.628427 0.517420
0.572434 0.627811 0.506114
0.642045 0.627194 0.494808
0.711657 0.626577 0.483502
0.781268 0.625961 0.472196
0.250608 0.685933 0.540447
0.320219 0.685317 0.529142
0.389831 0.684700 0.517836
0.459442 0.684083 0.506530
0.529054 0.683467 0.495224
0.598665 0.682850 0.483918
0.668277 0.682233 0.472612
0.737888 0.681617 0.461306
0.807500 0.681000 0.450000
