app/src/main/assets/luts/vivid.cube
TITLE "Vivid"
LUT_3D_SIZE 5
0.000000 0.000000 0.000000
0.355150 0.000000 0.000000
0.710300 0.000000 0.000000
1.000000 0.000000 0.000000
1.000000 0.000000 0.000000
0.000000 0.311950 0.000000
0.267100 0.267100 0.000000
0.622250 0.222250 0.000000
0.977400 0.177400 0.000000
1.000000 0.132550 0.000000
0.000000 0.623900 0.000000
0.179050 0.579050 0.000000
0.534200 0.534200 0.000000
0.889350 0.489350 0.000000
1.000000 0.444500 0.000000
0.000000 0.935850 0.000000
0.091000 0.891000 0.000000
0.446150 0.846150 0.000000
0.801300 0.801300 0.000000
1.000000 0.756450 0.000000
0.000000 1.000000 0.000000
0.002950 1.000000 0.000000
0.358100 1.000000 0.000000
0.713250 1.000000 0.000000
1.000000 1.000000 0.000000
0.000000 0.000000 0.382900
0.338050 0.000000 0.338050
0.693200 0.000000 0.293200
1.000000 0.000000 0.248350
1.000000 0.000000 0.203500
0.000000 0.294850 0.294850
0.250000 0.250000 0.250000
0.605150 0.205150 0.205150
0.960300 0.160300 0.160300
1.000000 0.115450 0.115450
0.000000 0.606800 0.206800
0.161950 0.561950 0.161950
0.517100 0.517100 0.117100
0.872250 0.472250 0.072250
1.000000 0.427400 0.027400
0.000000 0.918750 0.118750
0.073900 0.873900 0.073900
0.429050 0.829050 0.029050
0.784200 0.784200 0.000000
1.000000 0.739350 0.000000
0.000000 1.000000 0.030700
0.000000 1.000000 0.000000
0.341000 1.000000 0.000000
0.696150 1.000000 0.000000
1.000000 1.000000 0.000000
0.000000 0.000000 0.765800
0.320950 0.000000 0.720950
0.676100 0.000000 0.676100
1.000000 0.000000 0.631250
1.000000 0.000000 0.586400
0.000000 0.277750 0.677750
0.232900 0.232900 0.632900
0.588050 0.188050 0.588050
0.943200 0.143200 0.543200
1.000000 0.098350 0.498350
0.000000 0.589700 0.589700
0.144850 0.544850 0.544850
0.500000 0.500000 0.500000
0.855150 0.455150 0.455150
1.000000 0.410300 0.410300
0.000000 0.901650 0.501650
0.056800 0.856800 0.456800
0.411950 0.811950 0.411950
0.767100 0.767100 0.367100
1.000000 0.722250 0.322250
0.000000 1.000000 0.413600
0.000000 1.000000 0.368750
0.323900 1.000000 0.323900
0.679050 1.000000 0.279050
1.000000 1.000000 0.234200
0.000000 0.000000 1.000000
0.303850 0.000000 1.000000
0.659000 0.000000 1.000000
1.000000 0.000000 1.000000
1.000000 0.000000 0.969300
0.000000 0.260650 1.000000
0.215800 0.215800 1.000000
0.570950 0.170950 0.970950
0.926100 0.126100 0.926100
1.000000 0.081250 0.881250
0.000000 0.572600 0.972600
0.127750 0.527750 0.927750
0.482900 0.482900 0.882900
0.838050 0.438050 0.838050
1.000000 0.393200 0.793200
0.000000 0.884550 0.884550
0.039700 0.839700 0.839700
0.394850 0.794850 0.794850
0.750000 0.750000 0.750000
1.000000 0.705150 0.705150
0.000000 1.000000 0.796500
0.000000 1.000000 0.751650
0.306800 1.000000 0.706800
0.661950 1.000000 0.661950
1.000000 1.000000 0.617100
0.000000 0.000000 1.000000
0.286750 0.000000 1.000000
0.641900 0.000000 1.000000
0.997050 0.000000 1.000000
1.000000 0.000000 1.000000
0.000000 0.243550 1.000000
0.198700 0.198700 1.000000
0.553850 0.153850 1.000000
0.909000 0.109000 1.000000
1.000000 0.064150 1.000000
0.000000 0.555500 1.000000
0.110650 0.510650 1.000000
0.465800 0.465800 1.000000
0.820950 0.420950 1.000000
1.000000 0.376100 1.000000
0.000000 0.867450 1.000000
0.022600 0.822600 1.000000
0.377750 0.777750 1.000000
0.732900 0.732900 1.000000
1.000000 0.688050 1.000000
0.000000 1.000000 1.000000
0.000000 1.000000 1.000000
0.289700 1.000000 1.000000
0.644850 1.000000 1.000000
1.000000 1.000000 1.000000
