app/src/main/assets/luts/vivid.cube
TITLE "Vivid"
LUT_3D_SIZE 9
0.000000 0.000000 0.000000
0.177575 0.000000 0.000000
0.355150 0.000000 0.000000
0.532725 0.000000 0.000000
0.710300 0.000000 0.000000
0.887875 0.000000 0.000000
1.000000 0.000000 0.000000
1.000000 0.000000 0.000000
1.000000 0.000000 0.000000
0.000000 0.155975 0.000000
0.133550 0.133550 0.000000
0.311125 0.111125 0.000000
0.488700 0.088700 0.000000
0.666275 0.066275 0.000000
0.843850 0.043850 0.000000
1.000000 0.021425 0.000000
1.000000 0.000000 0.000000
1.000000 0.000000 0.000000
0.000000 0.311950 0.000000
0.089525 0.289525 0.000000
0.267100 0.267100 0.000000
0.444675 0.244675 0.000000
0.622250 0.222250 0.000000
0.799825 0.199825 0.000000
0.977400 0.177400 0.000000
1.000000 0.154975 0.000000
1.000000 0.132550 0.000000
0.000000 0.467925 0.000000
0.045500 0.445500 0.000000
0.223075 0.423075 0.000000
0.400650 0.400650 0.000000
0.578225 0.378225 0.000000
0.755800 0.355800 0.000000
0.933375 0.333375 0.000000
1.000000 0.310950 0.000000
1.000000 0.288525 0.000000
0.000000 0.623900 0.000000
0.001475 0.601475 0.000000
0.179050 0.579050 0.000000
0.356625 0.556625 0.000000
0.534200 0.534200 0.000000
0.711775 0.511775 0.000000
0.889350 0.489350 0.000000
1.000000 0.466925 0.000000
1.000000 0.444500 0.000000
0.000000 0.779875 0.000000
0.000000 0.757450 0.000000
0.135025 0.735025 0.000000
0.312600 0.712600 0.000000
0.490175 0.690175 0.000000
0.667750 0.667750 0.000000
0.845325 0.645325 0.000000
1.000000 0.622900 0.000000
1.000000 0.600475 0.000000
0.000000 0.935850 0.000000
0.000000 0.913425 0.000000
0.091000 0.891000 0.000000
0.268575 0.868575 0.000000
0.446150 0.846150 0.000000
0.623725 0.823725 0.000000
0.801300 0.801300 0.000000
0.978875 0.778875 0.000000
1.000000 0.756450 0.000000
0.000000 1.000000 0.000000
0.000000 1.000000 0.000000
0.046975 1.000000 0.000000
0.224550 1.000000 0.000000
0.402125 1.000000 0.000000
0.579700 0.979700 0.000000
0.757275 0.957275 0.000000
0.934850 0.934850 0.000000
1.000000 0.912425 0.000000
0.000000 1.000000 0.000000
0.000000 1.000000 0.000000
0.002950 1.000000 0.000000
0.180525 1.000000 0.000000
0.358100 1.000000 0.000000
0.535675 1.000000 0.000000
0.713250 1.000000 0.000000
0.890825 1.000000 0.000000
1.000000 1.000000 0.000000
0.000000 0.000000 0.191450
0.169025 0.000000 0.169025
0.346600 0.000000 0.146600
0.524175 0.000000 0.124175
0.701750 0.000000 0.101750
0.879325 0.000000 0.079325
1.000000 0.000000 0.056900
1.000000 0.000000 0.034475
1.000000 0.000000 0.012050
0.000000 0.147425 0.147425
0.125000 0.125000 0.125000
0.302575 0.102575 0.102575
0.480150 0.080150 0.080150
0.657725 0.057725 0.057725
0.835300 0.035300 0.035300
1.000000 0.012875 0.012875
1.000000 0.000000 0.000000
1.000000 0.000000 0.000000
0.000000 0.303400 0.103400
0.080975 0.280975 0.080975
0.258550 0.258550 0.058550
0.436125 0.236125 0.036125
0.613700 0.213700 0.013700
0.791275 0.191275 0.000000
0.968850 0.168850 0.000000
1.000000 0.146425 0.000000
1.000000 0.124000 0.000000
0.000000 0.459375 0.059375
0.036950 0.436950 0.036950
0.214525 0.414525 0.014525
0.392100 0.392100 0.000000
0.569675 0.369675 0.000000
0.747250 0.347250 0.000000
0.924825 0.324825 0.000000
1.000000 0.302400 0.000000
1.000000 0.279975 0.000000
0.000000 0.615350 0.015350
0.000000 0.592925 0.000000
0.170500 0.570500 0.000000
0.348075 0.548075 0.000000
0.525650 0.525650 0.000000
0.703225 0.503225 0.000000
0.880800 0.480800 0.000000
1.000000 0.458375 0.000000
1.000000 0.435950 0.000000
0.000000 0.771325 0.000000
0.000000 0.748900 0.000000
0.126475 0.726475 0.000000
0.304050 0.704050 0.000000
0.481625 0.681625 0.000000
0.659200 0.659200 0.000000
0.836775 0.636775 0.000000
1.000000 0.614350 0.000000
1.000000 0.591925 0.000000
0.000000 0.927300 0.000000
0.000000 0.904875 0.000000
0.082450 0.882450 0.000000
0.260025 0.860025 0.000000
0.437600 0.837600 0.000000
0.615175 0.815175 0.000000
0.792750 0.792750 0.000000
0.970325 0.770325 0.000000
1.000000 0.747900 0.000000
0.000000 1.000000 0.000000
0.000000 1.000000 0.000000
0.038425 1.000000 0.000000
0.216000 1.000000 0.000000
0.393575 0.993575 0.000000
0.571150 0.971150 0.000000
0.748725 0.948725 0.000000
0.926300 0.926300 0.000000
1.000000 0.903875 0.000000
0.000000 1.000000 0.000000
0.000000 1.000000 0.000000
0.000000 1.000000 0.000000
0.171975 1.000000 0.000000
0.349550 1.000000 0.000000
0.527125 1.000000 0.000000
0.704700 1.000000 0.000000
0.882275 1.000000 0.000000
1.000000 1.000000 0.000000
0.000000 0.000000 0.382900
0.160475 0.000000 0.360475
0.338050 0.000000 0.338050
0.515625 0.000000 0.315625
0.693200 0.000000 0.293200
0.870775 0.000000 0.270775
1.000000 0.000000 0.248350
1.000000 0.000000 0.225925
1.000000 0.000000 0.203500
0.000000 0.138875 0.338875
0.116450 0.116450 0.316450
0.294025 0.094025 0.294025
0.471600 0.071600 0.271600
0.649175 0.049175 0.249175
0.826750 0.026750 0.226750
1.000000 0.004325 0.204325
1.000000 0.000000 0.181900
1.000000 0.000000 0.159475
0.000000 0.294850 0.294850
0.072425 0.272425 0.272425
0.250000 0.250000 0.250000
0.427575 0.227575 0.227575
0.605150 0.205150 0.205150
0.782725 0.182725 0.182725
0.960300 0.160300 0.160300
1.000000 0.137875 0.137875
1.000000 0.115450 0.115450
0.000000 0.450825 0.250825
0.028400 0.428400 0.228400
0.205975 0.405975 0.205975
0.383550 0.383550 0.183550
0.561125 0.361125 0.161125
0.738700 0.338700 0.138700
0.916275 0.316275 0.116275
1.000000 0.293850 0.093850
1.000000 0.271425 0.071425
0.000000 0.606800 0.206800
0.000000 0.584375 0.184375
0.161950 0.561950 0.161950
0.339525 0.539525 0.139525
0.517100 0.517100 0.117100
0.694675 0.494675 0.094675
0.872250 0.472250 0.072250
1.000000 0.449825 0.049825
1.000000 0.427400 0.027400
0.000000 0.762775 0.162775
0.000000 0.740350 0.140350
0.117925 0.717925 0.117925
0.295500 0.695500 0.095500
0.473075 0.673075 0.073075
0.650650 0.650650 0.050650
0.828225 0.628225 0.028225
1.000000 0.605800 0.005800
1.000000 0.583375 0.000000
0.000000 0.918750 0.118750
0.000000 0.896325 0.096325
0.073900 0.873900 0.073900
0.251475 0.851475 0.051475
0.429050 0.829050 0.029050
0.606625 0.806625 0.006625
0.784200 0.784200 0.000000
0.961775 0.761775 0.000000
1.000000 0.739350 0.000000
0.000000 1.000000 0.074725
0.000000 1.000000 0.052300
0.029875 1.000000 0.029875
0.207450 1.000000 0.007450
0.385025 0.985025 0.000000
0.562600 0.962600 0.000000
0.740175 0.940175 0.000000
0.917750 0.917750 0.000000
1.000000 0.895325 0.000000
0.000000 1.000000 0.030700
0.000000 1.000000 0.008275
0.000000 1.000000 0.000000
0.163425 1.000000 0.000000
0.341000 1.000000 0.000000
0.518575 1.000000 0.000000
0.696150 1.000000 0.000000
0.873725 1.000000 0.000000
1.000000 1.000000 0.000000
0.000000 0.000000 0.574350
0.151925 0.000000 0.551925
0.329500 0.000000 0.529500
0.507075 0.000000 0.507075
0.684650 0.000000 0.484650
0.862225 0.000000 0.462225
1.000000 0.000000 0.439800
1.000000 0.000000 0.417375
1.000000 0.000000 0.394950
0.000000 0.130325 0.530325
0.107900 0.107900 0.507900
0.285475 0.085475 0.485475
0.463050 0.063050 0.463050
0.640625 0.040625 0.440625
0.818200 0.018200 0.418200
0.995775 0.000000 0.395775
1.000000 0.000000 0.373350
1.000000 0.000000 0.350925
0.000000 0.286300 0.486300
0.063875 0.263875 0.463875
0.241450 0.241450 0.441450
0.419025 0.219025 0.419025
0.596600 0.196600 0.396600
0.774175 0.174175 0.374175
0.951750 0.151750 0.351750
1.000000 0.129325 0.329325
1.000000 0.106900 0.306900
0.000000 0.442275 0.442275
0.019850 0.419850 0.419850
0.197425 0.397425 0.397425
0.375000 0.375000 0.375000
0.552575 0.352575 0.352575
0.730150 0.330150 0.330150
0.907725 0.307725 0.307725
1.000000 0.285300 0.285300
1.000000 0.262875 0.262875
0.000000 0.598250 0.398250
0.000000 0.575825 0.375825
0.153400 0.553400 0.353400
0.330975 0.530975 0.330975
0.508550 0.508550 0.308550
0.686125 0.486125 0.286125
0.863700 0.463700 0.263700
1.000000 0.441275 0.241275
1.000000 0.418850 0.218850
0.000000 0.754225 0.354225
0.000000 0.731800 0.331800
0.109375 0.709375 0.309375
0.286950 0.686950 0.286950
0.464525 0.664525 0.264525
0.642100 0.642100 0.242100
0.819675 0.619675 0.219675
0.997250 0.597250 0.197250
1.000000 0.574825 0.174825
0.000000 0.910200 0.310200
0.000000 0.887775 0.287775
0.065350 0.865350 0.265350
0.242925 0.842925 0.242925
0.420500 0.820500 0.220500
0.598075 0.798075 0.198075
0.775650 0.775650 0.175650
0.953225 0.753225 0.153225
1.000000 0.730800 0.130800
0.000000 1.000000 0.266175
0.000000 1.000000 0.243750
0.021325 1.000000 0.221325
0.198900 0.998900 0.198900
0.376475 0.976475 0.176475
0.554050 0.954050 0.154050
0.731625 0.931625 0.131625
0.909200 0.909200 0.109200
1.000000 0.886775 0.086775
0.000000 1.000000 0.222150
0.000000 1.000000 0.199725
0.000000 1.000000 0.177300
0.154875 1.000000 0.154875
0.332450 1.000000 0.132450
0.510025 1.000000 0.110025
0.687600 1.000000 0.087600
0.865175 1.000000 0.065175
1.000000 1.000000 0.042750
0.000000 0.000000 0.765800
0.143375 0.000000 0.743375
0.320950 0.000000 0.720950
0.498525 0.000000 0.698525
0.676100 0.000000 0.676100
0.853675 0.000000 0.653675
1.000000 0.000000 0.631250
1.000000 0.000000 0.608825
1.000000 0.000000 0.586400
0.000000 0.121775 0.721775
0.099350 0.099350 0.699350
0.276925 0.076925 0.676925
0.454500 0.054500 0.654500
0.632075 0.032075 0.632075
0.809650 0.009650 0.609650
0.987225 0.000000 0.587225
1.000000 0.000000 0.564800
1.000000 0.000000 0.542375
0.000000 0.277750 0.677750
0.055325 0.255325 0.655325
0.232900 0.232900 0.632900
0.410475 0.210475 0.610475
0.588050 0.188050 0.588050
0.765625 0.165625 0.565625
0.943200 0.143200 0.543200
1.000000 0.120775 0.520775
1.000000 0.098350 0.498350
0.000000 0.433725 0.633725
0.011300 0.411300 0.611300
0.188875 0.388875 0.588875
0.366450 0.366450 0.566450
0.544025 0.344025 0.544025
0.721600 0.321600 0.521600
0.899175 0.299175 0.499175
1.000000 0.276750 0.476750
1.000000 0.254325 0.454325
0.000000 0.589700 0.589700
0.000000 0.567275 0.567275
0.144850 0.544850 0.544850
0.322425 0.522425 0.522425
0.500000 0.500000 0.500000
0.677575 0.477575 0.477575
0.855150 0.455150 0.455150
1.000000 0.432725 0.432725
1.000000 0.410300 0.410300
0.000000 0.745675 0.545675
0.000000 0.723250 0.523250
0.100825 0.700825 0.500825
0.278400 0.678400 0.478400
0.455975 0.655975 0.455975
0.633550 0.633550 0.433550
0.811125 0.611125 0.411125
0.988700 0.588700 0.388700
1.000000 0.566275 0.366275
0.000000 0.901650 0.501650
0.000000 0.879225 0.479225
0.056800 0.856800 0.456800
0.234375 0.834375 0.434375
0.411950 0.811950 0.411950
0.589525 0.789525 0.389525
0.767100 0.767100 0.367100
0.944675 0.744675 0.344675
1.000000 0.722250 0.322250
0.000000 1.000000 0.457625
0.000000 1.000000 0.435200
0.012775 1.000000 0.412775
0.190350 0.990350 0.390350
0.367925 0.967925 0.367925
0.545500 0.945500 0.345500
0.723075 0.923075 0.323075
0.900650 0.900650 0.300650
1.000000 0.878225 0.278225
0.000000 1.000000 0.413600
0.000000 1.000000 0.391175
0.000000 1.000000 0.368750
0.146325 1.000000 0.346325
0.323900 1.000000 0.323900
0.501475 1.000000 0.301475
0.679050 1.000000 0.279050
0.856625 1.000000 0.256625
1.000000 1.000000 0.234200
0.000000 0.000000 0.957250
0.134825 0.000000 0.934825
0.312400 0.000000 0.912400
0.489975 0.000000 0.889975
0.667550 0.000000 0.867550
0.845125 0.000000 0.845125
1.000000 0.000000 0.822700
1.000000 0.000000 0.800275
1.000000 0.000000 0.777850
0.000000 0.113225 0.913225
0.090800 0.090800 0.890800
0.268375 0.068375 0.868375
0.445950 0.045950 0.845950
0.623525 0.023525 0.823525
0.801100 0.001100 0.801100
0.978675 0.000000 0.778675
1.000000 0.000000 0.756250
1.000000 0.000000 0.733825
0.000000 0.269200 0.869200
0.046775 0.246775 0.846775
0.224350 0.224350 0.824350
0.401925 0.201925 0.801925
0.579500 0.179500 0.779500
0.757075 0.157075 0.757075
0.934650 0.134650 0.734650
1.000000 0.112225 0.712225
1.000000 0.089800 0.689800
0.000000 0.425175 0.825175
0.002750 0.402750 0.802750
0.180325 0.380325 0.780325
0.357900 0.357900 0.757900
0.535475 0.335475 0.735475
0.713050 0.313050 0.713050
0.890625 0.290625 0.690625
1.000000 0.268200 0.668200
1.000000 0.245775 0.645775
0.000000 0.581150 0.781150
0.000000 0.558725 0.758725
0.136300 0.536300 0.736300
0.313875 0.513875 0.713875
0.491450 0.491450 0.691450
0.669025 0.469025 0.669025
0.846600 0.446600 0.646600
1.000000 0.424175 0.624175
1.000000 0.401750 0.601750
0.000000 0.737125 0.737125
0.000000 0.714700 0.714700
0.092275 0.692275 0.692275
0.269850 0.669850 0.669850
0.447425 0.647425 0.647425
0.625000 0.625000 0.625000
0.802575 0.602575 0.602575
0.980150 0.580150 0.580150
1.000000 0.557725 0.557725
0.000000 0.893100 0.693100
0.000000 0.870675 0.670675
0.048250 0.848250 0.648250
0.225825 0.825825 0.625825
0.403400 0.803400 0.603400
0.580975 0.780975 0.580975
0.758550 0.758550 0.558550
0.936125 0.736125 0.536125
1.000000 0.713700 0.513700
0.000000 1.000000 0.649075
0.000000 1.000000 0.626650
0.004225 1.000000 0.604225
0.181800 0.981800 0.581800
0.359375 0.959375 0.559375
0.536950 0.936950 0.536950
0.714525 0.914525 0.514525
0.892100 0.892100 0.492100
1.000000 0.869675 0.469675
0.000000 1.000000 0.605050
0.000000 1.000000 0.582625
0.000000 1.000000 0.560200
0.137775 1.000000 0.537775
0.315350 1.000000 0.515350
0.492925 1.000000 0.492925
0.670500 1.000000 0.470500
0.848075 1.000000 0.448075
1.000000 1.000000 0.425650
0.000000 0.000000 1.000000
0.126275 0.000000 1.000000
0.303850 0.000000 1.000000
0.481425 0.000000 1.000000
0.659000 0.000000 1.000000
0.836575 0.000000 1.000000
1.000000 0.000000 1.000000
1.000000 0.000000 0.991725
1.000000 0.000000 0.969300
0.000000 0.104675 1.000000
0.082250 0.082250 1.000000
0.259825 0.059825 1.000000
0.437400 0.037400 1.000000
0.614975 0.014975 1.000000
0.792550 0.000000 0.992550
0.970125 0.000000 0.970125
1.000000 0.000000 0.947700
1.000000 0.000000 0.925275
0.000000 0.260650 1.000000
0.038225 0.238225 1.000000
0.215800 0.215800 1.000000
0.393375 0.193375 0.993375
0.570950 0.170950 0.970950
0.748525 0.148525 0.948525
0.926100 0.126100 0.926100
1.000000 0.103675 0.903675
1.000000 0.081250 0.881250
0.000000 0.416625 1.000000
0.000000 0.394200 0.994200
0.171775 0.371775 0.971775
0.349350 0.349350 0.949350
0.526925 0.326925 0.926925
0.704500 0.304500 0.904500
0.882075 0.282075 0.882075
1.000000 0.259650 0.859650
1.000000 0.237225 0.837225
0.000000 0.572600 0.972600
0.000000 0.550175 0.950175
0.127750 0.527750 0.927750
0.305325 0.505325 0.905325
0.482900 0.482900 0.882900
0.660475 0.460475 0.860475
0.838050 0.438050 0.838050
1.000000 0.415625 0.815625
1.000000 0.393200 0.793200
0.000000 0.728575 0.928575
0.000000 0.706150 0.906150
0.083725 0.683725 0.883725
0.261300 0.661300 0.861300
0.438875 0.638875 0.838875
0.616450 0.616450 0.816450
0.794025 0.594025 0.794025
0.971600 0.571600 0.771600
1.000000 0.549175 0.749175
0.000000 0.884550 0.884550
0.000000 0.862125 0.862125
0.039700 0.839700 0.839700
0.217275 0.817275 0.817275
0.394850 0.794850 0.794850
0.572425 0.772425 0.772425
0.750000 0.750000 0.750000
0.927575 0.727575 0.727575
1.000000 0.705150 0.705150
0.000000 1.000000 0.840525
0.000000 1.000000 0.818100
0.000000 0.995675 0.795675
0.173250 0.973250 0.773250
0.350825 0.950825 0.750825
0.528400 0.928400 0.728400
0.705975 0.905975 0.705975
0.883550 0.883550 0.683550
1.000000 0.861125 0.661125
0.000000 1.000000 0.796500
0.000000 1.000000 0.774075
0.000000 1.000000 0.751650
0.129225 1.000000 0.729225
0.306800 1.000000 0.706800
0.484375 1.000000 0.684375
0.661950 1.000000 0.661950
0.839525 1.000000 0.639525
1.000000 1.000000 0.617100
0.000000 0.000000 1.000000
0.117725 0.000000 1.000000
0.295300 0.000000 1.000000
0.472875 0.000000 1.000000
0.650450 0.000000 1.000000
0.828025 0.000000 1.000000
1.000000 0.000000 1.000000
1.000000 0.000000 1.000000
1.000000 0.000000 1.000000
0.000000 0.096125 1.000000
0.073700 0.073700 1.000000
0.251275 0.051275 1.000000
0.428850 0.028850 1.000000
0.606425 0.006425 1.000000
0.784000 0.000000 1.000000
0.961575 0.000000 1.000000
1.000000 0.000000 1.000000
1.000000 0.000000 1.000000
0.000000 0.252100 1.000000
0.029675 0.229675 1.000000
0.207250 0.207250 1.000000
0.384825 0.184825 1.000000
0.562400 0.162400 1.000000
0.739975 0.139975 1.000000
0.917550 0.117550 1.000000
1.000000 0.095125 1.000000
1.000000 0.072700 1.000000
0.000000 0.408075 1.000000
0.000000 0.385650 1.000000
0.163225 0.363225 1.000000
0.340800 0.340800 1.000000
0.518375 0.318375 1.000000
0.695950 0.295950 1.000000
0.873525 0.273525 1.000000
1.000000 0.251100 1.000000
1.000000 0.228675 1.000000
0.000000 0.564050 1.000000
0.000000 0.541625 1.000000
0.119200 0.519200 1.000000
0.296775 0.496775 1.000000
0.474350 0.474350 1.000000
0.651925 0.451925 1.000000
0.829500 0.429500 1.000000
1.000000 0.407075 1.000000
1.000000 0.384650 0.984650
0.000000 0.720025 1.000000
0.000000 0.697600 1.000000
0.075175 0.675175 1.000000
0.252750 0.652750 1.000000
0.430325 0.630325 1.000000
0.607900 0.607900 1.000000
0.785475 0.585475 0.985475
0.963050 0.563050 0.963050
1.000000 0.540625 0.940625
0.000000 0.876000 1.000000
0.000000 0.853575 1.000000
0.031150 0.831150 1.000000
0.208725 0.808725 1.000000
0.386300 0.786300 0.986300
0.563875 0.763875 0.963875
0.741450 0.741450 0.941450
0.919025 0.719025 0.919025
1.000000 0.696600 0.896600
0.000000 1.000000 1.000000
0.000000 1.000000 1.000000
0.000000 0.987125 0.987125
0.164700 0.964700 0.964700
0.342275 0.942275 0.942275
0.519850 0.919850 0.919850
0.697425 0.897425 0.897425
0.875000 0.875000 0.875000
1.000000 0.852575 0.852575
0.000000 1.000000 0.987950
0.000000 1.000000 0.965525
0.000000 1.000000 0.943100
0.120675 1.000000 0.920675
0.298250 1.000000 0.898250
0.475825 1.000000 0.875825
0.653400 1.000000 0.853400
0.830975 1.000000 0.830975
1.000000 1.000000 0.808550
0.000000 0.000000 1.000000
0.109175 0.000000 1.000000
0.286750 0.000000 1.000000
0.464325 0.000000 1.000000
0.641900 0.000000 1.000000
0.819475 0.000000 1.000000
0.997050 0.000000 1.000000
1.000000 0.000000 1.000000
1.000000 0.000000 1.000000
0.000000 0.087575 1.000000
0.065150 0.065150 1.000000
0.242725 0.042725 1.000000
0.420300 0.020300 1.000000
0.597875 0.000000 1.000000
0.775450 0.000000 1.000000
0.953025 0.000000 1.000000
1.000000 0.000000 1.000000
1.000000 0.000000 1.000000
0.000000 0.243550 1.000000
0.021125 0.221125 1.000000
0.198700 0.198700 1.000000
0.376275 0.176275 1.000000
0.553850 0.153850 1.000000
0.731425 0.131425 1.000000
0.909000 0.109000 1.000000
1.000000 0.086575 1.000000
1.000000 0.064150 1.000000
0.000000 0.399525 1.000000
0.000000 0.377100 1.000000
0.154675 0.354675 1.000000
0.332250 0.332250 1.000000
0.509825 0.309825 1.000000
0.687400 0.287400 1.000000
0.864975 0.264975 1.000000
1.000000 0.242550 1.000000
1.000000 0.220125 1.000000
0.000000 0.555500 1.000000
0.000000 0.533075 1.000000
0.110650 0.510650 1.000000
0.288225 0.488225 1.000000
0.465800 0.465800 1.000000
0.643375 0.443375 1.000000
0.820950 0.420950 1.000000
0.998525 0.398525 1.000000
1.000000 0.376100 1.000000
0.000000 0.711475 1.000000
0.000000 0.689050 1.000000
0.066625 0.666625 1.000000
0.244200 0.644200 1.000000
0.421775 0.621775 1.000000
0.599350 0.599350 1.000000
0.776925 0.576925 1.000000
0.954500 0.554500 1.000000
1.000000 0.532075 1.000000
0.000000 0.867450 1.000000
0.000000 0.845025 1.000000
0.022600 0.822600 1.000000
0.200175 0.800175 1.000000
0.377750 0.777750 1.000000
0.555325 0.755325 1.000000
0.732900 0.732900 1.000000
0.910475 0.710475 1.000000
1.000000 0.688050 1.000000
0.000000 1.000000 1.000000
0.000000 1.000000 1.000000
0.000000 0.978575 1.000000
0.156150 0.956150 1.000000
0.333725 0.933725 1.000000
0.511300 0.911300 1.000000
0.688875 0.888875 1.000000
0.866450 0.866450 1.000000
1.000000 0.844025 1.000000
0.000000 1.000000 1.000000
0.000000 1.000000 1.000000
0.000000 1.000000 1.000000
0.112125 1.000000 1.000000
0.289700 1.000000 1.000000
0.467275 1.000000 1.000000
0.644850 1.000000 1.000000
0.822425 1.000000 1.000000
1.000000 1.000000 1.000000
