app/src/main/assets/luts/vivid.cube
TITLE "Vivid"
LUT_3D_SIZE 17
0.000000 0.000000 0.000000
0.088788 0.000000 0.000000
0.177575 0.000000 0.000000
0.266363 0.000000 0.000000
0.355150 0.000000 0.000000
0.443938 0.000000 0.000000
0.532725 0.000000 0.000000
0.621513 0.000000 0.000000
0.710300 0.000000 0.000000
0.799087 0.000000 0.000000
0.887875 0.000000 0.000000
0.976663 0.000000 0.000000
1.000000 0.000000 0.000000
1.000000 0.000000 0.000000
1.000000 0.000000 0.000000
1.000000 0.000000 0.000000
1.000000 0.000000 0.000000
0.000000 0.077988 0.000000
0.066775 0.066775 0.000000
0.155562 0.055563 0.000000
0.244350 0.044350 0.000000
0.333137 0.033138 0.000000
0.421925 0.021925 0.000000
0.510713 0.010712 0.000000
0.599500 0.000000 0.000000
0.688287 0.000000 0.000000
0.777075 0.000000 0.000000
0.865863 0.000000 0.000000
0.954650 0.000000 0.000000
1.000000 0.000000 0.000000
1.000000 0.000000 0.000000
1.000000 0.000000 0.000000
1.000000 0.000000 0.000000
1.000000 0.000000 0.000000
0.000000 0.155975 0.000000
0.044763 0.144763 0.000000
0.133550 0.133550 0.000000
0.222338 0.122338 0.000000
0.311125 0.111125 0.000000
0.399913 0.099913 0.000000
0.488700 0.088700 0.000000
0.577488 0.077487 0.000000
0.666275 0.066275 0.000000
0.755062 0.055062 0.000000
0.843850 0.043850 0.000000
0.932638 0.032638 0.000000
1.000000 0.021425 0.000000
1.000000 0.010212 0.000000
1.000000 0.000000 0.000000
1.000000 0.000000 0.000000
1.000000 0.000000 0.000000
0.000000 0.233963 0.000000
0.022750 0.222750 0.000000
0.111537 0.211537 0.000000
0.200325 0.200325 0.000000
0.289112 0.189113 0.000000
0.377900 0.177900 0.000000
0.466688 0.166688 0.000000
0.555475 0.155475 0.000000
0.644262 0.144263 0.000000
0.733050 0.133050 0.000000
0.821837 0.121838 0.000000
0.910625 0.110625 0.000000
0.999413 0.099412 0.000000
1.000000 0.088200 0.000000
1.000000 0.076987 0.000000
1.000000 0.065775 0.000000
1.000000 0.054562 0.000000
0.000000 0.311950 0.000000
0.000738 0.300737 0.000000
0.089525 0.289525 0.000000
0.178312 0.278313 0.000000
0.267100 0.267100 0.000000
0.355888 0.255887 0.000000
0.444675 0.244675 0.000000
0.533462 0.233463 0.000000
0.622250 0.222250 0.000000
0.711037 0.211037 0.000000
0.799825 0.199825 0.000000
0.888613 0.188613 0.000000
0.977400 0.177400 0.000000
1.000000 0.166188 0.000000
1.000000 0.154975 0.000000
1.000000 0.143763 0.000000
1.000000 0.132550 0.000000
0.000000 0.389938 0.000000
0.000000 0.378725 0.000000
0.067513 0.367513 0.000000
0.156300 0.356300 0.000000
0.245088 0.345088 0.000000
0.333875 0.333875 0.000000
0.422663 0.322663 0.000000
0.511450 0.311450 0.000000
0.600237 0.300237 0.000000
0.689025 0.289025 0.000000
0.777813 0.277813 0.000000
0.866600 0.266600 0.000000
0.955388 0.255387 0.000000
1.000000 0.244175 0.000000
1.000000 0.232963 0.000000
1.000000 0.221750 0.000000
1.000000 0.210537 0.000000
0.000000 0.467925 0.000000
0.000000 0.456713 0.000000
0.045500 0.445500 0.000000
0.134288 0.434288 0.000000
0.223075 0.423075 0.000000
0.311863 0.411863 0.000000
0.400650 0.400650 0.000000
0.489437 0.389437 0.000000
0.578225 0.378225 0.000000
0.667013 0.367013 0.000000
0.755800 0.355800 0.000000
0.844588 0.344587 0.000000
0.933375 0.333375 0.000000
1.000000 0.322163 0.000000
1.000000 0.310950 0.000000
1.000000 0.299737 0.000000
1.000000 0.288525 0.000000
0.000000 0.545913 0.000000
0.000000 0.534700 0.000000
0.023487 0.523487 0.000000
0.112275 0.512275 0.000000
0.201063 0.501062 0.000000
0.289850 0.489850 0.000000
0.378637 0.478637 0.000000
0.467425 0.467425 0.000000
0.556212 0.456213 0.000000
0.645000 0.445000 0.000000
0.733788 0.433787 0.000000
0.822575 0.422575 0.000000
0.911363 0.411362 0.000000
1.000000 0.400150 0.000000
1.000000 0.388937 0.000000
1.000000 0.377725 0.000000
1.000000 0.366512 0.000000
0.000000 0.623900 0.000000
0.000000 0.612688 0.000000
0.001475 0.601475 0.000000
0.090262 0.590263 0.000000
0.179050 0.579050 0.000000
0.267838 0.567837 0.000000
0.356625 0.556625 0.000000
0.445412 0.545413 0.000000
0.534200 0.534200 0.000000
0.622988 0.522988 0.000000
0.711775 0.511775 0.000000
0.800563 0.500563 0.000000
0.889350 0.489350 0.000000
0.978137 0.478137 0.000000
1.000000 0.466925 0.000000
1.000000 0.455713 0.000000
1.000000 0.444500 0.000000
0.000000 0.701887 0.000000
0.000000 0.690675 0.000000
0.000000 0.679463 0.000000
0.068250 0.668250 0.000000
0.157038 0.657038 0.000000
0.245825 0.645825 0.000000
0.334612 0.634613 0.000000
0.423400 0.623400 0.000000
0.512188 0.612188 0.000000
0.600975 0.600975 0.000000
0.689763 0.589762 0.000000
0.778550 0.578550 0.000000
0.867338 0.567338 0.000000
0.956125 0.556125 0.000000
1.000000 0.544913 0.000000
1.000000 0.533700 0.000000
1.000000 0.522487 0.000000
0.000000 0.779875 0.000000
0.000000 0.768663 0.000000
0.000000 0.757450 0.000000
0.046237 0.746238 0.000000
0.135025 0.735025 0.000000
0.223813 0.723812 0.000000
0.312600 0.712600 0.000000
0.401388 0.701388 0.000000
0.490175 0.690175 0.000000
0.578963 0.678963 0.000000
0.667750 0.667750 0.000000
0.756538 0.656537 0.000000
0.845325 0.645325 0.000000
0.934113 0.634112 0.000000
1.000000 0.622900 0.000000
1.000000 0.611688 0.000000
1.000000 0.600475 0.000000
0.000000 0.857862 0.000000
0.000000 0.846650 0.000000
0.000000 0.835438 0.000000
0.024225 0.824225 0.000000
0.113013 0.813013 0.000000
0.201800 0.801800 0.000000
0.290587 0.790587 0.000000
0.379375 0.779375 0.000000
0.468162 0.768162 0.000000
0.556950 0.756950 0.000000
0.645738 0.745738 0.000000
0.734525 0.734525 0.000000
0.823313 0.723313 0.000000
0.912100 0.712100 0.000000
1.000000 0.700887 0.000000
1.000000 0.689675 0.000000
1.000000 0.678462 0.000000
0.000000 0.935850 0.000000
0.000000 0.924638 0.000000
0.000000 0.913425 0.000000
0.002213 0.902213 0.000000
0.091000 0.891000 0.000000
0.179787 0.879788 0.000000
0.268575 0.868575 0.000000
0.357362 0.857363 0.000000
0.446150 0.846150 0.000000
0.534938 0.834937 0.000000
0.623725 0.823725 0.000000
0.712513 0.812513 0.000000
0.801300 0.801300 0.000000
0.890088 0.790088 0.000000
0.978875 0.778875 0.000000
1.000000 0.767663 0.000000
1.000000 0.756450 0.000000
0.000000 1.000000 0.000000
0.000000 1.000000 0.000000
0.000000 0.991413 0.000000
0.000000 0.980200 0.000000
0.068987 0.968988 0.000000
0.157775 0.957775 0.000000
0.246563 0.946563 0.000000
0.335350 0.935350 0.000000
0.424138 0.924138 0.000000
0.512925 0.912925 0.000000
0.601713 0.901713 0.000000
0.690500 0.890500 0.000000
0.779288 0.879287 0.000000
0.868075 0.868075 0.000000
0.956862 0.856862 0.000000
1.000000 0.845650 0.000000
1.000000 0.834438 0.000000
0.000000 1.000000 0.000000
0.000000 1.000000 0.000000
0.000000 1.000000 0.000000
0.000000 1.000000 0.000000
0.046975 1.000000 0.000000
0.135763 1.000000 0.000000
0.224550 1.000000 0.000000
0.313337 1.000000 0.000000
0.402125 1.000000 0.000000
0.490913 0.990913 0.000000
0.579700 0.979700 0.000000
0.668488 0.968488 0.000000
0.757275 0.957275 0.000000
0.846062 0.946063 0.000000
0.934850 0.934850 0.000000
1.000000 0.923638 0.000000
1.000000 0.912425 0.000000
0.000000 1.000000 0.000000
0.000000 1.000000 0.000000
0.000000 1.000000 0.000000
0.000000 1.000000 0.000000
0.024962 1.000000 0.000000
0.113750 1.000000 0.000000
0.202537 1.000000 0.000000
0.291325 1.000000 0.000000
0.380113 1.000000 0.000000
0.468900 1.000000 0.000000
0.557688 1.000000 0.000000
0.646475 1.000000 0.000000
0.735262 1.000000 0.000000
0.824050 1.000000 0.000000
0.912837 1.000000 0.000000
1.000000 1.000000 0.000000
1.000000 0.990413 0.000000
0.000000 1.000000 0.000000
0.000000 1.000000 0.000000
0.000000 1.000000 0.000000
0.000000 1.000000 0.000000
0.002950 1.000000 0.000000
0.091738 1.000000 0.000000
0.180525 1.000000 0.000000
0.269313 1.000000 0.000000
0.358100 1.000000 0.000000
0.446888 1.000000 0.000000
0.535675 1.000000 0.000000
0.624463 1.000000 0.000000
0.713250 1.000000 0.000000
0.802037 1.000000 0.000000
0.890825 1.000000 0.000000
0.979612 1.000000 0.000000
1.000000 1.000000 0.000000
0.000000 0.000000 0.095725
0.084513 0.000000 0.084513
0.173300 0.000000 0.073300
0.262088 0.000000 0.062087
0.350875 0.000000 0.050875
0.439663 0.000000 0.039662
0.528450 0.000000 0.028450
0.617238 0.000000 0.017238
0.706025 0.000000 0.006025
0.794813 0.000000 0.000000
0.883600 0.000000 0.000000
0.972387 0.000000 0.000000
1.000000 0.000000 0.000000
1.000000 0.000000 0.000000
1.000000 0.000000 0.000000
1.000000 0.000000 0.000000
1.000000 0.000000 0.000000
0.000000 0.073713 0.073713
0.062500 0.062500 0.062500
0.151287 0.051287 0.051287
0.240075 0.040075 0.040075
0.328863 0.028862 0.028862
0.417650 0.017650 0.017650
0.506438 0.006437 0.006437
0.595225 0.000000 0.000000
0.684013 0.000000 0.000000
0.772800 0.000000 0.000000
0.861587 0.000000 0.000000
0.950375 0.000000 0.000000
1.000000 0.000000 0.000000
1.000000 0.000000 0.000000
1.000000 0.000000 0.000000
1.000000 0.000000 0.000000
1.000000 0.000000 0.000000
0.000000 0.151700 0.051700
0.040487 0.140487 0.040487
0.129275 0.129275 0.029275
0.218063 0.118063 0.018063
0.306850 0.106850 0.006850
0.395638 0.095638 0.000000
0.484425 0.084425 0.000000
0.573213 0.073213 0.000000
0.662000 0.062000 0.000000
0.750788 0.050788 0.000000
0.839575 0.039575 0.000000
0.928362 0.028363 0.000000
1.000000 0.017150 0.000000
1.000000 0.005937 0.000000
1.000000 0.000000 0.000000
1.000000 0.000000 0.000000
1.000000 0.000000 0.000000
0.000000 0.229687 0.029687
0.018475 0.218475 0.018475
0.107263 0.207263 0.007263
0.196050 0.196050 0.000000
0.284838 0.184838 0.000000
0.373625 0.173625 0.000000
0.462413 0.162413 0.000000
0.551200 0.151200 0.000000
0.639988 0.139988 0.000000
0.728775 0.128775 0.000000
0.817562 0.117563 0.000000
0.906350 0.106350 0.000000
0.995138 0.095137 0.000000
1.000000 0.083925 0.000000
1.000000 0.072712 0.000000
1.000000 0.061500 0.000000
1.000000 0.050287 0.000000
0.000000 0.307675 0.007675
0.000000 0.296463 0.000000
0.085250 0.285250 0.000000
0.174038 0.274037 0.000000
0.262825 0.262825 0.000000
0.351612 0.251613 0.000000
0.440400 0.240400 0.000000
0.529188 0.229188 0.000000
0.617975 0.217975 0.000000
0.706762 0.206763 0.000000
0.795550 0.195550 0.000000
0.884337 0.184338 0.000000
0.973125 0.173125 0.000000
1.000000 0.161913 0.000000
1.000000 0.150700 0.000000
1.000000 0.139488 0.000000
1.000000 0.128275 0.000000
0.000000 0.385663 0.000000
0.000000 0.374450 0.000000
0.063238 0.363237 0.000000
0.152025 0.352025 0.000000
0.240813 0.340813 0.000000
0.329600 0.329600 0.000000
0.418388 0.318388 0.000000
0.507175 0.307175 0.000000
0.595962 0.295963 0.000000
0.684750 0.284750 0.000000
0.773537 0.273538 0.000000
0.862325 0.262325 0.000000
0.951113 0.251113 0.000000
1.000000 0.239900 0.000000
1.000000 0.228688 0.000000
1.000000 0.217475 0.000000
1.000000 0.206263 0.000000
0.000000 0.463650 0.000000
0.000000 0.452438 0.000000
0.041225 0.441225 0.000000
0.130013 0.430013 0.000000
0.218800 0.418800 0.000000
0.307588 0.407588 0.000000
0.396375 0.396375 0.000000
0.485162 0.385163 0.000000
0.573950 0.373950 0.000000
0.662737 0.362738 0.000000
0.751525 0.351525 0.000000
0.840313 0.340313 0.000000
0.929100 0.329100 0.000000
1.000000 0.317887 0.000000
1.000000 0.306675 0.000000
1.000000 0.295462 0.000000
1.000000 0.284250 0.000000
0.000000 0.541637 0.000000
0.000000 0.530425 0.000000
0.019213 0.519213 0.000000
0.108000 0.508000 0.000000
0.196788 0.496788 0.000000
0.285575 0.485575 0.000000
0.374362 0.474363 0.000000
0.463150 0.463150 0.000000
0.551937 0.451938 0.000000
0.640725 0.440725 0.000000
0.729513 0.429513 0.000000
0.818300 0.418300 0.000000
0.907088 0.407087 0.000000
0.995875 0.395875 0.000000
1.000000 0.384662 0.000000
1.000000 0.373450 0.000000
1.000000 0.362237 0.000000
0.000000 0.619625 0.000000
0.000000 0.608413 0.000000
0.000000 0.597200 0.000000
0.085987 0.585987 0.000000
0.174775 0.574775 0.000000
0.263563 0.563562 0.000000
0.352350 0.552350 0.000000
0.441138 0.541138 0.000000
0.529925 0.529925 0.000000
0.618712 0.518713 0.000000
0.707500 0.507500 0.000000
0.796288 0.496287 0.000000
0.885075 0.485075 0.000000
0.973862 0.473862 0.000000
1.000000 0.462650 0.000000
1.000000 0.451437 0.000000
1.000000 0.440225 0.000000
0.000000 0.697612 0.000000
0.000000 0.686400 0.000000
0.000000 0.675188 0.000000
0.063975 0.663975 0.000000
0.152763 0.652763 0.000000
0.241550 0.641550 0.000000
0.330338 0.630337 0.000000
0.419125 0.619125 0.000000
0.507912 0.607913 0.000000
0.596700 0.596700 0.000000
0.685488 0.585487 0.000000
0.774275 0.574275 0.000000
0.863063 0.563063 0.000000
0.951850 0.551850 0.000000
1.000000 0.540637 0.000000
1.000000 0.529425 0.000000
1.000000 0.518212 0.000000
0.000000 0.775600 0.000000
0.000000 0.764387 0.000000
0.000000 0.753175 0.000000
0.041963 0.741963 0.000000
0.130750 0.730750 0.000000
0.219538 0.719538 0.000000
0.308325 0.708325 0.000000
0.397112 0.697113 0.000000
0.485900 0.685900 0.000000
0.574688 0.674687 0.000000
0.663475 0.663475 0.000000
0.752263 0.652262 0.000000
0.841050 0.641050 0.000000
0.929837 0.629837 0.000000
1.000000 0.618625 0.000000
1.000000 0.607413 0.000000
1.000000 0.596200 0.000000
0.000000 0.853588 0.000000
0.000000 0.842375 0.000000
0.000000 0.831163 0.000000
0.019950 0.819950 0.000000
0.108737 0.808738 0.000000
0.197525 0.797525 0.000000
0.286312 0.786312 0.000000
0.375100 0.775100 0.000000
0.463887 0.763887 0.000000
0.552675 0.752675 0.000000
0.641463 0.741463 0.000000
0.730250 0.730250 0.000000
0.819037 0.719037 0.000000
0.907825 0.707825 0.000000
0.996612 0.696612 0.000000
1.000000 0.685400 0.000000
1.000000 0.674187 0.000000
0.000000 0.931575 0.000000
0.000000 0.920362 0.000000
0.000000 0.909150 0.000000
0.000000 0.897938 0.000000
0.086725 0.886725 0.000000
0.175512 0.875513 0.000000
0.264300 0.864300 0.000000
0.353087 0.853087 0.000000
0.441875 0.841875 0.000000
0.530663 0.830662 0.000000
0.619450 0.819450 0.000000
0.708238 0.808238 0.000000
0.797025 0.797025 0.000000
0.885813 0.785813 0.000000
0.974600 0.774600 0.000000
1.000000 0.763387 0.000000
1.000000 0.752175 0.000000
0.000000 1.000000 0.000000
0.000000 0.998350 0.000000
0.000000 0.987138 0.000000
0.000000 0.975925 0.000000
0.064712 0.964712 0.000000
0.153500 0.953500 0.000000
0.242287 0.942288 0.000000
0.331075 0.931075 0.000000
0.419862 0.919863 0.000000
0.508650 0.908650 0.000000
0.597438 0.897437 0.000000
0.686225 0.886225 0.000000
0.775012 0.875012 0.000000
0.863800 0.863800 0.000000
0.952587 0.852587 0.000000
1.000000 0.841375 0.000000
1.000000 0.830163 0.000000
0.000000 1.000000 0.000000
0.000000 1.000000 0.000000
0.000000 1.000000 0.000000
0.000000 1.000000 0.000000
0.042700 1.000000 0.000000
0.131487 1.000000 0.000000
0.220275 1.000000 0.000000
0.309062 1.000000 0.000000
0.397850 0.997850 0.000000
0.486638 0.986638 0.000000
0.575425 0.975425 0.000000
0.664212 0.964213 0.000000
0.753000 0.953000 0.000000
0.841787 0.941787 0.000000
0.930575 0.930575 0.000000
1.000000 0.919362 0.000000
1.000000 0.908150 0.000000
0.000000 1.000000 0.000000
0.000000 1.000000 0.000000
0.000000 1.000000 0.000000
0.000000 1.000000 0.000000
0.020687 1.000000 0.000000
0.109475 1.000000 0.000000
0.198262 1.000000 0.000000
0.287050 1.000000 0.000000
0.375837 1.000000 0.000000
0.464625 1.000000 0.000000
0.553412 1.000000 0.000000
0.642200 1.000000 0.000000
0.730987 1.000000 0.000000
0.819775 1.000000 0.000000
0.908562 1.000000 0.000000
0.997350 0.997350 0.000000
1.000000 0.986138 0.000000
0.000000 1.000000 0.000000
0.000000 1.000000 0.000000
0.000000 1.000000 0.000000
0.000000 1.000000 0.000000
0.000000 1.000000 0.000000
0.087462 1.000000 0.000000
0.176250 1.000000 0.000000
0.265037 1.000000 0.000000
0.353825 1.000000 0.000000
0.442613 1.000000 0.000000
0.531400 1.000000 0.000000
0.620188 1.000000 0.000000
0.708975 1.000000 0.000000
0.797762 1.000000 0.000000
0.886550 1.000000 0.000000
0.975337 1.000000 0.000000
1.000000 1.000000 0.000000
0.000000 0.000000 0.191450
0.080238 0.000000 0.180237
0.169025 0.000000 0.169025
0.257812 0.000000 0.157813
0.346600 0.000000 0.146600
0.435388 0.000000 0.135387
0.524175 0.000000 0.124175
0.612963 0.000000 0.112962
0.701750 0.000000 0.101750
0.790538 0.000000 0.090537
0.879325 0.000000 0.079325
0.968113 0.000000 0.068112
1.000000 0.000000 0.056900
1.000000 0.000000 0.045687
1.000000 0.000000 0.034475
1.000000 0.000000 0.023263
1.000000 0.000000 0.012050
0.000000 0.069437 0.169438
0.058225 0.058225 0.158225
0.147012 0.047012 0.147012
0.235800 0.035800 0.135800
0.324588 0.024587 0.124587
0.413375 0.013375 0.113375
0.502162 0.002162 0.102162
0.590950 0.000000 0.090950
0.679737 0.000000 0.079737
0.768525 0.000000 0.068525
0.857313 0.000000 0.057312
0.946100 0.000000 0.046100
1.000000 0.000000 0.034888
1.000000 0.000000 0.023675
1.000000 0.000000 0.012462
1.000000 0.000000 0.001250
1.000000 0.000000 0.000000
0.000000 0.147425 0.147425
0.036213 0.136213 0.136213
0.125000 0.125000 0.125000
0.213788 0.113787 0.113787
0.302575 0.102575 0.102575
0.391363 0.091362 0.091362
0.480150 0.080150 0.080150
0.568938 0.068937 0.068937
0.657725 0.057725 0.057725
0.746513 0.046512 0.046512
0.835300 0.035300 0.035300
0.924088 0.024088 0.024088
1.000000 0.012875 0.012875
1.000000 0.001663 0.001663
1.000000 0.000000 0.000000
1.000000 0.000000 0.000000
1.000000 0.000000 0.000000
0.000000 0.225413 0.125413
0.014200 0.214200 0.114200
0.102987 0.202987 0.102987
0.191775 0.191775 0.091775
0.280562 0.180562 0.080562
0.369350 0.169350 0.069350
0.458137 0.158137 0.058137
0.546925 0.146925 0.046925
0.635713 0.135713 0.035713
0.724500 0.124500 0.024500
0.813288 0.113288 0.013288
0.902075 0.102075 0.002075
0.990863 0.090863 0.000000
1.000000 0.079650 0.000000
1.000000 0.068437 0.000000
1.000000 0.057225 0.000000
1.000000 0.046013 0.000000
0.000000 0.303400 0.103400
0.000000 0.292187 0.092187
0.080975 0.280975 0.080975
0.169762 0.269763 0.069762
0.258550 0.258550 0.058550
0.347338 0.247338 0.047338
0.436125 0.236125 0.036125
0.524913 0.224913 0.024913
0.613700 0.213700 0.013700
0.702488 0.202488 0.002487
0.791275 0.191275 0.000000
0.880062 0.180063 0.000000
0.968850 0.168850 0.000000
1.000000 0.157638 0.000000
1.000000 0.146425 0.000000
1.000000 0.135213 0.000000
1.000000 0.124000 0.000000
0.000000 0.381387 0.081388
0.000000 0.370175 0.070175
0.058963 0.358963 0.058963
0.147750 0.347750 0.047750
0.236538 0.336538 0.036538
0.325325 0.325325 0.025325
0.414113 0.314113 0.014113
0.502900 0.302900 0.002900
0.591688 0.291687 0.000000
0.680475 0.280475 0.000000
0.769263 0.269263 0.000000
0.858050 0.258050 0.000000
0.946837 0.246838 0.000000
1.000000 0.235625 0.000000
1.000000 0.224413 0.000000
1.000000 0.213200 0.000000
1.000000 0.201988 0.000000
0.000000 0.459375 0.059375
0.000000 0.448163 0.048162
0.036950 0.436950 0.036950
0.125738 0.425737 0.025738
0.214525 0.414525 0.014525
0.303313 0.403313 0.003312
0.392100 0.392100 0.000000
0.480888 0.380887 0.000000
0.569675 0.369675 0.000000
0.658463 0.358463 0.000000
0.747250 0.347250 0.000000
0.836037 0.336037 0.000000
0.924825 0.324825 0.000000
1.000000 0.313613 0.000000
1.000000 0.302400 0.000000
1.000000 0.291188 0.000000
1.000000 0.279975 0.000000
0.000000 0.537362 0.037362
0.000000 0.526150 0.026150
0.014937 0.514938 0.014937
0.103725 0.503725 0.003725
0.192513 0.492513 0.000000
0.281300 0.481300 0.000000
0.370088 0.470087 0.000000
0.458875 0.458875 0.000000
0.547663 0.447663 0.000000
0.636450 0.436450 0.000000
0.725237 0.425237 0.000000
0.814025 0.414025 0.000000
0.902813 0.402813 0.000000
0.991600 0.391600 0.000000
1.000000 0.380387 0.000000
1.000000 0.369175 0.000000
1.000000 0.357962 0.000000
0.000000 0.615350 0.015350
0.000000 0.604137 0.004137
0.000000 0.592925 0.000000
0.081713 0.581713 0.000000
0.170500 0.570500 0.000000
0.259288 0.559288 0.000000
0.348075 0.548075 0.000000
0.436863 0.536863 0.000000
0.525650 0.525650 0.000000
0.614437 0.514437 0.000000
0.703225 0.503225 0.000000
0.792013 0.492013 0.000000
0.880800 0.480800 0.000000
0.969588 0.469587 0.000000
1.000000 0.458375 0.000000
1.000000 0.447163 0.000000
1.000000 0.435950 0.000000
0.000000 0.693338 0.000000
0.000000 0.682125 0.000000
0.000000 0.670913 0.000000
0.059700 0.659700 0.000000
0.148488 0.648488 0.000000
0.237275 0.637275 0.000000
0.326063 0.626062 0.000000
0.414850 0.614850 0.000000
0.503638 0.603638 0.000000
0.592425 0.592425 0.000000
0.681212 0.581213 0.000000
0.770000 0.570000 0.000000
0.858788 0.558788 0.000000
0.947575 0.547575 0.000000
1.000000 0.536363 0.000000
1.000000 0.525150 0.000000
1.000000 0.513937 0.000000
0.000000 0.771325 0.000000
0.000000 0.760112 0.000000
0.000000 0.748900 0.000000
0.037687 0.737688 0.000000
0.126475 0.726475 0.000000
0.215263 0.715263 0.000000
0.304050 0.704050 0.000000
0.392838 0.692837 0.000000
0.481625 0.681625 0.000000
0.570412 0.670413 0.000000
0.659200 0.659200 0.000000
0.747988 0.647988 0.000000
0.836775 0.636775 0.000000
0.925563 0.625563 0.000000
1.000000 0.614350 0.000000
1.000000 0.603138 0.000000
1.000000 0.591925 0.000000
0.000000 0.849313 0.000000
0.000000 0.838100 0.000000
0.000000 0.826887 0.000000
0.015675 0.815675 0.000000
0.104463 0.804463 0.000000
0.193250 0.793250 0.000000
0.282038 0.782038 0.000000
0.370825 0.770825 0.000000
0.459612 0.759613 0.000000
0.548400 0.748400 0.000000
0.637188 0.737188 0.000000
0.725975 0.725975 0.000000
0.814763 0.714762 0.000000
0.903550 0.703550 0.000000
0.992337 0.692337 0.000000
1.000000 0.681125 0.000000
1.000000 0.669913 0.000000
0.000000 0.927300 0.000000
0.000000 0.916088 0.000000
0.000000 0.904875 0.000000
0.000000 0.893663 0.000000
0.082450 0.882450 0.000000
0.171237 0.871238 0.000000
0.260025 0.860025 0.000000
0.348812 0.848812 0.000000
0.437600 0.837600 0.000000
0.526388 0.826388 0.000000
0.615175 0.815175 0.000000
0.703963 0.803963 0.000000
0.792750 0.792750 0.000000
0.881538 0.781537 0.000000
0.970325 0.770325 0.000000
1.000000 0.759112 0.000000
1.000000 0.747900 0.000000
0.000000 1.000000 0.000000
0.000000 0.994075 0.000000
0.000000 0.982863 0.000000
0.000000 0.971650 0.000000
0.060438 0.960438 0.000000
0.149225 0.949225 0.000000
0.238013 0.938013 0.000000
0.326800 0.926800 0.000000
0.415587 0.915587 0.000000
0.504375 0.904375 0.000000
0.593163 0.893163 0.000000
0.681950 0.881950 0.000000
0.770738 0.870738 0.000000
0.859525 0.859525 0.000000
0.948313 0.848313 0.000000
1.000000 0.837100 0.000000
1.000000 0.825887 0.000000
0.000000 1.000000 0.000000
0.000000 1.000000 0.000000
0.000000 1.000000 0.000000
0.000000 1.000000 0.000000
0.038425 1.000000 0.000000
0.127213 1.000000 0.000000
0.216000 1.000000 0.000000
0.304787 1.000000 0.000000
0.393575 0.993575 0.000000
0.482363 0.982363 0.000000
0.571150 0.971150 0.000000
0.659938 0.959937 0.000000
0.748725 0.948725 0.000000
0.837512 0.937512 0.000000
0.926300 0.926300 0.000000
1.000000 0.915088 0.000000
1.000000 0.903875 0.000000
0.000000 1.000000 0.000000
0.000000 1.000000 0.000000
0.000000 1.000000 0.000000
0.000000 1.000000 0.000000
0.016412 1.000000 0.000000
0.105200 1.000000 0.000000
0.193987 1.000000 0.000000
0.282775 1.000000 0.000000
0.371563 1.000000 0.000000
0.460350 1.000000 0.000000
0.549138 1.000000 0.000000
0.637925 1.000000 0.000000
0.726712 1.000000 0.000000
0.815500 1.000000 0.000000
0.904288 1.000000 0.000000
0.993075 0.993075 0.000000
1.000000 0.981863 0.000000
0.000000 1.000000 0.000000
0.000000 1.000000 0.000000
0.000000 1.000000 0.000000
0.000000 1.000000 0.000000
0.000000 1.000000 0.000000
0.083187 1.000000 0.000000
0.171975 1.000000 0.000000
0.260763 1.000000 0.000000
0.349550 1.000000 0.000000
0.438338 1.000000 0.000000
0.527125 1.000000 0.000000
0.615913 1.000000 0.000000
0.704700 1.000000 0.000000
0.793488 1.000000 0.000000
0.882275 1.000000 0.000000
0.971063 1.000000 0.000000
1.000000 1.000000 0.000000
0.000000 0.000000 0.287175
0.075963 0.000000 0.275962
0.164750 0.000000 0.264750
0.253538 0.000000 0.253538
0.342325 0.000000 0.242325
0.431113 0.000000 0.231112
0.519900 0.000000 0.219900
0.608687 0.000000 0.208687
0.697475 0.000000 0.197475
0.786263 0.000000 0.186262
0.875050 0.000000 0.175050
0.963838 0.000000 0.163838
1.000000 0.000000 0.152625
1.000000 0.000000 0.141412
1.000000 0.000000 0.130200
1.000000 0.000000 0.118988
1.000000 0.000000 0.107775
0.000000 0.065162 0.265162
0.053950 0.053950 0.253950
0.142737 0.042737 0.242737
