app/src/main/assets/luts/warm.cube
TITLE "Warm"
LUT_3D_SIZE 5
0.080000 0.000000 0.000000
0.375000 0.000000 0.000000
0.670000 0.000000 0.000000
0.965000 0.000000 0.000000
1.000000 0.000000 0.000000
0.080000 0.250000 0.000000
0.375000 0.250000 0.000000
0.670000 0.250000 0.000000
0.965000 0.250000 0.000000
1.000000 0.250000 0.000000
0.080000 0.500000 0.000000
0.375000 0.500000 0.000000
0.670000 0.500000 0.000000
0.965000 0.500000 0.000000
1.000000 0.500000 0.000000
0.080000 0.750000 0.000000
0.375000 0.750000 0.000000
0.670000 0.750000 0.000000
0.965000 0.750000 0.000000
1.000000 0.750000 0.000000
0.080000 1.000000 0.000000
0.375000 1.000000 0.000000
0.670000 1.000000 0.000000
0.965000 1.000000 0.000000
1.000000 1.000000 0.000000
0.080000 0.000000 0.180000
0.375000 0.000000 0.180000
0.670000 0.000000 0.180000
0.965000 0.000000 0.180000
1.000000 0.000000 0.180000
0.080000 0.250000 0.180000
0.375000 0.250000 0.180000
0.670000 0.250000 0.180000
0.965000 0.250000 0.180000
1.000000 0.250000 0.180000
0.080000 0.500000 0.180000
0.375000 0.500000 0.180000
0.670000 0.500000 0.180000
0.965000 0.500000 0.180000
1.000000 0.500000 0.180000
0.080000 0.750000 0.180000
0.375000 0.750000 0.180000
0.670000 0.750000 0.180000
0.965000 0.750000 0.180000
1.000000 0.750000 0.180000
0.080000 1.000000 0.180000
0.375000 1.000000 0.180000
0.670000 1.000000 0.180000
0.965000 1.000000 0.180000
1.000000 1.000000 0.180000
0.080000 0.000000 0.360000
0.375000 0.000000 0.360000
0.670000 0.000000 0.360000
0.965000 0.000000 0.360000
1.000000 0.000000 0.360000
0.080000 0.250000 0.360000
0.375000 0.250000 0.360000
0.670000 0.250000 0.360000
0.965000 0.250000 0.360000
1.000000 0.250000 0.360000
0.080000 0.500000 0.360000
0.375000 0.500000 0.360000
0.670000 0.500000 0.360000
0.965000 0.500000 0.360000
1.000000 0.500000 0.360000
0.080000 0.750000 0.360000
0.375000 0.750000 0.360000
0.670000 0.750000 0.360000
0.965000 0.750000 0.360000
1.000000 0.750000 0.360000
0.080000 1.000000 0.360000
0.375000 1.000000 0.360000
0.670000 1.000000 0.360000
0.965000 1.000000 0.360000
1.000000 1.000000 0.360000
0.080000 0.000000 0.540000
0.375000 0.000000 0.540000
0.670000 0.000000 0.540000
0.965000 0.000000 0.540000
1.000000 0.000000 0.540000
0.080000 0.250000 0.540000
0.375000 0.250000 0.540000
0.670000 0.250000 0.540000
0.965000 0.250000 0.540000
1.000000 0.250000 0.540000
0.080000 0.500000 0.540000
0.375000 0.500000 0.540000
0.670000 0.500000 0.540000
0.965000 0.500000 0.540000
1.000000 0.500000 0.540000
0.080000 0.750000 0.540000
0.375000 0.750000 0.540000
0.670000 0.750000 0.540000
0.965000 0.750000 0.540000
1.000000 0.750000 0.540000
0.080000 1.000000 0.540000
0.375000 1.000000 0.540000
0.670000 1.000000 0.540000
0.965000 1.000000 0.540000
1.000000 1.000000 0.540000
0.080000 0.000000 0.720000
0.375000 0.000000 0.720000
0.670000 0.000000 0.720000
0.965000 0.000000 0.720000
1.000000 0.000000 0.720000
0.080000 0.250000 0.720000
0.375000 0.250000 0.720000
0.670000 0.250000 0.720000
0.965000 0.250000 0.720000
1.000000 0.250000 0.720000
0.080000 0.500000 0.720000
0.375000 0.500000 0.720000
0.670000 0.500000 0.720000
0.965000 0.500000 0.720000
1.000000 0.500000 0.720000
0.080000 0.750000 0.720000
0.375000 0.750000 0.720000
0.670000 0.750000 0.720000
0.965000 0.750000 0.720000
1.000000 0.750000 0.720000
0.080000 1.000000 0.720000
0.375000 1.000000 0.720000
0.670000 1.000000 0.720000
0.965000 1.000000 0.720000
1.000000 1.000000 0.720000
