app/src/main/assets/luts/warm.cube
TITLE "Warm"
LUT_3D_SIZE 17
0.080000 0.000000 0.000000
0.153750 0.000000 0.000000
0.227500 0.000000 0.000000
0.301250 0.000000 0.000000
0.375000 0.000000 0.000000
0.448750 0.000000 0.000000
0.522500 0.000000 0.000000
0.596250 0.000000 0.000000
0.670000 0.000000 0.000000
0.743750 0.000000 0.000000
0.817500 0.000000 0.000000
0.891250 0.000000 0.000000
0.965000 0.000000 0.000000
1.000000 0.000000 0.000000
1.000000 0.000000 0.000000
1.000000 0.000000 0.000000
1.000000 0.000000 0.000000
0.080000 0.062500 0.000000
0.153750 0.062500 0.000000
0.227500 0.062500 0.000000
0.301250 0.062500 0.000000
0.375000 0.062500 0.000000
0.448750 0.062500 0.000000
0.522500 0.062500 0.000000
0.596250 0.062500 0.000000
0.670000 0.062500 0.000000
0.743750 0.062500 0.000000
0.817500 0.062500 0.000000
0.891250 0.062500 0.000000
0.965000 0.062500 0.000000
1.000000 0.062500 0.000000
1.000000 0.062500 0.000000
1.000000 0.062500 0.000000
1.000000 0.062500 0.000000
0.080000 0.125000 0.000000
0.153750 0.125000 0.000000
0.227500 0.125000 0.000000
0.301250 0.125000 0.000000
0.375000 0.125000 0.000000
0.448750 0.125000 0.000000
0.522500 0.125000 0.000000
0.596250 0.125000 0.000000
0.670000 0.125000 0.000000
0.743750 0.125000 0.000000
0.817500 0.125000 0.000000
0.891250 0.125000 0.000000
0.965000 0.125000 0.000000
1.000000 0.125000 0.000000
1.000000 0.125000 0.000000
1.000000 0.125000 0.000000
1.000000 0.125000 0.000000
0.080000 0.187500 0.000000
0.153750 0.187500 0.000000
0.227500 0.187500 0.000000
0.301250 0.187500 0.000000
0.375000 0.187500 0.000000
0.448750 0.187500 0.000000
0.522500 0.187500 0.000000
0.596250 0.187500 0.000000
0.670000 0.187500 0.000000
0.743750 0.187500 0.000000
0.817500 0.187500 0.000000
0.891250 0.187500 0.000000
0.965000 0.187500 0.000000
1.000000 0.187500 0.000000
1.000000 0.187500 0.000000
1.000000 0.187500 0.000000
1.000000 0.187500 0.000000
0.080000 0.250000 0.000000
0.153750 0.250000 0.000000
0.227500 0.250000 0.000000
0.301250 0.250000 0.000000
0.375000 0.250000 0.000000
0.448750 0.250000 0.000000
0.522500 0.250000 0.000000
0.596250 0.250000 0.000000
0.670000 0.250000 0.000000
0.743750 0.250000 0.000000
0.817500 0.250000 0.000000
0.891250 0.250000 0.000000
0.965000 0.250000 0.000000
1.000000 0.250000 0.000000
1.000000 0.250000 0.000000
1.000000 0.250000 0.000000
1.000000 0.250000 0.000000
0.080000 0.312500 0.000000
0.153750 0.312500 0.000000
0.227500 0.312500 0.000000
0.301250 0.312500 0.000000
0.375000 0.312500 0.000000
0.448750 0.312500 0.000000
0.522500 0.312500 0.000000
0.596250 0.312500 0.000000
0.670000 0.312500 0.000000
0.743750 0.312500 0.000000
0.817500 0.312500 0.000000
0.891250 0.312500 0.000000
0.965000 0.312500 0.000000
1.000000 0.312500 0.000000
1.000000 0.312500 0.000000
1.000000 0.312500 0.000000
1.000000 0.312500 0.000000
0.080000 0.375000 0.000000
0.153750 0.375000 0.000000
0.227500 0.375000 0.000000
0.301250 0.375000 0.000000
0.375000 0.375000 0.000000
0.448750 0.375000 0.000000
0.522500 0.375000 0.000000
0.596250 0.375000 0.000000
0.670000 0.375000 0.000000
0.743750 0.375000 0.000000
0.817500 0.375000 0.000000
0.891250 0.375000 0.000000
0.965000 0.375000 0.000000
1.000000 0.375000 0.000000
1.000000 0.375000 0.000000
1.000000 0.375000 0.000000
1.000000 0.375000 0.000000
0.080000 0.437500 0.000000
0.153750 0.437500 0.000000
0.227500 0.437500 0.000000
0.301250 0.437500 0.000000
0.375000 0.437500 0.000000
0.448750 0.437500 0.000000
0.522500 0.437500 0.000000
0.596250 0.437500 0.000000
0.670000 0.437500 0.000000
0.743750 0.437500 0.000000
0.817500 0.437500 0.000000
0.891250 0.437500 0.000000
0.965000 0.437500 0.000000
1.000000 0.437500 0.000000
1.000000 0.437500 0.000000
1.000000 0.437500 0.000000
1.000000 0.437500 0.000000
0.080000 0.500000 0.000000
0.153750 0.500000 0.000000
0.227500 0.500000 0.000000
0.301250 0.500000 0.000000
0.375000 0.500000 0.000000
0.448750 0.500000 0.000000
0.522500 0.500000 0.000000
0.596250 0.500000 0.000000
0.670000 0.500000 0.000000
0.743750 0.500000 0.000000
0.817500 0.500000 0.000000
0.891250 0.500000 0.000000
0.965000 0.500000 0.000000
1.000000 0.500000 0.000000
1.000000 0.500000 0.000000
1.000000 0.500000 0.000000
1.000000 0.500000 0.000000
0.080000 0.562500 0.000000
0.153750 0.562500 0.000000
0.227500 0.562500 0.000000
0.301250 0.562500 0.000000
0.375000 0.562500 0.000000
0.448750 0.562500 0.000000
0.522500 0.562500 0.000000
0.596250 0.562500 0.000000
0.670000 0.562500 0.000000
0.743750 0.562500 0.000000
0.817500 0.562500 0.000000
0.891250 0.562500 0.000000
0.965000 0.562500 0.000000
1.000000 0.562500 0.000000
1.000000 0.562500 0.000000
1.000000 0.562500 0.000000
1.000000 0.562500 0.000000
0.080000 0.625000 0.000000
0.153750 0.625000 0.000000
0.227500 0.625000 0.000000
0.301250 0.625000 0.000000
0.375000 0.625000 0.000000
0.448750 0.625000 0.000000
0.522500 0.625000 0.000000
0.596250 0.625000 0.000000
0.670000 0.625000 0.000000
0.743750 0.625000 0.000000
0.817500 0.625000 0.000000
0.891250 0.625000 0.000000
0.965000 0.625000 0.000000
1.000000 0.625000 0.000000
1.000000 0.625000 0.000000
1.000000 0.625000 0.000000
1.000000 0.625000 0.000000
0.080000 0.687500 0.000000
0.153750 0.687500 0.000000
0.227500 0.687500 0.000000
0.301250 0.687500 0.000000
0.375000 0.687500 0.000000
0.448750 0.687500 0.000000
0.522500 0.687500 0.000000
0.596250 0.687500 0.000000
0.670000 0.687500 0.000000
0.743750 0.687500 0.000000
0.817500 0.687500 0.000000
0.891250 0.687500 0.000000
0.965000 0.687500 0.000000
1.000000 0.687500 0.000000
1.000000 0.687500 0.000000
1.000000 0.687500 0.000000
1.000000 0.687500 0.000000
0.080000 0.750000 0.000000
0.153750 0.750000 0.000000
0.227500 0.750000 0.000000
0.301250 0.750000 0.000000
0.375000 0.750000 0.000000
0.448750 0.750000 0.000000
0.522500 0.750000 0.000000
0.596250 0.750000 0.000000
0.670000 0.750000 0.000000
0.743750 0.750000 0.000000
0.817500 0.750000 0.000000
0.891250 0.750000 0.000000
0.965000 0.750000 0.000000
1.000000 0.750000 0.000000
1.000000 0.750000 0.000000
1.000000 0.750000 0.000000
1.000000 0.750000 0.000000
0.080000 0.812500 0.000000
0.153750 0.812500 0.000000
0.227500 0.812500 0.000000
0.301250 0.812500 0.000000
0.375000 0.812500 0.000000
0.448750 0.812500 0.000000
0.522500 0.812500 0.000000
0.596250 0.812500 0.000000
0.670000 0.812500 0.000000
0.743750 0.812500 0.000000
0.817500 0.812500 0.000000
0.891250 0.812500 0.000000
0.965000 0.812500 0.000000
1.000000 0.812500 0.000000
1.000000 0.812500 0.000000
1.000000 0.812500 0.000000
1.000000 0.812500 0.000000
0.080000 0.875000 0.000000
0.153750 0.875000 0.000000
0.227500 0.875000 0.000000
0.301250 0.875000 0.000000
0.375000 0.875000 0.000000
0.448750 0.875000 0.000000
0.522500 0.875000 0.000000
0.596250 0.875000 0.000000
0.670000 0.875000 0.000000
0.743750 0.875000 0.000000
0.817500 0.875000 0.000000
0.891250 0.875000 0.000000
0.965000 0.875000 0.000000
1.000000 0.875000 0.000000
1.000000 0.875000 0.000000
1.000000 0.875000 0.000000
1.000000 0.875000 0.000000
0.080000 0.937500 0.000000
0.153750 0.937500 0.000000
0.227500 0.937500 0.000000
0.301250 0.937500 0.000000
0.375000 0.937500 0.000000
0.448750 0.937500 0.000000
0.522500 0.937500 0.000000
0.596250 0.937500 0.000000
0.670000 0.937500 0.000000
0.743750 0.937500 0.000000
0.817500 0.937500 0.000000
0.891250 0.937500 0.000000
0.965000 0.937500 0.000000
1.000000 0.937500 0.000000
1.000000 0.937500 0.000000
1.000000 0.937500 0.000000
1.000000 0.937500 0.000000
0.080000 1.000000 0.000000
0.153750 1.000000 0.000000
0.227500 1.000000 0.000000
0.301250 1.000000 0.000000
0.375000 1.000000 0.000000
0.448750 1.000000 0.000000
0.522500 1.000000 0.000000
0.596250 1.000000 0.000000
0.670000 1.000000 0.000000
0.743750 1.000000 0.000000
0.817500 1.000000 0.000000
0.891250 1.000000 0.000000
0.965000 1.000000 0.000000
1.000000 1.000000 0.000000
1.000000 1.000000 0.000000
1.000000 1.000000 0.000000
1.000000 1.000000 0.000000
0.080000 0.000000 0.045000
0.153750 0.000000 0.045000
0.227500 0.000000 0.045000
0.301250 0.000000 0.045000
0.375000 0.000000 0.045000
0.448750 0.000000 0.045000
0.522500 0.000000 0.045000
0.596250 0.000000 0.045000
0.670000 0.000000 0.045000
0.743750 0.000000 0.045000
0.817500 0.000000 0.045000
0.891250 0.000000 0.045000
0.965000 0.000000 0.045000
1.000000 0.000000 0.045000
1.000000 0.000000 0.045000
1.000000 0.000000 0.045000
1.000000 0.000000 0.045000
0.080000 0.062500 0.045000
0.153750 0.062500 0.045000
0.227500 0.062500 0.045000
0.301250 0.062500 0.045000
0.375000 0.062500 0.045000
0.448750 0.062500 0.045000
0.522500 0.062500 0.045000
0.596250 0.062500 0.045000
0.670000 0.062500 0.045000
0.743750 0.062500 0.045000
0.817500 0.062500 0.045000
0.891250 0.062500 0.045000
0.965000 0.062500 0.045000
1.000000 0.062500 0.045000
1.000000 0.062500 0.045000
1.000000 0.062500 0.045000
1.000000 0.062500 0.045000
0.080000 0.125000 0.045000
0.153750 0.125000 0.045000
0.227500 0.125000 0.045000
0.301250 0.125000 0.045000
0.375000 0.125000 0.045000
0.448750 0.125000 0.045000
0.522500 0.125000 0.045000
0.596250 0.125000 0.045000
0.670000 0.125000 0.045000
0.743750 0.125000 0.045000
0.817500 0.125000 0.045000
0.891250 0.125000 0.045000
0.965000 0.125000 0.045000
1.000000 0.125000 0.045000
1.000000 0.125000 0.045000
1.000000 0.125000 0.045000
1.000000 0.125000 0.045000
0.080000 0.187500 0.045000
0.153750 0.187500 0.045000
0.227500 0.187500 0.045000
0.301250 0.187500 0.045000
0.375000 0.187500 0.045000
0.448750 0.187500 0.045000
0.522500 0.187500 0.045000
0.596250 0.187500 0.045000
0.670000 0.187500 0.045000
0.743750 0.187500 0.045000
0.817500 0.187500 0.045000
0.891250 0.187500 0.045000
0.965000 0.187500 0.045000
1.000000 0.187500 0.045000
1.000000 0.187500 0.045000
1.000000 0.187500 0.045000
1.000000 0.187500 0.045000
0.080000 0.250000 0.045000
0.153750 0.250000 0.045000
0.227500 0.250000 0.045000
0.301250 0.250000 0.045000
0.375000 0.250000 0.045000
0.448750 0.250000 0.045000
0.522500 0.250000 0.045000
0.596250 0.250000 0.045000
0.670000 0.250000 0.045000
0.743750 0.250000 0.045000
0.817500 0.250000 0.045000
0.891250 0.250000 0.045000
0.965000 0.250000 0.045000
1.000000 0.250000 0.045000
1.000000 0.250000 0.045000
1.000000 0.250000 0.045000
1.000000 0.250000 0.045000
0.080000 0.312500 0.045000
0.153750 0.312500 0.045000
0.227500 0.312500 0.045000
0.301250 0.312500 0.045000
0.375000 0.312500 0.045000
0.448750 0.312500 0.045000
0.522500 0.312500 0.045000
0.596250 0.312500 0.045000
0.670000 0.312500 0.045000
0.743750 0.312500 0.045000
0.817500 0.312500 0.045000
0.891250 0.312500 0.045000
0.965000 0.312500 0.045000
1.000000 0.312500 0.045000
1.000000 0.312500 0.045000
1.000000 0.312500 0.045000
1.000000 0.312500 0.045000
0.080000 0.375000 0.045000
0.153750 0.375000 0.045000
0.227500 0.375000 0.045000
0.301250 0.375000 0.045000
0.375000 0.375000 0.045000
0.448750 0.375000 0.045000
0.522500 0.375000 0.045000
0.596250 0.375000 0.045000
0.670000 0.375000 0.045000
0.743750 0.375000 0.045000
0.817500 0.375000 0.045000
0.891250 0.375000 0.045000
0.965000 0.375000 0.045000
1.000000 0.375000 0.045000
1.000000 0.375000 0.045000
1.000000 0.375000 0.045000
1.000000 0.375000 0.045000
0.080000 0.437500 0.045000
0.153750 0.437500 0.045000
0.227500 0.437500 0.045000
0.301250 0.437500 0.045000
0.375000 0.437500 0.045000
0.448750 0.437500 0.045000
0.522500 0.437500 0.045000
0.596250 0.437500 0.045000
0.670000 0.437500 0.045000
0.743750 0.437500 0.045000
0.817500 0.437500 0.045000
0.891250 0.437500 0.045000
0.965000 0.437500 0.045000
1.000000 0.437500 0.045000
1.000000 0.437500 0.045000
1.000000 0.437500 0.045000
1.000000 0.437500 0.045000
0.080000 0.500000 0.045000
0.153750 0.500000 0.045000
0.227500 0.500000 0.045000
0.301250 0.500000 0.045000
0.375000 0.500000 0.045000
0.448750 0.500000 0.045000
0.522500 0.500000 0.045000
0.596250 0.500000 0.045000
0.670000 0.500000 0.045000
0.743750 0.500000 0.045000
0.817500 0.500000 0.045000
0.891250 0.500000 0.045000
0.965000 0.500000 0.045000
1.000000 0.500000 0.045000
1.000000 0.500000 0.045000
1.000000 0.500000 0.045000
1.000000 0.500000 0.045000
0.080000 0.562500 0.045000
0.153750 0.562500 0.045000
0.227500 0.562500 0.045000
0.301250 0.562500 0.045000
0.375000 0.562500 0.045000
0.448750 0.562500 0.045000
0.522500 0.562500 0.045000
0.596250 0.562500 0.045000
0.670000 0.562500 0.045000
0.743750 0.562500 0.045000
0.817500 0.562500 0.045000
0.891250 0.562500 0.045000
0.965000 0.562500 0.045000
1.000000 0.562500 0.045000
1.000000 0.562500 0.045000
1.000000 0.562500 0.045000
1.000000 0.562500 0.045000
0.080000 0.625000 0.045000
0.153750 0.625000 0.045000
0.227500 0.625000 0.045000
0.301250 0.625000 0.045000
0.375000 0.625000 0.045000
0.448750 0.625000 0.045000
0.522500 0.625000 0.045000
0.596250 0.625000 0.045000
0.670000 0.625000 0.045000
0.743750 0.625000 0.045000
0.817500 0.625000 0.045000
0.891250 0.625000 0.045000
0.965000 0.625000 0.045000
1.000000 0.625000 0.045000
1.000000 0.625000 0.045000
1.000000 0.625000 0.045000
1.000000 0.625000 0.045000
0.080000 0.687500 0.045000
0.153750 0.687500 0.045000
0.227500 0.687500 0.045000
0.301250 0.687500 0.045000
0.375000 0.687500 0.045000
0.448750 0.687500 0.045000
0.522500 0.687500 0.045000
0.596250 0.687500 0.045000
0.670000 0.687500 0.045000
0.743750 0.687500 0.045000
0.817500 0.687500 0.045000
0.891250 0.687500 0.045000
0.965000 0.687500 0.045000
1.000000 0.687500 0.045000
1.000000 0.687500 0.045000
1.000000 0.687500 0.045000
1.000000 0.687500 0.045000
0.080000 0.750000 0.045000
0.153750 0.750000 0.045000
0.227500 0.750000 0.045000
0.301250 0.750000 0.045000
0.375000 0.750000 0.045000
0.448750 0.750000 0.045000
0.522500 0.750000 0.045000
0.596250 0.750000 0.045000
0.670000 0.750000 0.045000
0.743750 0.750000 0.045000
0.817500 0.750000 0.045000
0.891250 0.750000 0.045000
0.965000 0.750000 0.045000
1.000000 0.750000 0.045000
1.000000 0.750000 0.045000
1.000000 0.750000 0.045000
1.000000 0.750000 0.045000
0.080000 0.812500 0.045000
0.153750 0.812500 0.045000
0.227500 0.812500 0.045000
0.301250 0.812500 0.045000
0.375000 0.812500 0.045000
0.448750 0.812500 0.045000
0.522500 0.812500 0.045000
0.596250 0.812500 0.045000
0.670000 0.812500 0.045000
0.743750 0.812500 0.045000
0.817500 0.812500 0.045000
0.891250 0.812500 0.045000
0.965000 0.812500 0.045000
1.000000 0.812500 0.045000
1.000000 0.812500 0.045000
1.000000 0.812500 0.045000
1.000000 0.812500 0.045000
0.080000 0.875000 0.045000
0.153750 0.875000 0.045000
0.227500 0.875000 0.045000
0.301250 0.875000 0.045000
0.375000 0.875000 0.045000
0.448750 0.875000 0.045000
0.522500 0.875000 0.045000
0.596250 0.875000 0.045000
0.670000 0.875000 0.045000
0.743750 0.875000 0.045000
0.817500 0.875000 0.045000
0.891250 0.875000 0.045000
0.965000 0.875000 0.045000
1.000000 0.875000 0.045000
1.000000 0.875000 0.045000
1.000000 0.875000 0.045000
1.000000 0.875000 0.045000
0.080000 0.937500 0.045000
0.153750 0.937500 0.045000
0.227500 0.937500 0.045000
0.301250 0.937500 0.045000
0.375000 0.937500 0.045000
0.448750 0.937500 0.045000
0.522500 0.937500 0.045000
0.596250 0.937500 0.045000
0.670000 0.937500 0.045000
0.743750 0.937500 0.045000
0.817500 0.937500 0.045000
0.891250 0.937500 0.045000
0.965000 0.937500 0.045000
1.000000 0.937500 0.045000
1.000000 0.937500 0.045000
1.000000 0.937500 0.045000
1.000000 0.937500 0.045000
0.080000 1.000000 0.045000
0.153750 1.000000 0.045000
0.227500 1.000000 0.045000
0.301250 1.000000 0.045000
0.375000 1.000000 0.045000
0.448750 1.000000 0.045000
0.522500 1.000000 0.045000
0.596250 1.000000 0.045000
0.670000 1.000000 0.045000
0.743750 1.000000 0.045000
0.817500 1.000000 0.045000
0.891250 1.000000 0.045000
0.965000 1.000000 0.045000
1.000000 1.000000 0.045000
1.000000 1.000000 0.045000
1.000000 1.000000 0.045000
1.000000 1.000000 0.045000
0.080000 0.000000 0.090000
0.153750 0.000000 0.090000
0.227500 0.000000 0.090000
0.301250 0.000000 0.090000
0.375000 0.000000 0.090000
0.448750 0.000000 0.090000
0.522500 0.000000 0.090000
0.596250 0.000000 0.090000
0.670000 0.000000 0.090000
0.743750 0.000000 0.090000
0.817500 0.000000 0.090000
0.891250 0.000000 0.090000
0.965000 0.000000 0.090000
1.000000 0.000000 0.090000
1.000000 0.000000 0.090000
1.000000 0.000000 0.090000
1.000000 0.000000 0.090000
0.080000 0.062500 0.090000
0.153750 0.062500 0.090000
0.227500 0.062500 0.090000
0.301250 0.062500 0.090000
0.375000 0.062500 0.090000
0.448750 0.062500 0.090000
0.522500 0.062500 0.090000
0.596250 0.062500 0.090000
0.670000 0.062500 0.090000
0.743750 0.062500 0.090000
0.817500 0.062500 0.090000
0.891250 0.062500 0.090000
0.965000 0.062500 0.090000
1.000000 0.062500 0.090000
1.000000 0.062500 0.090000
1.000000 0.062500 0.090000
1.000000 0.062500 0.090000
0.080000 0.125000 0.090000
0.153750 0.125000 0.090000
0.227500 0.125000 0.090000
0.301250 0.125000 0.090000
0.375000 0.125000 0.090000
0.448750 0.125000 0.090000
0.522500 0.125000 0.090000
0.596250 0.125000 0.090000
0.670000 0.125000 0.090000
0.743750 0.125000 0.090000
0.817500 0.125000 0.090000
0.891250 0.125000 0.090000
0.965000 0.125000 0.090000
1.000000 0.125000 0.090000
1.000000 0.125000 0.090000
1.000000 0.125000 0.090000
1.000000 0.125000 0.090000
0.080000 0.187500 0.090000
0.153750 0.187500 0.090000
0.227500 0.187500 0.090000
0.301250 0.187500 0.090000
0.375000 0.187500 0.090000
0.448750 0.187500 0.090000
0.522500 0.187500 0.090000
0.596250 0.187500 0.090000
0.670000 0.187500 0.090000
0.743750 0.187500 0.090000
0.817500 0.187500 0.090000
0.891250 0.187500 0.090000
0.965000 0.187500 0.090000
1.000000 0.187500 0.090000
1.000000 0.187500 0.090000
1.000000 0.187500 0.090000
1.000000 0.187500 0.090000
0.080000 0.250000 0.090000
0.153750 0.250000 0.090000
0.227500 0.250000 0.090000
0.301250 0.250000 0.090000
0.375000 0.250000 0.090000
0.448750 0.250000 0.090000
0.522500 0.250000 0.090000
0.596250 0.250000 0.090000
0.670000 0.250000 0.090000
0.743750 0.250000 0.090000
0.817500 0.250000 0.090000
0.891250 0.250000 0.090000
0.965000 0.250000 0.090000
1.000000 0.250000 0.090000
1.000000 0.250000 0.090000
1.000000 0.250000 0.090000
1.000000 0.250000 0.090000
0.080000 0.312500 0.090000
0.153750 0.312500 0.090000
0.227500 0.312500 0.090000
0.301250 0.312500 0.090000
0.375000 0.312500 0.090000
0.448750 0.312500 0.090000
0.522500 0.312500 0.090000
0.596250 0.312500 0.090000
0.670000 0.312500 0.090000
0.743750 0.312500 0.090000
0.817500 0.312500 0.090000
0.891250 0.312500 0.090000
0.965000 0.312500 0.090000
1.000000 0.312500 0.090000
1.000000 0.312500 0.090000
1.000000 0.312500 0.090000
1.000000 0.312500 0.090000
0.080000 0.375000 0.090000
0.153750 0.375000 0.090000
0.227500 0.375000 0.090000
0.301250 0.375000 0.090000
0.375000 0.375000 0.090000
0.448750 0.375000 0.090000
0.522500 0.375000 0.090000
0.596250 0.375000 0.090000
0.670000 0.375000 0.090000
0.743750 0.375000 0.090000
0.817500 0.375000 0.090000
0.891250 0.375000 0.090000
0.965000 0.375000 0.090000
1.000000 0.375000 0.090000
1.000000 0.375000 0.090000
1.000000 0.375000 0.090000
1.000000 0.375000 0.090000
0.080000 0.437500 0.090000
0.153750 0.437500 0.090000
0.227500 0.437500 0.090000
0.301250 0.437500 0.090000
0.375000 0.437500 0.090000
0.448750 0.437500 0.090000
0.522500 0.437500 0.090000
0.596250 0.437500 0.090000
0.670000 0.437500 0.090000
0.743750 0.437500 0.090000
0.817500 0.437500 0.090000
0.891250 0.437500 0.090000
0.965000 0.437500 0.090000
1.000000 0.437500 0.090000
1.000000 0.437500 0.090000
1.000000 0.437500 0.090000
1.000000 0.437500 0.090000
0.080000 0.500000 0.090000
0.153750 0.500000 0.090000
0.227500 0.500000 0.090000
0.301250 0.500000 0.090000
0.375000 0.500000 0.090000
0.448750 0.500000 0.090000
0.522500 0.500000 0.090000
0.596250 0.500000 0.090000
0.670000 0.500000 0.090000
0.743750 0.500000 0.090000
0.817500 0.500000 0.090000
0.891250 0.500000 0.090000
0.965000 0.500000 0.090000
1.000000 0.500000 0.090000
1.000000 0.500000 0.090000
1.000000 0.500000 0.090000
1.000000 0.500000 0.090000
0.080000 0.562500 0.090000
0.153750 0.562500 0.090000
0.227500 0.562500 0.090000
0.301250 0.562500 0.090000
0.375000 0.562500 0.090000
0.448750 0.562500 0.090000
0.522500 0.562500 0.090000
0.596250 0.562500 0.090000
0.670000 0.562500 0.090000
0.743750 0.562500 0.090000
0.817500 0.562500 0.090000
0.891250 0.562500 0.090000
0.965000 0.562500 0.090000
1.000000 0.562500 0.090000
1.000000 0.562500 0.090000
1.000000 0.562500 0.090000
1.000000 0.562500 0.090000
0.080000 0.625000 0.090000
0.153750 0.625000 0.090000
0.227500 0.625000 0.090000
0.301250 0.625000 0.090000
0.375000 0.625000 0.090000
0.448750 0.625000 0.090000
0.522500 0.625000 0.090000
0.596250 0.625000 0.090000
0.670000 0.625000 0.090000
0.743750 0.625000 0.090000
0.817500 0.625000 0.090000
0.891250 0.625000 0.090000
0.965000 0.625000 0.090000
1.000000 0.625000 0.090000
1.000000 0.625000 0.090000
1.000000 0.625000 0.090000
1.000000 0.625000 0.090000
0.080000 0.687500 0.090000
0.153750 0.687500 0.090000
0.227500 0.687500 0.090000
0.301250 0.687500 0.090000
0.375000 0.687500 0.090000
0.448750 0.687500 0.090000
0.522500 0.687500 0.090000
0.596250 0.687500 0.090000
0.670000 0.687500 0.090000
0.743750 0.687500 0.090000
0.817500 0.687500 0.090000
0.891250 0.687500 0.090000
0.965000 0.687500 0.090000
1.000000 0.687500 0.090000
1.000000 0.687500 0.090000
1.000000 0.687500 0.090000
1.000000 0.687500 0.090000
0.080000 0.750000 0.090000
0.153750 0.750000 0.090000
0.227500 0.750000 0.090000
0.301250 0.750000 0.090000
0.375000 0.750000 0.090000
0.448750 0.750000 0.090000
0.522500 0.750000 0.090000
0.596250 0.750000 0.090000
0.670000 0.750000 0.090000
0.743750 0.750000 0.090000
0.817500 0.750000 0.090000
0.891250 0.750000 0.090000
0.965000 0.750000 0.090000
1.000000 0.750000 0.090000
1.000000 0.750000 0.090000
1.000000 0.750000 0.090000
1.000000 0.750000 0.090000
0.080000 0.812500 0.090000
0.153750 0.812500 0.090000
0.227500 0.812500 0.090000
0.301250 0.812500 0.090000
0.375000 0.812500 0.090000
0.448750 0.812500 0.090000
0.522500 0.812500 0.090000
0.596250 0.812500 0.090000
0.670000 0.812500 0.090000
0.743750 0.812500 0.090000
0.817500 0.812500 0.090000
0.891250 0.812500 0.090000
0.965000 0.812500 0.090000
1.000000 0.812500 0.090000
1.000000 0.812500 0.090000
1.000000 0.812500 0.090000
1.000000 0.812500 0.090000
0.080000 0.875000 0.090000
0.153750 0.875000 0.090000
0.227500 0.875000 0.090000
0.301250 0.875000 0.090000
0.375000 0.875000 0.090000
0.448750 0.875000 0.090000
0.522500 0.875000 0.090000
0.596250 0.875000 0.090000
0.670000 0.875000 0.090000
0.743750 0.875000 0.090000
0.817500 0.875000 0.090000
0.891250 0.875000 0.090000
0.965000 0.875000 0.090000
1.000000 0.875000 0.090000
1.000000 0.875000 0.090000
1.000000 0.875000 0.090000
1.000000 0.875000 0.090000
0.080000 0.937500 0.090000
0.153750 0.937500 0.090000
0.227500 0.937500 0.090000
0.301250 0.937500 0.090000
0.375000 0.937500 0.090000
0.448750 0.937500 0.090000
0.522500 0.937500 0.090000
0.596250 0.937500 0.090000
0.670000 0.937500 0.090000
0.743750 0.937500 0.090000
0.817500 0.937500 0.090000
0.891250 0.937500 0.090000
0.965000 0.937500 0.090000
1.000000 0.937500 0.090000
1.000000 0.937500 0.090000
1.000000 0.937500 0.090000
1.000000 0.937500 0.090000
0.080000 1.000000 0.090000
0.153750 1.000000 0.090000
0.227500 1.000000 0.090000
0.301250 1.000000 0.090000
0.375000 1.000000 0.090000
0.448750 1.000000 0.090000
0.522500 1.000000 0.090000
0.596250 1.000000 0.090000
0.670000 1.000000 0.090000
0.743750 1.000000 0.090000
0.817500 1.000000 0.090000
0.891250 1.000000 0.090000
0.965000 1.000000 0.090000
1.000000 1.000000 0.090000
1.000000 1.000000 0.090000
1.000000 1.000000 0.090000
1.000000 1.000000 0.090000
0.080000 0.000000 0.135000
0.153750 0.000000 0.135000
0.227500 0.000000 0.135000
0.301250 0.000000 0.135000
0.375000 0.000000 0.135000
0.448750 0.000000 0.135000
0.522500 0.000000 0.135000
0.596250 0.000000 0.135000
0.670000 0.000000 0.135000
0.743750 0.000000 0.135000
0.817500 0.000000 0.135000
0.891250 0.000000 0.135000
0.965000 0.000000 0.135000
1.000000 0.000000 0.135000
1.000000 0.000000 0.135000
1.000000 0.000000 0.135000
1.000000 0.000000 0.135000
0.080000 0.062500 0.135000
0.153750 0.062500 0.135000
0.227500 0.062500 0.135000
