app/src/main/assets/luts/warm.cube
TITLE "Warm"
LUT_3D_SIZE 9
0.080000 0.000000 0.000000
0.227500 0.000000 0.000000
0.375000 0.000000 0.000000
0.522500 0.000000 0.000000
0.670000 0.000000 0.000000
0.817500 0.000000 0.000000
0.965000 0.000000 0.000000
1.000000 0.000000 0.000000
1.000000 0.000000 0.000000
0.080000 0.125000 0.000000
0.227500 0.125000 0.000000
0.375000 0.125000 0.000000
0.522500 0.125000 0.000000
0.670000 0.125000 0.000000
0.817500 0.125000 0.000000
0.965000 0.125000 0.000000
1.000000 0.125000 0.000000
1.000000 0.125000 0.000000
0.080000 0.250000 0.000000
0.227500 0.250000 0.000000
0.375000 0.250000 0.000000
0.522500 0.250000 0.000000
0.670000 0.250000 0.000000
0.817500 0.250000 0.000000
0.965000 0.250000 0.000000
1.000000 0.250000 0.000000
1.000000 0.250000 0.000000
0.080000 0.375000 0.000000
0.227500 0.375000 0.000000
0.375000 0.375000 0.000000
0.522500 0.375000 0.000000
0.670000 0.375000 0.000000
0.817500 0.375000 0.000000
0.965000 0.375000 0.000000
1.000000 0.375000 0.000000
1.000000 0.375000 0.000000
0.080000 0.500000 0.000000
0.227500 0.500000 0.000000
0.375000 0.500000 0.000000
0.522500 0.500000 0.000000
0.670000 0.500000 0.000000
0.817500 0.500000 0.000000
0.965000 0.500000 0.000000
1.000000 0.500000 0.000000
1.000000 0.500000 0.000000
0.080000 0.625000 0.000000
0.227500 0.625000 0.000000
0.375000 0.625000 0.000000
0.522500 0.625000 0.000000
0.670000 0.625000 0.000000
0.817500 0.625000 0.000000
0.965000 0.625000 0.000000
1.000000 0.625000 0.000000
1.000000 0.625000 0.000000
0.080000 0.750000 0.000000
0.227500 0.750000 0.000000
0.375000 0.750000 0.000000
0.522500 0.750000 0.000000
0.670000 0.750000 0.000000
0.817500 0.750000 0.000000
0.965000 0.750000 0.000000
1.000000 0.750000 0.000000
1.000000 0.750000 0.000000
0.080000 0.875000 0.000000
0.227500 0.875000 0.000000
0.375000 0.875000 0.000000
0.522500 0.875000 0.000000
0.670000 0.875000 0.000000
0.817500 0.875000 0.000000
0.965000 0.875000 0.000000
1.000000 0.875000 0.000000
1.000000 0.875000 0.000000
0.080000 1.000000 0.000000
0.227500 1.000000 0.000000
0.375000 1.000000 0.000000
0.522500 1.000000 0.000000
0.670000 1.000000 0.000000
0.817500 1.000000 0.000000
0.965000 1.000000 0.000000
1.000000 1.000000 0.000000
1.000000 1.000000 0.000000
0.080000 0.000000 0.090000
0.227500 0.000000 0.090000
0.375000 0.000000 0.090000
0.522500 0.000000 0.090000
0.670000 0.000000 0.090000
0.817500 0.000000 0.090000
0.965000 0.000000 0.090000
1.000000 0.000000 0.090000
1.000000 0.000000 0.090000
0.080000 0.125000 0.090000
0.227500 0.125000 0.090000
0.375000 0.125000 0.090000
0.522500 0.125000 0.090000
0.670000 0.125000 0.090000
0.817500 0.125000 0.090000
0.965000 0.125000 0.090000
1.000000 0.125000 0.090000
1.000000 0.125000 0.090000
0.080000 0.250000 0.090000
0.227500 0.250000 0.090000
0.375000 0.250000 0.090000
0.522500 0.250000 0.090000
0.670000 0.250000 0.090000
0.817500 0.250000 0.090000
0.965000 0.250000 0.090000
1.000000 0.250000 0.090000
1.000000 0.250000 0.090000
0.080000 0.375000 0.090000
0.227500 0.375000 0.090000
0.375000 0.375000 0.090000
0.522500 0.375000 0.090000
0.670000 0.375000 0.090000
0.817500 0.375000 0.090000
0.965000 0.375000 0.090000
1.000000 0.375000 0.090000
1.000000 0.375000 0.090000
0.080000 0.500000 0.090000
0.227500 0.500000 0.090000
0.375000 0.500000 0.090000
0.522500 0.500000 0.090000
0.670000 0.500000 0.090000
0.817500 0.500000 0.090000
0.965000 0.500000 0.090000
1.000000 0.500000 0.090000
1.000000 0.500000 0.090000
0.080000 0.625000 0.090000
0.227500 0.625000 0.090000
0.375000 0.625000 0.090000
0.522500 0.625000 0.090000
0.670000 0.625000 0.090000
0.817500 0.625000 0.090000
0.965000 0.625000 0.090000
1.000000 0.625000 0.090000
1.000000 0.625000 0.090000
0.080000 0.750000 0.090000
0.227500 0.750000 0.090000
0.375000 0.750000 0.090000
0.522500 0.750000 0.090000
0.670000 0.750000 0.090000
0.817500 0.750000 0.090000
0.965000 0.750000 0.090000
1.000000 0.750000 0.090000
1.000000 0.750000 0.090000
0.080000 0.875000 0.090000
0.227500 0.875000 0.090000
0.375000 0.875000 0.090000
0.522500 0.875000 0.090000
0.670000 0.875000 0.090000
0.817500 0.875000 0.090000
0.965000 0.875000 0.090000
1.000000 0.875000 0.090000
1.000000 0.875000 0.090000
0.080000 1.000000 0.090000
0.227500 1.000000 0.090000
0.375000 1.000000 0.090000
0.522500 1.000000 0.090000
0.670000 1.000000 0.090000
0.817500 1.000000 0.090000
0.965000 1.000000 0.090000
1.000000 1.000000 0.090000
1.000000 1.000000 0.090000
0.080000 0.000000 0.180000
0.227500 0.000000 0.180000
0.375000 0.000000 0.180000
0.522500 0.000000 0.180000
0.670000 0.000000 0.180000
0.817500 0.000000 0.180000
0.965000 0.000000 0.180000
1.000000 0.000000 0.180000
1.000000 0.000000 0.180000
0.080000 0.125000 0.180000
0.227500 0.125000 0.180000
0.375000 0.125000 0.180000
0.522500 0.125000 0.180000
0.670000 0.125000 0.180000
0.817500 0.125000 0.180000
0.965000 0.125000 0.180000
1.000000 0.125000 0.180000
1.000000 0.125000 0.180000
0.080000 0.250000 0.180000
0.227500 0.250000 0.180000
0.375000 0.250000 0.180000
0.522500 0.250000 0.180000
0.670000 0.250000 0.180000
0.817500 0.250000 0.180000
0.965000 0.250000 0.180000
1.000000 0.250000 0.180000
1.000000 0.250000 0.180000
0.080000 0.375000 0.180000
0.227500 0.375000 0.180000
0.375000 0.375000 0.180000
0.522500 0.375000 0.180000
0.670000 0.375000 0.180000
0.817500 0.375000 0.180000
0.965000 0.375000 0.180000
1.000000 0.375000 0.180000
1.000000 0.375000 0.180000
0.080000 0.500000 0.180000
0.227500 0.500000 0.180000
0.375000 0.500000 0.180000
0.522500 0.500000 0.180000
0.670000 0.500000 0.180000
0.817500 0.500000 0.180000
0.965000 0.500000 0.180000
1.000000 0.500000 0.180000
1.000000 0.500000 0.180000
0.080000 0.625000 0.180000
0.227500 0.625000 0.180000
0.375000 0.625000 0.180000
0.522500 0.625000 0.180000
0.670000 0.625000 0.180000
0.817500 0.625000 0.180000
0.965000 0.625000 0.180000
1.000000 0.625000 0.180000
1.000000 0.625000 0.180000
0.080000 0.750000 0.180000
0.227500 0.750000 0.180000
0.375000 0.750000 0.180000
0.522500 0.750000 0.180000
0.670000 0.750000 0.180000
0.817500 0.750000 0.180000
0.965000 0.750000 0.180000
1.000000 0.750000 0.180000
1.000000 0.750000 0.180000
0.080000 0.875000 0.180000
0.227500 0.875000 0.180000
0.375000 0.875000 0.180000
0.522500 0.875000 0.180000
0.670000 0.875000 0.180000
0.817500 0.875000 0.180000
0.965000 0.875000 0.180000
1.000000 0.875000 0.180000
1.000000 0.875000 0.180000
0.080000 1.000000 0.180000
0.227500 1.000000 0.180000
0.375000 1.000000 0.180000
0.522500 1.000000 0.180000
0.670000 1.000000 0.180000
0.817500 1.000000 0.180000
0.965000 1.000000 0.180000
1.000000 1.000000 0.180000
1.000000 1.000000 0.180000
0.080000 0.000000 0.270000
0.227500 0.000000 0.270000
0.375000 0.000000 0.270000
0.522500 0.000000 0.270000
0.670000 0.000000 0.270000
0.817500 0.000000 0.270000
0.965000 0.000000 0.270000
1.000000 0.000000 0.270000
1.000000 0.000000 0.270000
0.080000 0.125000 0.270000
0.227500 0.125000 0.270000
0.375000 0.125000 0.270000
0.522500 0.125000 0.270000
0.670000 0.125000 0.270000
0.817500 0.125000 0.270000
0.965000 0.125000 0.270000
1.000000 0.125000 0.270000
1.000000 0.125000 0.270000
0.080000 0.250000 0.270000
0.227500 0.250000 0.270000
0.375000 0.250000 0.270000
0.522500 0.250000 0.270000
0.670000 0.250000 0.270000
0.817500 0.250000 0.270000
0.965000 0.250000 0.270000
1.000000 0.250000 0.270000
1.000000 0.250000 0.270000
0.080000 0.375000 0.270000
0.227500 0.375000 0.270000
0.375000 0.375000 0.270000
0.522500 0.375000 0.270000
0.670000 0.375000 0.270000
0.817500 0.375000 0.270000
0.965000 0.375000 0.270000
1.000000 0.375000 0.270000
1.000000 0.375000 0.270000
0.080000 0.500000 0.270000
0.227500 0.500000 0.270000
0.375000 0.500000 0.270000
0.522500 0.500000 0.270000
0.670000 0.500000 0.270000
0.817500 0.500000 0.270000
0.965000 0.500000 0.270000
1.000000 0.500000 0.270000
1.000000 0.500000 0.270000
0.080000 0.625000 0.270000
0.227500 0.625000 0.270000
0.375000 0.625000 0.270000
0.522500 0.625000 0.270000
0.670000 0.625000 0.270000
0.817500 0.625000 0.270000
0.965000 0.625000 0.270000
1.000000 0.625000 0.270000
1.000000 0.625000 0.270000
0.080000 0.750000 0.270000
0.227500 0.750000 0.270000
0.375000 0.750000 0.270000
0.522500 0.750000 0.270000
0.670000 0.750000 0.270000
0.817500 0.750000 0.270000
0.965000 0.750000 0.270000
1.000000 0.750000 0.270000
1.000000 0.750000 0.270000
0.080000 0.875000 0.270000
0.227500 0.875000 0.270000
0.375000 0.875000 0.270000
0.522500 0.875000 0.270000
0.670000 0.875000 0.270000
0.817500 0.875000 0.270000
0.965000 0.875000 0.270000
1.000000 0.875000 0.270000
1.000000 0.875000 0.270000
0.080000 1.000000 0.270000
0.227500 1.000000 0.270000
0.375000 1.000000 0.270000
0.522500 1.000000 0.270000
0.670000 1.000000 0.270000
0.817500 1.000000 0.270000
0.965000 1.000000 0.270000
1.000000 1.000000 0.270000
1.000000 1.000000 0.270000
0.080000 0.000000 0.360000
0.227500 0.000000 0.360000
0.375000 0.000000 0.360000
0.522500 0.000000 0.360000
0.670000 0.000000 0.360000
0.817500 0.000000 0.360000
0.965000 0.000000 0.360000
1.000000 0.000000 0.360000
1.000000 0.000000 0.360000
0.080000 0.125000 0.360000
0.227500 0.125000 0.360000
0.375000 0.125000 0.360000
0.522500 0.125000 0.360000
0.670000 0.125000 0.360000
0.817500 0.125000 0.360000
0.965000 0.125000 0.360000
1.000000 0.125000 0.360000
1.000000 0.125000 0.360000
0.080000 0.250000 0.360000
0.227500 0.250000 0.360000
0.375000 0.250000 0.360000
0.522500 0.250000 0.360000
0.670000 0.250000 0.360000
0.817500 0.250000 0.360000
0.965000 0.250000 0.360000
1.000000 0.250000 0.360000
1.000000 0.250000 0.360000
0.080000 0.375000 0.360000
0.227500 0.375000 0.360000
0.375000 0.375000 0.360000
0.522500 0.375000 0.360000
0.670000 0.375000 0.360000
0.817500 0.375000 0.360000
0.965000 0.375000 0.360000
1.000000 0.375000 0.360000
1.000000 0.375000 0.360000
0.080000 0.500000 0.360000
0.227500 0.500000 0.360000
0.375000 0.500000 0.360000
0.522500 0.500000 0.360000
0.670000 0.500000 0.360000
0.817500 0.500000 0.360000
0.965000 0.500000 0.360000
1.000000 0.500000 0.360000
1.000000 0.500000 0.360000
0.080000 0.625000 0.360000
0.227500 0.625000 0.360000
0.375000 0.625000 0.360000
0.522500 0.625000 0.360000
0.670000 0.625000 0.360000
0.817500 0.625000 0.360000
0.965000 0.625000 0.360000
1.000000 0.625000 0.360000
1.000000 0.625000 0.360000
0.080000 0.750000 0.360000
0.227500 0.750000 0.360000
0.375000 0.750000 0.360000
0.522500 0.750000 0.360000
0.670000 0.750000 0.360000
0.817500 0.750000 0.360000
0.965000 0.750000 0.360000
1.000000 0.750000 0.360000
1.000000 0.750000 0.360000
0.080000 0.875000 0.360000
0.227500 0.875000 0.360000
0.375000 0.875000 0.360000
0.522500 0.875000 0.360000
0.670000 0.875000 0.360000
0.817500 0.875000 0.360000
0.965000 0.875000 0.360000
1.000000 0.875000 0.360000
1.000000 0.875000 0.360000
0.080000 1.000000 0.360000
0.227500 1.000000 0.360000
0.375000 1.000000 0.360000
0.522500 1.000000 0.360000
0.670000 1.000000 0.360000
0.817500 1.000000 0.360000
0.965000 1.000000 0.360000
1.000000 1.000000 0.360000
1.000000 1.000000 0.360000
0.080000 0.000000 0.450000
0.227500 0.000000 0.450000
0.375000 0.000000 0.450000
0.522500 0.000000 0.450000
0.670000 0.000000 0.450000
0.817500 0.000000 0.450000
0.965000 0.000000 0.450000
1.000000 0.000000 0.450000
1.000000 0.000000 0.450000
0.080000 0.125000 0.450000
0.227500 0.125000 0.450000
0.375000 0.125000 0.450000
0.522500 0.125000 0.450000
0.670000 0.125000 0.450000
0.817500 0.125000 0.450000
0.965000 0.125000 0.450000
1.000000 0.125000 0.450000
1.000000 0.125000 0.450000
0.080000 0.250000 0.450000
0.227500 0.250000 0.450000
0.375000 0.250000 0.450000
0.522500 0.250000 0.450000
0.670000 0.250000 0.450000
0.817500 0.250000 0.450000
0.965000 0.250000 0.450000
1.000000 0.250000 0.450000
1.000000 0.250000 0.450000
0.080000 0.375000 0.450000
0.227500 0.375000 0.450000
0.375000 0.375000 0.450000
0.522500 0.375000 0.450000
0.670000 0.375000 0.450000
0.817500 0.375000 0.450000
0.965000 0.375000 0.450000
1.000000 0.375000 0.450000
1.000000 0.375000 0.450000
0.080000 0.500000 0.450000
0.227500 0.500000 0.450000
0.375000 0.500000 0.450000
0.522500 0.500000 0.450000
0.670000 0.500000 0.450000
0.817500 0.500000 0.450000
0.965000 0.500000 0.450000
1.000000 0.500000 0.450000
1.000000 0.500000 0.450000
0.080000 0.625000 0.450000
0.227500 0.625000 0.450000
0.375000 0.625000 0.450000
0.522500 0.625000 0.450000
0.670000 0.625000 0.450000
0.817500 0.625000 0.450000
0.965000 0.625000 0.450000
1.000000 0.625000 0.450000
1.000000 0.625000 0.450000
0.080000 0.750000 0.450000
0.227500 0.750000 0.450000
0.375000 0.750000 0.450000
0.522500 0.750000 0.450000
0.670000 0.750000 0.450000
0.817500 0.750000 0.450000
0.965000 0.750000 0.450000
1.000000 0.750000 0.450000
1.000000 0.750000 0.450000
0.080000 0.875000 0.450000
0.227500 0.875000 0.450000
0.375000 0.875000 0.450000
0.522500 0.875000 0.450000
0.670000 0.875000 0.450000
0.817500 0.875000 0.450000
0.965000 0.875000 0.450000
1.000000 0.875000 0.450000
1.000000 0.875000 0.450000
0.080000 1.000000 0.450000
0.227500 1.000000 0.450000
0.375000 1.000000 0.450000
0.522500 1.000000 0.450000
0.670000 1.000000 0.450000
0.817500 1.000000 0.450000
0.965000 1.000000 0.450000
1.000000 1.000000 0.450000
1.000000 1.000000 0.450000
0.080000 0.000000 0.540000
0.227500 0.000000 0.540000
0.375000 0.000000 0.540000
0.522500 0.000000 0.540000
0.670000 0.000000 0.540000
0.817500 0.000000 0.540000
0.965000 0.000000 0.540000
1.000000 0.000000 0.540000
1.000000 0.000000 0.540000
0.080000 0.125000 0.540000
0.227500 0.125000 0.540000
0.375000 0.125000 0.540000
0.522500 0.125000 0.540000
0.670000 0.125000 0.540000
0.817500 0.125000 0.540000
0.965000 0.125000 0.540000
1.000000 0.125000 0.540000
1.000000 0.125000 0.540000
0.080000 0.250000 0.540000
0.227500 0.250000 0.540000
0.375000 0.250000 0.540000
0.522500 0.250000 0.540000
0.670000 0.250000 0.540000
0.817500 0.250000 0.540000
0.965000 0.250000 0.540000
1.000000 0.250000 0.540000
1.000000 0.250000 0.540000
0.080000 0.375000 0.540000
0.227500 0.375000 0.540000
0.375000 0.375000 0.540000
0.522500 0.375000 0.540000
0.670000 0.375000 0.540000
0.817500 0.375000 0.540000
0.965000 0.375000 0.540000
1.000000 0.375000 0.540000
1.000000 0.375000 0.540000
0.080000 0.500000 0.540000
0.227500 0.500000 0.540000
0.375000 0.500000 0.540000
0.522500 0.500000 0.540000
0.670000 0.500000 0.540000
0.817500 0.500000 0.540000
0.965000 0.500000 0.540000
1.000000 0.500000 0.540000
1.000000 0.500000 0.540000
0.080000 0.625000 0.540000
0.227500 0.625000 0.540000
0.375000 0.625000 0.540000
0.522500 0.625000 0.540000
0.670000 0.625000 0.540000
0.817500 0.625000 0.540000
0.965000 0.625000 0.540000
1.000000 0.625000 0.540000
1.000000 0.625000 0.540000
0.080000 0.750000 0.540000
0.227500 0.750000 0.540000
0.375000 0.750000 0.540000
0.522500 0.750000 0.540000
0.670000 0.750000 0.540000
0.817500 0.750000 0.540000
0.965000 0.750000 0.540000
1.000000 0.750000 0.540000
1.000000 0.750000 0.540000
0.080000 0.875000 0.540000
0.227500 0.875000 0.540000
0.375000 0.875000 0.540000
0.522500 0.875000 0.540000
0.670000 0.875000 0.540000
0.817500 0.875000 0.540000
0.965000 0.875000 0.540000
1.000000 0.875000 0.540000
1.000000 0.875000 0.540000
0.080000 1.000000 0.540000
0.227500 1.000000 0.540000
0.375000 1.000000 0.540000
0.522500 1.000000 0.540000
0.670000 1.000000 0.540000
0.817500 1.000000 0.540000
0.965000 1.000000 0.540000
1.000000 1.000000 0.540000
1.000000 1.000000 0.540000
0.080000 0.000000 0.630000
0.227500 0.000000 0.630000
0.375000 0.000000 0.630000
0.522500 0.000000 0.630000
0.670000 0.000000 0.630000
0.817500 0.000000 0.630000
0.965000 0.000000 0.630000
1.000000 0.000000 0.630000
1.000000 0.000000 0.630000
0.080000 0.125000 0.630000
0.227500 0.125000 0.630000
0.375000 0.125000 0.630000
0.522500 0.125000 0.630000
0.670000 0.125000 0.630000
0.817500 0.125000 0.630000
0.965000 0.125000 0.630000
1.000000 0.125000 0.630000
1.000000 0.125000 0.630000
0.080000 0.250000 0.630000
0.227500 0.250000 0.630000
0.375000 0.250000 0.630000
0.522500 0.250000 0.630000
0.670000 0.250000 0.630000
0.817500 0.250000 0.630000
0.965000 0.250000 0.630000
1.000000 0.250000 0.630000
1.000000 0.250000 0.630000
0.080000 0.375000 0.630000
0.227500 0.375000 0.630000
0.375000 0.375000 0.630000
0.522500 0.375000 0.630000
0.670000 0.375000 0.630000
0.817500 0.375000 0.630000
0.965000 0.375000 0.630000
1.000000 0.375000 0.630000
1.000000 0.375000 0.630000
0.080000 0.500000 0.630000
0.227500 0.500000 0.630000
0.375000 0.500000 0.630000
0.522500 0.500000 0.630000
0.670000 0.500000 0.630000
0.817500 0.500000 0.630000
0.965000 0.500000 0.630000
1.000000 0.500000 0.630000
1.000000 0.500000 0.630000
0.080000 0.625000 0.630000
0.227500 0.625000 0.630000
0.375000 0.625000 0.630000
0.522500 0.625000 0.630000
0.670000 0.625000 0.630000
0.817500 0.625000 0.630000
0.965000 0.625000 0.630000
1.000000 0.625000 0.630000
1.000000 0.625000 0.630000
0.080000 0.750000 0.630000
0.227500 0.750000 0.630000
0.375000 0.750000 0.630000
0.522500 0.750000 0.630000
0.670000 0.750000 0.630000
0.817500 0.750000 0.630000
0.965000 0.750000 0.630000
1.000000 0.750000 0.630000
1.000000 0.750000 0.630000
0.080000 0.875000 0.630000
0.227500 0.875000 0.630000
0.375000 0.875000 0.630000
0.522500 0.875000 0.630000
0.670000 0.875000 0.630000
0.817500 0.875000 0.630000
0.965000 0.875000 0.630000
1.000000 0.875000 0.630000
1.000000 0.875000 0.630000
0.080000 1.000000 0.630000
0.227500 1.000000 0.630000
0.375000 1.000000 0.630000
0.522500 1.000000 0.630000
0.670000 1.000000 0.630000
0.817500 1.000000 0.630000
0.965000 1.000000 0.630000
1.000000 1.000000 0.630000
1.000000 1.000000 0.630000
0.080000 0.000000 0.720000
0.227500 0.000000 0.720000
0.375000 0.000000 0.720000
0.522500 0.000000 0.720000
0.670000 0.000000 0.720000
0.817500 0.000000 0.720000
0.965000 0.000000 0.720000
1.000000 0.000000 0.720000
1.000000 0.000000 0.720000
0.080000 0.125000 0.720000
0.227500 0.125000 0.720000
0.375000 0.125000 0.720000
0.522500 0.125000 0.720000
0.670000 0.125000 0.720000
0.817500 0.125000 0.720000
0.965000 0.125000 0.720000
1.000000 0.125000 0.720000
1.000000 0.125000 0.720000
0.080000 0.250000 0.720000
0.227500 0.250000 0.720000
0.375000 0.250000 0.720000
0.522500 0.250000 0.720000
0.670000 0.250000 0.720000
0.817500 0.250000 0.720000
0.965000 0.250000 0.720000
1.000000 0.250000 0.720000
1.000000 0.250000 0.720000
0.080000 0.375000 0.720000
0.227500 0.375000 0.720000
0.375000 0.375000 0.720000
0.522500 0.375000 0.720000
0.670000 0.375000 0.720000
0.817500 0.375000 0.720000
0.965000 0.375000 0.720000
1.000000 0.375000 0.720000
1.000000 0.375000 0.720000
0.080000 0.500000 0.720000
0.227500 0.500000 0.720000
0.375000 0.500000 0.720000
0.522500 0.500000 0.720000
0.670000 0.500000 0.720000
0.817500 0.500000 0.720000
0.965000 0.500000 0.720000
1.000000 0.500000 0.720000
1.000000 0.500000 0.720000
0.080000 0.625000 0.720000
0.227500 0.625000 0.720000
0.375000 0.625000 0.720000
0.522500 0.625000 0.720000
0.670000 0.625000 0.720000
0.817500 0.625000 0.720000
0.965000 0.625000 0.720000
1.000000 0.625000 0.720000
1.000000 0.625000 0.720000
0.080000 0.750000 0.720000
0.227500 0.750000 0.720000
0.375000 0.750000 0.720000
0.522500 0.750000 0.720000
0.670000 0.750000 0.720000
0.817500 0.750000 0.720000
0.965000 0.750000 0.720000
1.000000 0.750000 0.720000
1.000000 0.750000 0.720000
0.080000 0.875000 0.720000
0.227500 0.875000 0.720000
0.375000 0.875000 0.720000
0.522500 0.875000 0.720000
0.670000 0.875000 0.720000
0.817500 0.875000 0.720000
0.965000 0.875000 0.720000
1.000000 0.875000 0.720000
1.000000 0.875000 0.720000
0.080000 1.000000 0.720000
0.227500 1.000000 0.720000
0.375000 1.000000 0.720000
0.522500 1.000000 0.720000
0.670000 1.000000 0.720000
0.817500 1.000000 0.720000
0.965000 1.000000 0.720000
1.000000 1.000000 0.720000
1.000000 1.000000 0.720000
